;FLAVOR:Marlin
;TIME:2719
;Filament used: 0.839397m
;Layer height: 0.08
;MINX:82.511
;MINY:82.515
;MINZ:0.2
;MAXX:137.491
;MAXY:137.49
;MAXZ:4.28
;Generated with Cura_SteamEngine 4.10.0
M140 S60
M105
M190 S60
M104 S215
M105
M109 S215
M82 ;absolute extrusion mode
; Ender 3 Custom Start G-code
G92 E0 ; Reset Extruder
G28 ; Home all axes
G1 Z2.0 F3000 ; Move Z Axis up little to prevent scratching of Heat Bed
G1 X0.1 Y20 Z0.3 F5000.0 ; Move to start position
G1 X0.1 Y200.0 Z0.3 F1500.0 E15 ; Draw the first line
G1 X0.4 Y200.0 Z0.3 F5000.0 ; Move to side a little
G1 X0.4 Y20 Z0.3 F1500.0 E30 ; Draw the second line
G92 E0 ; Reset Extruder
G1 Z2.0 F3000 ; Move Z Axis up little to prevent scratching of Heat Bed
G1 X5 Y20 Z0.3 F5000.0 ; Move over to prevent blob squish
G92 E0
G92 E0
G1 F1800 E-6.5
;LAYER_COUNT:53
;LAYER:0
M107
G0 F6000 X90.554 Y90.577 Z0.2
;TYPE:SKIRT
G1 F1800 E0
G1 F1200 X91.317 Y89.85 E0.03505
G1 X91.661 Y89.536 E0.05054
G1 X92.373 Y88.913 E0.08201
G1 X92.645 Y88.683 E0.09386
G1 X92.789 Y88.565 E0.10005
G1 X93.275 Y88.188 E0.12051
G1 X94.286 Y87.45 E0.16214
G1 X94.861 Y87.058 E0.18529
G1 X95.495 Y86.654 E0.21029
G1 X95.84 Y86.443 E0.22374
G1 X96.498 Y86.057 E0.24911
G1 X97.049 Y85.755 E0.27001
G1 X97.703 Y85.42 E0.29445
G1 X98.08 Y85.236 E0.3084
G1 X98.837 Y84.884 E0.33617
G1 X99.19 Y84.727 E0.34902
G1 X99.495 Y84.598 E0.36004
G1 X99.751 Y84.493 E0.36924
G1 X100.127 Y84.345 E0.38268
G1 X100.451 Y84.224 E0.39418
G1 X100.957 Y84.043 E0.41206
G1 X101.259 Y83.94 E0.42267
G1 X101.674 Y83.805 E0.43718
G1 X101.968 Y83.713 E0.44743
G1 X102.545 Y83.543 E0.46744
G1 X102.872 Y83.452 E0.47873
G1 X103.4 Y83.314 E0.49688
G1 X103.881 Y83.2 E0.51332
G1 X104.526 Y83.062 E0.53526
G1 X105.035 Y82.966 E0.55248
G1 X105.798 Y82.84 E0.57821
G1 X106.175 Y82.784 E0.59088
G1 X106.707 Y82.715 E0.60872
G1 X107.132 Y82.669 E0.62294
G1 X108.073 Y82.584 E0.65437
G1 X108.506 Y82.553 E0.66881
G1 X108.979 Y82.529 E0.68456
G1 X109.578 Y82.515 E0.70449
G1 X110.365 Y82.518 E0.73066
G1 X110.787 Y82.528 E0.7447
G1 X111.403 Y82.554 E0.76521
G1 X111.829 Y82.58 E0.7794
G1 X112.839 Y82.662 E0.81311
G1 X113.248 Y82.703 E0.82678
G1 X113.475 Y82.73 E0.83438
G1 X113.943 Y82.796 E0.8501
G1 X114.791 Y82.934 E0.87868
G1 X115.107 Y82.99 E0.88935
G1 X115.444 Y83.055 E0.90077
G1 X115.75 Y83.119 E0.91116
G1 X116.177 Y83.214 E0.92571
G1 X116.69 Y83.341 E0.94329
G1 X117.721 Y83.623 E0.97884
G1 X118.054 Y83.719 E0.99037
G1 X118.314 Y83.799 E0.99942
G1 X118.843 Y83.977 E1.01798
G1 X119.763 Y84.312 E1.05055
G1 X120.156 Y84.464 E1.06456
G1 X120.886 Y84.762 E1.09079
G1 X121.25 Y84.918 E1.10396
G1 X121.423 Y84.996 E1.11027
G1 X121.882 Y85.216 E1.1272
G1 X122.845 Y85.705 E1.16312
G1 X123.219 Y85.904 E1.17721
G1 X123.813 Y86.235 E1.19983
G1 X124.145 Y86.427 E1.21258
G1 X124.41 Y86.587 E1.22288
G1 X124.826 Y86.851 E1.23927
G1 X125.579 Y87.353 E1.26937
G1 X126.148 Y87.76 E1.29264
G1 X127.206 Y88.567 E1.33689
G1 X127.558 Y88.846 E1.35183
G1 X127.687 Y88.953 E1.35741
G1 X128.064 Y89.281 E1.37403
G1 X128.846 Y89.992 E1.40918
G1 X129.34 Y90.471 E1.43207
G1 X129.995 Y91.146 E1.46335
G1 X130.261 Y91.43 E1.47629
G1 X130.562 Y91.763 E1.49122
G1 X130.816 Y92.054 E1.50407
G1 X131.344 Y92.681 E1.53133
G1 X131.567 Y92.954 E1.54306
G1 X131.735 Y93.167 E1.55208
G1 X132.062 Y93.604 E1.57023
G1 X132.68 Y94.473 E1.6057
G1 X132.901 Y94.796 E1.61872
G1 X133.127 Y95.139 E1.63238
G1 X133.299 Y95.407 E1.64297
G1 X133.49 Y95.716 E1.65505
G1 X133.765 Y96.187 E1.67319
G1 X134.326 Y97.204 E1.71182
G1 X134.482 Y97.498 E1.72289
G1 X134.582 Y97.693 E1.73018
G1 X134.853 Y98.261 E1.75111
G1 X135.265 Y99.192 E1.78497
G1 X135.445 Y99.622 E1.80048
G1 X135.703 Y100.279 E1.82396
G1 X135.86 Y100.706 E1.83909
G1 X136.075 Y101.328 E1.86098
G1 X136.207 Y101.735 E1.87521
G1 X136.467 Y102.594 E1.90506
G1 X136.57 Y102.956 E1.91758
G1 X136.65 Y103.257 E1.92793
G1 X136.768 Y103.747 E1.9447
G1 X136.902 Y104.364 E1.9657
G1 X136.973 Y104.717 E1.97767
G1 X137.06 Y105.192 E1.99373
G1 X137.128 Y105.606 E2.00769
G1 X137.289 Y106.724 E2.04526
G1 X137.337 Y107.104 E2.058
G1 X137.361 Y107.325 E2.06539
G1 X137.406 Y107.861 E2.08328
G1 X137.455 Y108.686 E2.11077
G1 X137.47 Y109.048 E2.12282
G1 X137.487 Y109.692 E2.14425
G1 X137.491 Y110.022 E2.15522
G1 X137.49 Y110.3 E2.16447
G1 X137.473 Y110.871 E2.18347
G1 X137.413 Y111.95 E2.21941
G1 X137.38 Y112.383 E2.23386
G1 X137.316 Y113.054 E2.25627
G1 X137.28 Y113.384 E2.26732
G1 X137.225 Y113.821 E2.28196
G1 X137.151 Y114.315 E2.29858
G1 X137.04 Y114.959 E2.32031
G1 X136.914 Y115.584 E2.34152
G1 X136.645 Y116.74 E2.381
G1 X136.526 Y117.205 E2.39696
G1 X136.439 Y117.509 E2.40748
G1 X136.169 Y118.404 E2.43857
G1 X136.074 Y118.706 E2.4491
G1 X136.023 Y118.859 E2.45446
G1 X135.899 Y119.21 E2.46684
G1 X135.678 Y119.805 E2.48796
G1 X135.54 Y120.157 E2.50053
G1 X135.251 Y120.86 E2.52581
G1 X135.097 Y121.218 E2.53877
G1 X134.986 Y121.463 E2.54772
G1 X134.864 Y121.722 E2.55724
G1 X134.577 Y122.314 E2.57912
G1 X134.442 Y122.583 E2.58913
G1 X134.32 Y122.818 E2.59794
G1 X134.159 Y123.117 E2.60924
G1 X133.884 Y123.609 E2.62798
G1 X133.711 Y123.907 E2.63944
G1 X133.419 Y124.393 E2.6583
G1 X133.245 Y124.673 E2.66927
G1 X132.999 Y125.056 E2.68441
G1 X132.775 Y125.392 E2.69784
G1 X132.558 Y125.704 E2.71048
G1 X132.344 Y126 E2.72263
G1 X131.836 Y126.681 E2.75088
G1 X131.563 Y127.032 E2.76567
G1 X131.023 Y127.698 E2.79419
G1 X130.756 Y128.015 E2.80798
G1 X130.44 Y128.376 E2.82393
G1 X130.213 Y128.627 E2.83519
G1 X129.888 Y128.976 E2.85105
G1 X129.558 Y129.316 E2.86681
G1 X129.015 Y129.851 E2.89216
G1 X128.667 Y130.179 E2.90807
G1 X128.244 Y130.561 E2.92703
G1 X127.836 Y130.912 E2.94493
G1 X126.985 Y131.608 E2.98149
G1 X126.696 Y131.836 E2.99373
G1 X126.379 Y132.078 E3.007
G1 X125.961 Y132.382 E3.02419
G1 X125.439 Y132.743 E3.0453
G1 X125.053 Y132.998 E3.06069
G1 X124.313 Y133.465 E3.08979
G1 X123.954 Y133.682 E3.10374
G1 X123.6 Y133.887 E3.11735
G1 X123.33 Y134.038 E3.12764
G1 X122.867 Y134.289 E3.14515
G1 X122.561 Y134.449 E3.15664
G1 X122.093 Y134.684 E3.17406
G1 X121.74 Y134.854 E3.18709
G1 X121.14 Y135.129 E3.20904
G1 X120.828 Y135.266 E3.22037
G1 X120.593 Y135.365 E3.22886
G1 X120.325 Y135.474 E3.23848
G1 X119.698 Y135.719 E3.26087
G1 X119.367 Y135.842 E3.27261
G1 X118.887 Y136.012 E3.28955
G1 X118.46 Y136.154 E3.30452
G1 X117.851 Y136.342 E3.32571
G1 X117.33 Y136.488 E3.34371
G1 X116.344 Y136.74 E3.37756
G1 X116.047 Y136.812 E3.38772
G1 X115.711 Y136.888 E3.39918
G1 X115.198 Y136.991 E3.41658
G1 X114.519 Y137.111 E3.43952
G1 X114.186 Y137.165 E3.45074
G1 X113.773 Y137.225 E3.46462
G1 X113.407 Y137.272 E3.47689
G1 X112.741 Y137.346 E3.49918
G1 X112.354 Y137.382 E3.51211
G1 X111.692 Y137.432 E3.53419
G1 X111.279 Y137.455 E3.54795
G1 X110.617 Y137.48 E3.56998
G1 X110.266 Y137.488 E3.58166
G1 X109.923 Y137.49 E3.59306
G1 X109.417 Y137.481 E3.6099
G1 X108.647 Y137.45 E3.63553
G1 X108.229 Y137.425 E3.64946
G1 X107.336 Y137.355 E3.67925
G1 X106.95 Y137.318 E3.69215
G1 X106.357 Y137.248 E3.71201
G1 X106.175 Y137.223 E3.71812
G1 X105.884 Y137.179 E3.7279
G1 X105.277 Y137.079 E3.74837
G1 X104.76 Y136.981 E3.76587
G1 X103.752 Y136.765 E3.80015
G1 X103.095 Y136.603 E3.82266
G1 X102.108 Y136.327 E3.85675
G1 X101.708 Y136.207 E3.87064
G1 X101.437 Y136.12 E3.8801
G1 X101.002 Y135.97 E3.89541
G1 X100.208 Y135.678 E3.92355
G1 X99.796 Y135.517 E3.93826
G1 X98.992 Y135.184 E3.9672
G1 X98.674 Y135.046 E3.97873
G1 X98.395 Y134.92 E3.98891
G1 X97.885 Y134.674 E4.00775
G1 X97.021 Y134.229 E4.04007
G1 X96.718 Y134.067 E4.0515
G1 X96.329 Y133.851 E4.0663
G1 X96.005 Y133.663 E4.07876
G1 X95.722 Y133.493 E4.08974
G1 X95.307 Y133.232 E4.10604
G1 X94.559 Y132.736 E4.13589
G1 X94.225 Y132.505 E4.1494
G1 X93.623 Y132.073 E4.17405
G1 X93.324 Y131.851 E4.18643
G1 X92.98 Y131.58 E4.201
G1 X92.095 Y130.853 E4.23909
G1 X91.645 Y130.463 E4.2589
G1 X91.358 Y130.2 E4.27184
G1 X91.09 Y129.945 E4.28415
G1 X90.532 Y129.398 E4.31014
G1 X90.276 Y129.139 E4.32225
G1 X89.876 Y128.72 E4.34152
G1 X89.624 Y128.447 E4.35387
G1 X89.351 Y128.141 E4.36751
G1 X89.131 Y127.887 E4.37869
G1 X88.793 Y127.484 E4.39618
G1 X88.553 Y127.188 E4.40886
G1 X88.099 Y126.607 E4.43338
G1 X87.889 Y126.328 E4.445
G1 X87.731 Y126.112 E4.4539
G1 X87.489 Y125.768 E4.46789
G1 X86.926 Y124.933 E4.50138
G1 X86.686 Y124.563 E4.51605
G1 X86.484 Y124.228 E4.52906
G1 X85.971 Y123.345 E4.56303
G1 X85.78 Y123.002 E4.57608
G1 X85.655 Y122.768 E4.58491
G1 X85.406 Y122.273 E4.60334
G1 X84.95 Y121.305 E4.63893
G1 X84.776 Y120.915 E4.65313
G1 X84.672 Y120.67 E4.66198
G1 X84.531 Y120.323 E4.67444
G1 X84.14 Y119.307 E4.71065
G1 X84.013 Y118.961 E4.72291
G1 X83.919 Y118.69 E4.73245
G1 X83.763 Y118.201 E4.74952
G1 X83.558 Y117.507 E4.77359
G1 X83.418 Y116.99 E4.7914
G1 X83.25 Y116.299 E4.81506
G1 X83.16 Y115.893 E4.82889
G1 X82.982 Y115.018 E4.85859
G1 X82.903 Y114.588 E4.87313
G1 X82.821 Y114.083 E4.89014
G1 X82.763 Y113.675 E4.90385
G1 X82.672 Y112.942 E4.92842
G1 X82.636 Y112.614 E4.93939
G1 X82.603 Y112.262 E4.95115
G1 X82.58 Y111.97 E4.96089
G1 X82.563 Y111.716 E4.96936
G1 X82.546 Y111.399 E4.97992
G1 X82.52 Y110.716 E5.00265
G1 X82.513 Y110.41 E5.01283
G1 X82.511 Y110.213 E5.01938
G1 X82.513 Y109.863 E5.03103
G1 X82.53 Y109.079 E5.05711
G1 X82.547 Y108.653 E5.07129
G1 X82.591 Y107.925 E5.09555
G1 X82.651 Y107.261 E5.11772
G1 X82.771 Y106.274 E5.15079
G1 X82.831 Y105.854 E5.1649
G1 X82.929 Y105.245 E5.18542
G1 X82.989 Y104.906 E5.19687
G1 X83.029 Y104.699 E5.20388
G1 X83.102 Y104.349 E5.21577
G1 X83.301 Y103.473 E5.24565
G1 X83.391 Y103.107 E5.25819
G1 X83.479 Y102.773 E5.26967
G1 X83.567 Y102.46 E5.28049
G1 X83.72 Y101.942 E5.29845
G1 X83.822 Y101.614 E5.30988
G1 X83.942 Y101.25 E5.32262
G1 X84.046 Y100.95 E5.33318
G1 X84.29 Y100.276 E5.35703
G1 X84.409 Y99.963 E5.36816
G1 X84.559 Y99.585 E5.38169
G1 X84.752 Y99.127 E5.39822
G1 X85.032 Y98.505 E5.42091
G1 X85.197 Y98.155 E5.43378
G1 X85.553 Y97.433 E5.46055
G1 X85.71 Y97.127 E5.47199
G1 X85.857 Y96.851 E5.48239
G1 X86.025 Y96.547 E5.49394
G1 X86.196 Y96.249 E5.50537
G1 X86.364 Y95.967 E5.51629
G1 X86.703 Y95.415 E5.53783
G1 X86.913 Y95.085 E5.55084
G1 X87.382 Y94.379 E5.57903
G1 X87.669 Y93.968 E5.59571
G1 X87.832 Y93.747 E5.60484
G1 X88.232 Y93.218 E5.6269
G1 X88.463 Y92.922 E5.63939
G1 X88.768 Y92.546 E5.65549
G1 X89.035 Y92.23 E5.66925
G1 X89.64 Y91.539 E5.6998
G1 X89.846 Y91.31 E5.71004
G1 X90.072 Y91.066 E5.7211
G1 X90.554 Y90.577 E5.74394
G0 F6000 X90.83 Y90.867
G1 F1200 X91.593 Y90.14 E5.77899
G1 X91.925 Y89.837 E5.79394
G1 X92.637 Y89.214 E5.82541
G1 X92.898 Y88.992 E5.83681
G1 X93.042 Y88.874 E5.843
G1 X93.511 Y88.511 E5.86272
G1 X94.522 Y87.773 E5.90436
G1 X95.076 Y87.396 E5.92664
G1 X95.71 Y86.992 E5.95165
G1 X96.043 Y86.788 E5.96464
G1 X96.701 Y86.402 E5.99001
G1 X97.231 Y86.111 E6.01012
G1 X97.885 Y85.776 E6.03456
G1 X98.249 Y85.598 E6.04804
G1 X99.006 Y85.246 E6.0758
G1 X99.346 Y85.095 E6.08818
G1 X99.651 Y84.966 E6.09919
G1 X99.898 Y84.866 E6.10805
G1 X100.274 Y84.718 E6.12149
G1 X100.586 Y84.6 E6.13259
G1 X101.092 Y84.419 E6.15046
G1 X101.383 Y84.32 E6.16069
G1 X101.798 Y84.185 E6.1752
G1 X102.081 Y84.097 E6.18506
G1 X102.658 Y83.927 E6.20506
G1 X102.974 Y83.839 E6.21597
G1 X103.502 Y83.701 E6.23413
G1 X103.964 Y83.592 E6.24991
G1 X104.609 Y83.454 E6.27185
G1 X105.1 Y83.361 E6.28847
G1 X105.863 Y83.235 E6.31419
G1 X106.227 Y83.181 E6.32643
G1 X106.759 Y83.112 E6.34428
G1 X107.168 Y83.067 E6.35796
G1 X108.109 Y82.982 E6.38939
G1 X108.526 Y82.953 E6.40329
G1 X108.999 Y82.929 E6.41904
G1 X109.576 Y82.915 E6.43824
G1 X110.363 Y82.918 E6.46441
G1 X110.77 Y82.927 E6.47795
G1 X111.386 Y82.953 E6.49846
G1 X111.797 Y82.979 E6.51216
G1 X112.807 Y83.061 E6.54586
G1 X113.201 Y83.1 E6.55903
G1 X113.428 Y83.127 E6.56663
G1 X113.879 Y83.191 E6.58178
G1 X114.727 Y83.329 E6.61036
G1 X115.032 Y83.383 E6.62066
G1 X115.369 Y83.448 E6.63208
G1 X115.663 Y83.509 E6.64206
G1 X116.09 Y83.604 E6.65661
G1 X116.585 Y83.727 E6.67358
G1 X117.616 Y84.009 E6.70913
G1 X117.936 Y84.102 E6.72021
G1 X118.196 Y84.182 E6.72926
G1 X118.706 Y84.353 E6.74715
G1 X119.626 Y84.688 E6.77972
G1 X120.005 Y84.834 E6.79322
G1 X120.735 Y85.132 E6.81945
G1 X121.086 Y85.283 E6.83216
G1 X121.259 Y85.361 E6.83847
G1 X121.701 Y85.573 E6.85477
G1 X122.664 Y86.062 E6.8907
G1 X123.025 Y86.254 E6.9043
G1 X123.619 Y86.585 E6.92691
G1 X123.938 Y86.77 E6.93918
G1 X124.203 Y86.93 E6.94947
G1 X124.604 Y87.184 E6.96526
G1 X125.357 Y87.686 E6.99536
G1 X125.906 Y88.078 E7.0178
G1 X126.964 Y88.885 E7.06206
G1 X127.302 Y89.154 E7.07642
G1 X127.431 Y89.261 E7.082
G1 X127.795 Y89.577 E7.09803
G1 X128.577 Y90.288 E7.13318
G1 X129.053 Y90.749 E7.15522
G1 X129.708 Y91.424 E7.18651
G1 X129.965 Y91.698 E7.199
G1 X130.266 Y92.031 E7.21393
G1 X130.51 Y92.311 E7.22628
G1 X131.038 Y92.938 E7.25355
G1 X131.253 Y93.202 E7.26487
G1 X131.421 Y93.415 E7.27389
G1 X131.736 Y93.836 E7.29138
G1 X132.354 Y94.705 E7.32685
G1 X132.567 Y95.016 E7.33939
G1 X132.793 Y95.359 E7.35305
G1 X132.959 Y95.618 E7.36328
G1 X133.15 Y95.927 E7.37536
G1 X133.415 Y96.38 E7.39282
G1 X133.976 Y97.397 E7.43145
G1 X134.126 Y97.68 E7.4421
G1 X134.226 Y97.875 E7.44939
G1 X134.487 Y98.422 E7.46955
G1 X134.899 Y99.353 E7.50341
G1 X135.073 Y99.768 E7.51838
G1 X135.331 Y100.425 E7.54185
G1 X135.482 Y100.837 E7.55645
G1 X135.697 Y101.459 E7.57834
G1 X135.824 Y101.851 E7.59204
G1 X136.084 Y102.71 E7.62189
G1 X136.183 Y103.058 E7.63393
G1 X136.263 Y103.359 E7.64428
G1 X136.378 Y103.832 E7.66047
G1 X136.512 Y104.449 E7.68147
G1 X136.58 Y104.789 E7.69301
G1 X136.667 Y105.264 E7.70907
G1 X136.732 Y105.663 E7.72251
G1 X136.893 Y106.781 E7.76008
G1 X136.939 Y107.148 E7.77238
G1 X136.963 Y107.369 E7.77978
G1 X137.006 Y107.885 E7.797
G1 X137.055 Y108.71 E7.82449
G1 X137.07 Y109.058 E7.83607
G1 X137.087 Y109.702 E7.8575
G1 X137.091 Y110.02 E7.86808
G1 X137.09 Y110.298 E7.87732
G1 X137.074 Y110.849 E7.89566
G1 X137.014 Y111.928 E7.9316
G1 X136.982 Y112.345 E7.94551
G1 X136.918 Y113.016 E7.96793
G1 X136.883 Y113.334 E7.97857
G1 X136.828 Y113.771 E7.99322
G1 X136.757 Y114.247 E8.00923
G1 X136.646 Y114.891 E8.03096
G1 X136.524 Y115.493 E8.05139
G1 X136.255 Y116.649 E8.09087
G1 X136.14 Y117.101 E8.10638
G1 X136.056 Y117.393 E8.11649
G1 X135.786 Y118.288 E8.14758
G1 X135.694 Y118.579 E8.15773
G1 X135.643 Y118.732 E8.16309
G1 X135.524 Y119.071 E8.17504
G1 X135.303 Y119.666 E8.19616
G1 X135.17 Y120.005 E8.20827
G1 X134.881 Y120.708 E8.23355
G1 X134.732 Y121.052 E8.24602
G1 X134.621 Y121.297 E8.25496
G1 X134.504 Y121.547 E8.26414
G1 X134.217 Y122.139 E8.28602
G1 X134.087 Y122.399 E8.29569
G1 X133.965 Y122.634 E8.3045
G1 X133.81 Y122.922 E8.31538
G1 X133.535 Y123.414 E8.33412
G1 X133.368 Y123.701 E8.34517
G1 X133.076 Y124.187 E8.36403
G1 X132.909 Y124.456 E8.37456
G1 X132.663 Y124.839 E8.3897
G1 X132.446 Y125.163 E8.40267
G1 X132.229 Y125.475 E8.41531
G1 X132.023 Y125.761 E8.42703
G1 X131.515 Y126.442 E8.45529
G1 X131.253 Y126.78 E8.46951
G1 X130.713 Y127.446 E8.49803
G1 X130.455 Y127.752 E8.51134
G1 X130.139 Y128.113 E8.5273
G1 X129.92 Y128.355 E8.53815
G1 X129.595 Y128.704 E8.55402
G1 X129.278 Y129.031 E8.56916
G1 X128.735 Y129.566 E8.59452
G1 X128.399 Y129.882 E8.60986
G1 X127.976 Y130.264 E8.62882
G1 X127.583 Y130.602 E8.64606
G1 X126.732 Y131.298 E8.68262
G1 X126.453 Y131.518 E8.69444
G1 X126.136 Y131.76 E8.7077
G1 X125.733 Y132.053 E8.72428
G1 X125.211 Y132.414 E8.74538
G1 X124.839 Y132.66 E8.76022
G1 X124.099 Y133.127 E8.78932
G1 X123.754 Y133.336 E8.80274
G1 X123.4 Y133.541 E8.81634
G1 X123.14 Y133.687 E8.82626
G1 X122.677 Y133.938 E8.84378
G1 X122.382 Y134.092 E8.85485
G1 X121.914 Y134.327 E8.87226
G1 X121.574 Y134.49 E8.88481
G1 X120.974 Y134.765 E8.90676
G1 X120.672 Y134.898 E8.91773
G1 X120.437 Y134.997 E8.92621
G1 X120.18 Y135.101 E8.93544
G1 X119.553 Y135.346 E8.95783
G1 X119.234 Y135.465 E8.96915
G1 X118.754 Y135.635 E8.98609
G1 X118.342 Y135.771 E9.00052
G1 X117.733 Y135.959 E9.02172
G1 X117.231 Y136.101 E9.03907
G1 X116.245 Y136.353 E9.07292
G1 X115.959 Y136.422 E9.0827
G1 X115.623 Y136.498 E9.09416
G1 X115.129 Y136.597 E9.11092
G1 X114.45 Y136.717 E9.13385
G1 X114.129 Y136.769 E9.14467
