;FLAVOR:Marlin
;TIME:3338
;Filament used: 1.04381m
;Layer height: 0.08
;MINX:80.511
;MINY:80.514
;MINZ:0.2
;MAXX:139.492
;MAXY:139.492
;MAXZ:4.28
;Generated with Cura_SteamEngine 4.10.0
M140 S60
M105
M190 S60
M104 S215
M105
M109 S215
M82 ;absolute extrusion mode
; Ender 3 Custom Start G-code
G92 E0 ; Reset Extruder
G28 ; Home all axes
G1 Z2.0 F3000 ; Move Z Axis up little to prevent scratching of Heat Bed
G1 X0.1 Y20 Z0.3 F5000.0 ; Move to start position
G1 X0.1 Y200.0 Z0.3 F1500.0 E15 ; Draw the first line
G1 X0.4 Y200.0 Z0.3 F5000.0 ; Move to side a little
G1 X0.4 Y20 Z0.3 F1500.0 E30 ; Draw the second line
G92 E0 ; Reset Extruder
G1 Z2.0 F3000 ; Move Z Axis up little to prevent scratching of Heat Bed
G1 X5 Y20 Z0.3 F5000.0 ; Move over to prevent blob squish
G92 E0
G92 E0
G1 F1800 E-6.5
;LAYER_COUNT:53
;LAYER:0
M107
G0 F6000 X89.243 Y89.062 Z0.2
;TYPE:SKIRT
G1 F1800 E0
G1 F1200 X90.022 Y88.322 E0.03574
G1 X90.36 Y88.014 E0.05095
G1 X91.01 Y87.446 E0.07966
G1 X91.282 Y87.215 E0.09152
G1 X91.568 Y86.981 E0.10382
G1 X92.02 Y86.631 E0.12283
G1 X93.05 Y85.874 E0.16534
G1 X93.359 Y85.655 E0.17794
G1 X93.46 Y85.586 E0.18201
G1 X93.754 Y85.392 E0.19373
G1 X94.487 Y84.925 E0.22263
G1 X94.823 Y84.719 E0.23574
G1 X95.5 Y84.321 E0.26186
G1 X96.078 Y84.004 E0.28379
G1 X96.888 Y83.591 E0.31403
G1 X97.245 Y83.417 E0.32724
G1 X97.978 Y83.076 E0.35413
G1 X98.303 Y82.931 E0.36596
G1 X98.697 Y82.763 E0.38021
G1 X99.004 Y82.638 E0.39123
G1 X99.418 Y82.476 E0.40602
G1 X99.73 Y82.36 E0.41709
G1 X100.47 Y82.096 E0.44322
G1 X100.882 Y81.957 E0.45768
G1 X101.137 Y81.878 E0.46656
G1 X102.099 Y81.593 E0.49993
G1 X102.465 Y81.492 E0.51256
G1 X102.824 Y81.399 E0.5249
G1 X103.368 Y81.272 E0.54348
G1 X104.628 Y81.013 E0.58626
G1 X105.061 Y80.933 E0.60091
G1 X105.39 Y80.879 E0.612
G1 X105.755 Y80.826 E0.62426
G1 X106.64 Y80.711 E0.65394
G1 X107.077 Y80.663 E0.66857
G1 X107.871 Y80.592 E0.69508
G1 X108.242 Y80.565 E0.70745
G1 X108.783 Y80.535 E0.72547
G1 X109.106 Y80.522 E0.73623
G1 X109.26 Y80.518 E0.74135
G1 X109.588 Y80.514 E0.75226
G1 X110.37 Y80.517 E0.77827
G1 X110.804 Y80.527 E0.79271
G1 X111.635 Y80.563 E0.82037
G1 X112.056 Y80.59 E0.8344
G1 X112.716 Y80.644 E0.85643
G1 X113.173 Y80.691 E0.87171
G1 X114.068 Y80.802 E0.90171
G1 X114.481 Y80.861 E0.91558
G1 X115.286 Y80.992 E0.94271
G1 X115.614 Y81.05 E0.95379
G1 X115.815 Y81.089 E0.9606
G1 X116.065 Y81.141 E0.96909
G1 X116.56 Y81.249 E0.98594
G1 X117.129 Y81.389 E1.00543
G1 X118.352 Y81.725 E1.04761
G1 X118.695 Y81.825 E1.0595
G1 X119.024 Y81.927 E1.07095
G1 X119.547 Y82.104 E1.08932
G1 X120.591 Y82.486 E1.12629
G1 X120.963 Y82.63 E1.13956
G1 X121.596 Y82.888 E1.1623
G1 X121.929 Y83.03 E1.17434
G1 X122.256 Y83.176 E1.18625
G1 X122.754 Y83.413 E1.20459
G1 X123.803 Y83.946 E1.24373
G1 X124.159 Y84.136 E1.25715
G1 X124.757 Y84.468 E1.2799
G1 X125.085 Y84.657 E1.29249
G1 X125.471 Y84.889 E1.30747
G1 X125.888 Y85.153 E1.32388
G1 X126.48 Y85.546 E1.34752
G1 X126.757 Y85.736 E1.35869
G1 X127.176 Y86.033 E1.37577
G1 X127.504 Y86.275 E1.38933
G1 X128.41 Y86.969 E1.42729
G1 X128.693 Y87.193 E1.43929
G1 X129.031 Y87.472 E1.45387
G1 X129.161 Y87.582 E1.45953
G1 X129.467 Y87.85 E1.47306
G1 X130.147 Y88.47 E1.50367
G1 X130.434 Y88.741 E1.5168
G1 X130.729 Y89.034 E1.53062
G1 X131.536 Y89.867 E1.5692
G1 X131.783 Y90.13 E1.5812
G1 X132.037 Y90.41 E1.59377
G1 X132.291 Y90.701 E1.60662
G1 X132.864 Y91.379 E1.63615
G1 X133.089 Y91.653 E1.64794
G1 X133.366 Y92.003 E1.66278
G1 X133.713 Y92.466 E1.68203
G1 X134.242 Y93.212 E1.71245
G1 X134.457 Y93.526 E1.7251
G1 X134.721 Y93.927 E1.74107
G1 X134.94 Y94.274 E1.75472
G1 X135.428 Y95.079 E1.78603
G1 X135.651 Y95.465 E1.80086
G1 X136.091 Y96.262 E1.83113
G1 X136.265 Y96.59 E1.84348
G1 X136.544 Y97.143 E1.86409
G1 X136.597 Y97.253 E1.86815
G1 X136.724 Y97.528 E1.87822
G1 X136.993 Y98.128 E1.90009
G1 X137.19 Y98.596 E1.91698
G1 X137.558 Y99.53 E1.95037
G1 X137.715 Y99.953 E1.96538
G1 X137.988 Y100.739 E1.99305
G1 X138.126 Y101.164 E2.00791
G1 X138.374 Y101.984 E2.03641
G1 X138.474 Y102.335 E2.04854
G1 X138.579 Y102.729 E2.06211
G1 X138.7 Y103.231 E2.07928
G1 X138.893 Y104.121 E2.10957
G1 X138.964 Y104.475 E2.12158
G1 X139.074 Y105.077 E2.14193
G1 X139.128 Y105.4 E2.15283
G1 X139.217 Y105.985 E2.17251
G1 X139.277 Y106.449 E2.18807
G1 X139.356 Y107.175 E2.21236
G1 X139.401 Y107.704 E2.23002
G1 X139.451 Y108.534 E2.25767
G1 X139.467 Y108.913 E2.27029
G1 X139.488 Y109.731 E2.2975
G1 X139.492 Y110.084 E2.30925
G1 X139.489 Y110.547 E2.32465
G1 X139.476 Y111.013 E2.34015
G1 X139.442 Y111.708 E2.36329
G1 X139.406 Y112.212 E2.3801
G1 X139.304 Y113.285 E2.41595
G1 X139.264 Y113.642 E2.4279
G1 X139.203 Y114.118 E2.44386
G1 X139.136 Y114.565 E2.45889
G1 X139.012 Y115.294 E2.48349
G1 X138.884 Y115.931 E2.5051
G1 X138.616 Y117.088 E2.5446
G1 X138.525 Y117.455 E2.55717
G1 X138.392 Y117.951 E2.57425
G1 X138.296 Y118.286 E2.58584
G1 X138.123 Y118.858 E2.60572
G1 X138.018 Y119.188 E2.61724
G1 X137.841 Y119.713 E2.63567
G1 X137.73 Y120.027 E2.64674
G1 X137.56 Y120.485 E2.66299
G1 X137.426 Y120.828 E2.67524
G1 X137.09 Y121.648 E2.70471
G1 X136.935 Y122.007 E2.71772
G1 X136.827 Y122.246 E2.72644
G1 X136.7 Y122.517 E2.7364
G1 X136.326 Y123.288 E2.7649
G1 X136.124 Y123.685 E2.77971
G1 X135.963 Y123.985 E2.79104
G1 X135.569 Y124.691 E2.81793
G1 X135.394 Y124.994 E2.82957
G1 X135.206 Y125.307 E2.84171
G1 X135.037 Y125.579 E2.85236
G1 X134.587 Y126.281 E2.88009
G1 X134.348 Y126.638 E2.89438
G1 X134.069 Y127.038 E2.9106
G1 X133.916 Y127.252 E2.91935
G1 X133.646 Y127.62 E2.93453
G1 X133.325 Y128.037 E2.95204
G1 X132.613 Y128.916 E2.98966
G1 X132.349 Y129.229 E3.00328
G1 X131.907 Y129.735 E3.02563
G1 X131.719 Y129.945 E3.035
G1 X131.379 Y130.312 E3.05164
G1 X131.161 Y130.54 E3.06213
G1 X130.922 Y130.782 E3.07344
G1 X130.504 Y131.193 E3.09294
G1 X130.087 Y131.582 E3.11191
G1 X129.218 Y132.352 E3.15053
G1 X128.891 Y132.631 E3.16482
G1 X128.213 Y133.186 E3.19397
G1 X127.934 Y133.407 E3.2058
G1 X127.588 Y133.672 E3.2203
G1 X127.176 Y133.973 E3.23727
G1 X126.56 Y134.401 E3.26222
G1 X126.141 Y134.677 E3.27891
G1 X125.286 Y135.215 E3.3125
G1 X124.93 Y135.43 E3.32634
G1 X124.698 Y135.564 E3.33525
G1 X124.433 Y135.713 E3.34536
G1 X123.659 Y136.132 E3.37463
G1 X123.331 Y136.302 E3.38692
G1 X122.958 Y136.488 E3.40078
G1 X122.641 Y136.64 E3.41248
G1 X121.94 Y136.962 E3.43813
G1 X121.602 Y137.11 E3.45041
G1 X121.178 Y137.285 E3.46566
G1 X120.362 Y137.605 E3.49482
G1 X120.034 Y137.727 E3.50645
G1 X119.531 Y137.906 E3.52421
G1 X119.079 Y138.056 E3.54005
G1 X118.387 Y138.269 E3.56413
G1 X117.882 Y138.411 E3.58158
G1 X116.856 Y138.674 E3.61681
G1 X116.533 Y138.752 E3.62786
G1 X116.056 Y138.859 E3.64412
G1 X115.555 Y138.959 E3.66111
G1 X114.862 Y139.081 E3.68452
G1 X114.54 Y139.133 E3.69537
G1 X113.915 Y139.224 E3.71637
G1 X113.55 Y139.271 E3.72861
G1 X113.093 Y139.322 E3.74391
G1 X112.691 Y139.36 E3.75734
G1 X111.685 Y139.435 E3.79089
G1 X111.279 Y139.457 E3.80441
G1 X110.666 Y139.48 E3.82482
G1 X110.353 Y139.488 E3.83523
G1 X109.91 Y139.492 E3.84996
G1 X109.357 Y139.483 E3.86836
G1 X108.631 Y139.453 E3.89253
G1 X108.237 Y139.429 E3.90566
G1 X107.086 Y139.34 E3.94405
G1 X106.694 Y139.303 E3.95715
G1 X106.359 Y139.265 E3.96836
G1 X106.051 Y139.226 E3.97869
G1 X105.631 Y139.163 E3.99281
G1 X104.92 Y139.047 E4.01677
G1 X104.388 Y138.947 E4.03478
G1 X103.337 Y138.722 E4.07053
G1 X102.896 Y138.619 E4.08559
G1 X102.573 Y138.534 E4.0967
G1 X101.573 Y138.254 E4.13124
G1 X101.229 Y138.151 E4.14318
G1 X100.855 Y138.033 E4.15622
G1 X100.353 Y137.861 E4.17387
G1 X99.438 Y137.523 E4.20632
G1 X99.054 Y137.373 E4.22003
G1 X98.213 Y137.026 E4.25029
G1 X97.878 Y136.882 E4.26242
G1 X97.555 Y136.736 E4.27421
G1 X97.047 Y136.49 E4.29298
G1 X95.941 Y135.92 E4.33436
G1 X95.618 Y135.747 E4.34655
G1 X95.369 Y135.608 E4.35603
G1 X95.086 Y135.444 E4.36691
G1 X94.688 Y135.206 E4.38234
G1 X94.248 Y134.929 E4.39963
G1 X93.367 Y134.344 E4.4348
G1 X93.049 Y134.124 E4.44766
G1 X92.595 Y133.799 E4.46623
G1 X92.309 Y133.587 E4.47808
G1 X91.856 Y133.24 E4.49705
G1 X91.571 Y133.015 E4.50913
G1 X90.944 Y132.501 E4.5361
G1 X90.691 Y132.287 E4.54712
G1 X90.512 Y132.131 E4.55502
G1 X90.308 Y131.948 E4.56413
G1 X89.926 Y131.598 E4.58136
G1 X89.642 Y131.329 E4.59437
G1 X89.085 Y130.781 E4.62036
G1 X88.843 Y130.535 E4.63184
G1 X88.444 Y130.117 E4.65106
G1 X88.198 Y129.851 E4.66311
G1 X87.804 Y129.41 E4.68278
G1 X87.578 Y129.149 E4.69426
G1 X87.282 Y128.796 E4.70958
G1 X87.051 Y128.511 E4.72179
G1 X86.527 Y127.842 E4.75005
G1 X86.303 Y127.545 E4.76242
G1 X86.019 Y127.156 E4.77844
G1 X85.789 Y126.829 E4.79174
G1 X85.322 Y126.138 E4.81948
G1 X85.115 Y125.82 E4.8321
G1 X84.932 Y125.528 E4.84356
G1 X84.738 Y125.207 E4.85604
G1 X84.224 Y124.321 E4.8901
G1 X84.047 Y124.004 E4.90218
G1 X83.865 Y123.665 E4.91498
G1 X83.607 Y123.153 E4.93405
G1 X83.144 Y122.171 E4.97016
G1 X82.975 Y121.794 E4.9839
G1 X82.732 Y121.224 E5.00451
G1 X82.614 Y120.935 E5.01489
G1 X82.417 Y120.434 E5.03279
G1 X82.256 Y119.997 E5.04828
G1 X82.031 Y119.345 E5.07122
G1 X81.849 Y118.769 E5.09132
G1 X81.525 Y117.631 E5.13067
G1 X81.41 Y117.193 E5.14573
G1 X81.274 Y116.628 E5.16506
G1 X81.189 Y116.242 E5.17821
G1 X81.023 Y115.424 E5.20597
G1 X80.945 Y114.996 E5.22044
G1 X80.832 Y114.299 E5.24392
G1 X80.776 Y113.913 E5.2569
G1 X80.69 Y113.23 E5.27979
G1 X80.654 Y112.905 E5.29067
G1 X80.622 Y112.571 E5.30183
G1 X80.596 Y112.243 E5.31277
G1 X80.551 Y111.558 E5.3356
G1 X80.534 Y111.236 E5.34633
G1 X80.521 Y110.878 E5.35824
G1 X80.514 Y110.578 E5.36822
G1 X80.511 Y110.243 E5.37937
G1 X80.514 Y109.888 E5.39117
G1 X80.539 Y108.812 E5.42697
G1 X80.556 Y108.413 E5.44025
G1 X80.589 Y107.86 E5.45868
G1 X80.611 Y107.556 E5.46882
G1 X80.63 Y107.339 E5.47606
G1 X80.67 Y106.96 E5.48874
G1 X80.776 Y106.095 E5.51772
G1 X80.834 Y105.681 E5.53163
G1 X80.981 Y104.77 E5.56232
G1 X81.114 Y104.085 E5.58553
G1 X81.378 Y102.923 E5.62516
G1 X81.478 Y102.521 E5.63894
G1 X81.548 Y102.259 E5.64796
G1 X81.626 Y101.981 E5.65756
G1 X81.85 Y101.223 E5.68385
G1 X81.946 Y100.914 E5.69461
G1 X82.005 Y100.734 E5.70091
G1 X82.115 Y100.416 E5.7121
G1 X82.359 Y99.742 E5.73595
G1 X82.505 Y99.361 E5.74952
G1 X82.867 Y98.466 E5.78163
G1 X83.034 Y98.074 E5.7958
G1 X83.261 Y97.57 E5.81418
G1 X83.424 Y97.224 E5.8269
G1 X83.734 Y96.595 E5.85023
G1 X83.904 Y96.265 E5.86257
G1 X84.16 Y95.787 E5.88061
G1 X84.309 Y95.518 E5.89084
G1 X84.432 Y95.303 E5.89908
G1 X84.608 Y95.006 E5.91056
G1 X85.067 Y94.259 E5.93972
G1 X85.266 Y93.947 E5.95203
G1 X85.634 Y93.391 E5.9742
G1 X85.84 Y93.091 E5.98631
G1 X86.024 Y92.832 E5.99687
G1 X86.241 Y92.537 E6.00905
G1 X86.804 Y91.798 E6.03995
G1 X86.983 Y91.569 E6.04962
G1 X87.127 Y91.39 E6.05726
G1 X87.41 Y91.052 E6.07192
G1 X88.075 Y90.29 E6.10556
G1 X88.341 Y89.996 E6.11875
G1 X88.797 Y89.51 E6.14092
G1 X89.243 Y89.062 E6.16194
G0 F6000 X89.519 Y89.352
G1 F1200 X90.298 Y88.612 E6.19768
G1 X90.623 Y88.315 E6.21232
G1 X91.273 Y87.747 E6.24103
G1 X91.536 Y87.525 E6.25248
G1 X91.822 Y87.291 E6.26477
G1 X92.257 Y86.954 E6.28307
G1 X93.287 Y86.197 E6.32559
G1 X93.585 Y85.985 E6.33775
G1 X93.969 Y85.729 E6.3531
G1 X94.702 Y85.262 E6.38201
G1 X95.026 Y85.064 E6.39464
G1 X95.703 Y84.666 E6.42076
G1 X96.26 Y84.361 E6.44188
G1 X97.07 Y83.948 E6.47212
G1 X97.414 Y83.78 E6.48485
G1 X98.147 Y83.439 E6.51174
G1 X98.46 Y83.299 E6.52314
G1 X98.854 Y83.131 E6.53739
G1 X99.149 Y83.011 E6.54798
G1 X99.563 Y82.849 E6.56277
G1 X99.864 Y82.736 E6.57346
G1 X100.604 Y82.472 E6.59959
G1 X101.005 Y82.338 E6.61366
G1 X101.251 Y82.262 E6.62222
G1 X102.213 Y81.977 E6.65559
G1 X102.566 Y81.879 E6.66778
G1 X102.925 Y81.786 E6.68011
G1 X103.449 Y81.664 E6.69801
G1 X104.709 Y81.405 E6.74079
G1 X105.126 Y81.328 E6.75489
G1 X105.455 Y81.274 E6.76598
G1 X105.806 Y81.222 E6.77778
G1 X106.691 Y81.107 E6.80747
G1 X107.113 Y81.061 E6.82159
G1 X107.907 Y80.99 E6.8481
G1 X108.264 Y80.964 E6.86
G1 X108.805 Y80.934 E6.87803
G1 X109.271 Y80.918 E6.89353
G1 X109.587 Y80.914 E6.90405
G1 X110.369 Y80.917 E6.93005
G1 X110.787 Y80.927 E6.94396
G1 X111.618 Y80.963 E6.97163
G1 X112.023 Y80.988 E6.98512
G1 X112.683 Y81.042 E7.00715
G1 X113.124 Y81.088 E7.0219
G1 X114.019 Y81.199 E7.05189
G1 X114.417 Y81.256 E7.06526
G1 X115.222 Y81.387 E7.09239
G1 X115.538 Y81.443 E7.10306
G1 X115.98 Y81.532 E7.11806
G1 X116.475 Y81.64 E7.13491
G1 X117.023 Y81.775 E7.15368
G1 X118.246 Y82.111 E7.19587
G1 X118.577 Y82.207 E7.20733
G1 X118.906 Y82.309 E7.21879
G1 X119.409 Y82.479 E7.23645
G1 X120.453 Y82.861 E7.27342
G1 X120.812 Y83 E7.28622
G1 X121.445 Y83.258 E7.30896
G1 X121.766 Y83.395 E7.32057
G1 X122.093 Y83.541 E7.33248
G1 X122.573 Y83.77 E7.35017
G1 X123.622 Y84.303 E7.3893
G1 X123.965 Y84.485 E7.40222
G1 X124.563 Y84.817 E7.42497
G1 X124.879 Y85 E7.43711
G1 X125.265 Y85.232 E7.45209
G1 X125.667 Y85.486 E7.46791
G1 X126.259 Y85.879 E7.49154
G1 X126.526 Y86.062 E7.50231
G1 X126.945 Y86.359 E7.51939
G1 X127.261 Y86.592 E7.53245
G1 X128.167 Y87.286 E7.57041
G1 X128.44 Y87.502 E7.58198
G1 X128.773 Y87.777 E7.59635
G1 X128.903 Y87.887 E7.60201
G1 X129.198 Y88.146 E7.61507
G1 X129.878 Y88.766 E7.64568
G1 X130.158 Y89.03 E7.65848
G1 X130.442 Y89.312 E7.67179
G1 X131.249 Y90.145 E7.71036
G1 X131.487 Y90.399 E7.72194
G1 X131.741 Y90.679 E7.73451
G1 X131.986 Y90.959 E7.74689
G1 X132.559 Y91.637 E7.77641
G1 X132.775 Y91.901 E7.78776
G1 X133.052 Y92.251 E7.8026
G1 X133.387 Y92.698 E7.82118
G1 X133.916 Y93.444 E7.8516
G1 X134.123 Y93.746 E7.86378
G1 X134.387 Y94.147 E7.87975
G1 X134.597 Y94.481 E7.89287
G1 X135.085 Y95.286 E7.92418
G1 X135.301 Y95.658 E7.93849
G1 X135.741 Y96.455 E7.96876
G1 X135.908 Y96.771 E7.98065
G1 X136.081 Y97.111 E7.99334
G1 X136.236 Y97.427 E8.00505
G1 X136.359 Y97.692 E8.01476
G1 X136.628 Y98.292 E8.03663
G1 X136.818 Y98.742 E8.05288
G1 X137.186 Y99.676 E8.08627
G1 X137.337 Y100.084 E8.10074
G1 X137.61 Y100.87 E8.12841
G1 X137.743 Y101.279 E8.14272
G1 X137.991 Y102.099 E8.17121
G1 X138.088 Y102.438 E8.18294
G1 X138.193 Y102.832 E8.1965
G1 X138.309 Y103.316 E8.21306
G1 X138.502 Y104.206 E8.24334
G1 X138.57 Y104.547 E8.25491
G1 X138.68 Y105.149 E8.27526
G1 X138.732 Y105.46 E8.28575
G1 X138.821 Y106.045 E8.30543
G1 X138.88 Y106.492 E8.32043
G1 X138.959 Y107.218 E8.34472
G1 X139.002 Y107.728 E8.36174
G1 X139.052 Y108.558 E8.3894
G1 X139.068 Y108.923 E8.40155
G1 X139.089 Y109.741 E8.42876
G1 X139.092 Y110.082 E8.44011
G1 X139.089 Y110.545 E8.45551
G1 X139.076 Y110.994 E8.47045
G1 X139.042 Y111.689 E8.49359
G1 X139.007 Y112.174 E8.50976
G1 X138.905 Y113.247 E8.54561
G1 X138.867 Y113.591 E8.55712
G1 X138.806 Y114.067 E8.57308
G1 X138.742 Y114.497 E8.58754
G1 X138.618 Y115.226 E8.61214
G1 X138.495 Y115.841 E8.633
G1 X138.227 Y116.998 E8.6725
G1 X138.138 Y117.351 E8.68461
G1 X138.005 Y117.847 E8.70169
G1 X137.913 Y118.171 E8.71289
G1 X137.74 Y118.743 E8.73277
G1 X137.639 Y119.06 E8.74383
G1 X137.462 Y119.585 E8.76226
G1 X137.355 Y119.888 E8.77295
G1 X137.185 Y120.346 E8.7892
G1 X137.056 Y120.676 E8.80098
G1 X136.72 Y121.496 E8.83045
G1 X136.571 Y121.842 E8.84298
G1 X136.463 Y122.081 E8.85171
G1 X136.34 Y122.342 E8.8613
G1 X135.966 Y123.113 E8.8898
G1 X135.769 Y123.501 E8.90428
G1 X135.614 Y123.79 E8.91519
G1 X135.22 Y124.496 E8.94208
G1 X135.051 Y124.788 E8.9533
G1 X134.863 Y125.101 E8.96544
G1 X134.7 Y125.363 E8.9757
G1 X134.25 Y126.065 E9.00344
G1 X134.02 Y126.409 E9.0172
G1 X133.741 Y126.809 E9.03342
G1 X133.593 Y127.015 E9.04186
G1 X133.323 Y127.383 E9.05704
G1 X133.014 Y127.785 E9.0739
G1 X132.302 Y128.664 E9.11153
G1 X132.048 Y128.965 E9.12463
G1 X131.606 Y129.471 E9.14697
G1 X131.425 Y129.674 E9.15602
G1 X131.23 Y129.886 E9.1656
G1 X130.871 Y130.263 E9.18291
G1 X130.642 Y130.496 E9.19378
G1 X130.224 Y130.907 E9.21328
G1 X129.822 Y131.283 E9.23158
G1 X128.953 Y132.053 E9.2702
G1 X128.637 Y132.321 E9.28398
G1 X127.959 Y132.876 E9.31312
G1 X127.69 Y133.089 E9.32454
G1 X127.344 Y133.354 E9.33903
G1 X126.947 Y133.644 E9.35538
G1 X126.331 Y134.072 E9.38033
G1 X125.928 Y134.339 E9.39641
G1 X125.073 Y134.877 E9.43001
G1 X124.73 Y135.084 E9.44333
G1 X124.498 Y135.218 E9.45225
G1 X124.242 Y135.361 E9.462
G1 X123.468 Y135.78 E9.49127
