;FLAVOR:Marlin
;TIME:4289
;Filament used: 4.00203m
;Layer height: 0.2
;MINX:61.829
;MINY:76.238
;MINZ:0.2
;MAXX:148.735
;MAXY:163.143
;MAXZ:6.2
;Generated with Cura_SteamEngine 4.10.0
M140 S60
M105
M190 S60
M104 S200
M105
M109 S200
M82 ;absolute extrusion mode
; Ender 3 Custom Start G-code
G92 E0 ; Reset Extruder
G28 ; Home all axes
G1 Z2.0 F3000 ; Move Z Axis up little to prevent scratching of Heat Bed
G1 X0.1 Y20 Z0.3 F5000.0 ; Move to start position
G1 X0.1 Y200.0 Z0.3 F1500.0 E15 ; Draw the first line
G1 X0.4 Y200.0 Z0.3 F5000.0 ; Move to side a little
G1 X0.4 Y20 Z0.3 F1500.0 E30 ; Draw the second line
G92 E0 ; Reset Extruder
G1 Z2.0 F3000 ; Move Z Axis up little to prevent scratching of Heat Bed
G1 X5 Y20 Z0.3 F5000.0 ; Move over to prevent blob squish
G92 E0
G92 E0
G1 F1500 E-6.5
;LAYER_COUNT:31
;LAYER:0
M107
G0 F6000 X65.73 Y78.856 Z0.2
;TYPE:SKIRT
G1 F1500 E0
G1 F1200 X66.471 Y78.28 E0.03122
G1 X67.258 Y77.771 E0.06239
G1 X68.086 Y77.329 E0.09361
G1 X68.948 Y76.961 E0.12478
G1 X69.839 Y76.666 E0.156
G1 X70.751 Y76.449 E0.18718
G1 X71.678 Y76.311 E0.21835
G1 X72.48 Y76.255 E0.24509
G1 X72.785 Y76.245 E0.25524
G1 X73.145 Y76.239 E0.26721
G1 X137.027 Y76.238 E2.39194
G1 X137.883 Y76.249 E2.42041
G1 X138.82 Y76.303 E2.45163
G1 X139.748 Y76.435 E2.4828
G1 X140.662 Y76.647 E2.51401
G1 X141.554 Y76.936 E2.5452
G1 X142.419 Y77.299 E2.5764
G1 X143.249 Y77.735 E2.60758
G1 X144.039 Y78.24 E2.63877
G1 X144.784 Y78.811 E2.66999
G1 X145.477 Y79.443 E2.70118
G1 X146.114 Y80.131 E2.73237
G1 X146.689 Y80.872 E2.76356
G1 X147.2 Y81.658 E2.79474
G1 X147.642 Y82.486 E2.82596
G1 X148.011 Y83.347 E2.85712
G1 X148.306 Y84.238 E2.88833
G1 X148.524 Y85.15 E2.91952
G1 X148.664 Y86.077 E2.9507
G1 X148.722 Y86.938 E2.9794
G1 X148.731 Y87.257 E2.99002
G1 X148.735 Y87.567 E3.00033
G1 X148.733 Y151.571 E5.12911
G1 X148.723 Y152.287 E5.15293
G1 X148.67 Y153.223 E5.18411
G1 X148.537 Y154.151 E5.21529
G1 X148.326 Y155.065 E5.24649
G1 X148.038 Y155.958 E5.2777
G1 X147.674 Y156.822 E5.30888
G1 X147.239 Y157.653 E5.34008
G1 X146.734 Y158.443 E5.37126
G1 X146.164 Y159.188 E5.40246
G1 X145.532 Y159.881 E5.43366
G1 X144.844 Y160.518 E5.46484
G1 X144.104 Y161.094 E5.49603
G1 X143.317 Y161.605 E5.52724
G1 X142.49 Y162.047 E5.55843
G1 X141.628 Y162.417 E5.58963
G1 X140.738 Y162.712 E5.62081
G1 X139.826 Y162.93 E5.652
G1 X138.898 Y163.07 E5.68322
G1 X138.084 Y163.127 E5.71036
G1 X137.779 Y163.137 E5.72051
G1 X137.419 Y163.143 E5.73248
G1 X73.376 Y163.143 E7.86256
G1 X72.694 Y163.133 E7.88525
G1 X71.757 Y163.079 E7.91646
G1 X70.829 Y162.946 E7.94764
G1 X69.915 Y162.734 E7.97885
G1 X69.023 Y162.445 E8.01004
G1 X68.159 Y162.081 E8.04122
G1 X67.329 Y161.645 E8.0724
G1 X66.538 Y161.14 E8.10362
G1 X65.794 Y160.569 E8.13481
G1 X65.101 Y159.937 E8.166
G1 X64.661 Y159.473 E8.18727
G1 X64.064 Y158.749 E8.21848
G1 X63.53 Y157.978 E8.24968
G1 X63.065 Y157.164 E8.28086
G1 X62.67 Y156.313 E8.31206
G1 X62.349 Y155.432 E8.34325
G1 X62.105 Y154.526 E8.37446
G1 X61.938 Y153.603 E8.40565
G1 X61.84 Y152.365 E8.44696
G1 X61.832 Y152.014 E8.45864
G1 X61.829 Y151.763 E8.46698
G1 X61.831 Y87.744 E10.59627
G1 X61.841 Y87.083 E10.61825
G1 X61.895 Y86.146 E10.64947
G1 X62.029 Y85.218 E10.68065
G1 X62.241 Y84.304 E10.71186
G1 X62.531 Y83.412 E10.74306
G1 X62.895 Y82.548 E10.77424
G1 X63.332 Y81.718 E10.80544
G1 X63.837 Y80.928 E10.83662
G1 X64.408 Y80.184 E10.86782
G1 X65.041 Y79.492 E10.89901
G1 X65.73 Y78.856 E10.9302
G0 F6000 X66.118 Y79.053
G1 F1200 X66.855 Y78.5 E10.96084
G1 X67.637 Y78.014 E10.99147
G1 X68.458 Y77.597 E11.02209
G1 X69.312 Y77.253 E11.05272
G1 X70.192 Y76.985 E11.08331
G1 X71.093 Y76.794 E11.11395
G1 X72.007 Y76.682 E11.14457
G1 X72.493 Y76.655 E11.16076
G1 X72.798 Y76.645 E11.17091
G1 X73.145 Y76.639 E11.18245
G1 X137.027 Y76.638 E13.30718
G1 X137.878 Y76.649 E13.33549
G1 X138.797 Y76.702 E13.3661
G1 X139.708 Y76.835 E13.39672
G1 X140.604 Y77.046 E13.42734
G1 X141.478 Y77.334 E13.45795
G1 X142.324 Y77.697 E13.48857
G1 X143.136 Y78.132 E13.5192
G1 X143.906 Y78.636 E13.54981
G1 X144.63 Y79.205 E13.58044
G1 X145.302 Y79.834 E13.61105
G1 X145.917 Y80.52 E13.6417
G1 X146.47 Y81.256 E13.67232
G1 X146.957 Y82.037 E13.70293
G1 X147.374 Y82.858 E13.73356
G1 X147.719 Y83.712 E13.76419
G1 X147.988 Y84.592 E13.7948
G1 X148.18 Y85.492 E13.8254
G1 X148.293 Y86.406 E13.85603
G1 X148.322 Y86.949 E13.87412
G1 X148.331 Y87.268 E13.88473
G1 X148.335 Y87.567 E13.89468
G1 X148.333 Y151.565 E16.02326
G1 X148.323 Y152.281 E16.04708
G1 X148.27 Y153.2 E16.0777
G1 X148.138 Y154.111 E16.10831
G1 X147.927 Y155.007 E16.13893
G1 X147.639 Y155.882 E16.16957
G1 X147.276 Y156.728 E16.20019
G1 X146.841 Y157.54 E16.23082
G1 X146.338 Y158.31 E16.26142
G1 X145.769 Y159.035 E16.29207
G1 X145.14 Y159.707 E16.32268
G1 X144.455 Y160.322 E16.3533
G1 X143.719 Y160.875 E16.38392
G1 X142.938 Y161.362 E16.41453
G1 X142.118 Y161.78 E16.44515
G1 X141.264 Y162.124 E16.47577
G1 X140.384 Y162.394 E16.50638
G1 X139.483 Y162.586 E16.53702
G1 X138.57 Y162.699 E16.56762
G1 X138.071 Y162.727 E16.58424
G1 X137.766 Y162.737 E16.59439
G1 X137.419 Y162.743 E16.60594
G1 X73.382 Y162.743 E18.73582
G1 X72.7 Y162.733 E18.7585
G1 X71.78 Y162.679 E18.78915
G1 X70.87 Y162.546 E18.81974
G1 X69.973 Y162.335 E18.85039
G1 X69.099 Y162.046 E18.88101
G1 X68.253 Y161.683 E18.91163
G1 X67.442 Y161.248 E18.94224
G1 X66.672 Y160.744 E18.97285
G1 X65.948 Y160.175 E19.00347
G1 X64.976 Y159.225 E19.04868
G1 X64.372 Y158.495 E19.08019
G1 X63.851 Y157.736 E19.11081
G1 X63.397 Y156.935 E19.14143
G1 X63.014 Y156.098 E19.17205
G1 X62.705 Y155.23 E19.20269
G1 X62.473 Y154.34 E19.23328
G1 X62.319 Y153.432 E19.26392
G1 X62.24 Y152.356 E19.2998
G1 X62.232 Y152.005 E19.31148
G1 X62.229 Y151.763 E19.31953
G1 X62.231 Y87.75 E21.44861
G1 X62.241 Y87.089 E21.47059
G1 X62.295 Y86.17 E21.50121
G1 X62.429 Y85.259 E21.53184
G1 X62.641 Y84.363 E21.56246
G1 X62.929 Y83.489 E21.59307
G1 X63.293 Y82.643 E21.6237
G1 X63.729 Y81.832 E21.65433
G1 X64.233 Y81.062 E21.68494
G1 X64.803 Y80.338 E21.71558
G1 X65.433 Y79.667 E21.7462
G1 X66.118 Y79.053 E21.77679
G0 F6000 X66.506 Y79.254
G1 F1200 X67.238 Y78.725 E21.80683
G1 X68.014 Y78.263 E21.83687
G1 X68.828 Y77.871 E21.86692
G1 X69.673 Y77.553 E21.89695
G1 X70.543 Y77.311 E21.92698
G1 X71.431 Y77.147 E21.95702
G1 X72.506 Y77.054 E21.99291
G1 X72.811 Y77.044 E22.00305
G1 X73.145 Y77.039 E22.01417
G1 X137.027 Y77.038 E24.13889
G1 X137.872 Y77.049 E24.167
G1 X138.773 Y77.102 E24.19702
G1 X139.667 Y77.234 E24.22707
G1 X140.545 Y77.445 E24.25711
G1 X141.401 Y77.733 E24.28715
G1 X142.228 Y78.095 E24.31717
G1 X143.02 Y78.529 E24.34721
G1 X143.771 Y79.032 E24.37727
G1 X144.474 Y79.599 E24.40731
G1 X145.124 Y80.226 E24.43735
G1 X145.716 Y80.908 E24.46739
G1 X146.245 Y81.639 E24.4974
G1 X146.708 Y82.415 E24.52745
G1 X147.1 Y83.228 E24.55747
G1 X147.419 Y84.073 E24.58751
G1 X147.662 Y84.943 E24.61756
G1 X147.827 Y85.831 E24.6476
G1 X147.922 Y86.96 E24.68528
G1 X147.931 Y87.279 E24.6959
G1 X147.935 Y87.567 E24.70548
G1 X147.933 Y151.559 E26.83386
G1 X147.923 Y152.275 E26.85767
G1 X147.87 Y153.177 E26.88773
G1 X147.738 Y154.07 E26.91775
G1 X147.528 Y154.949 E26.94781
G1 X147.24 Y155.805 E26.97785
G1 X146.878 Y156.632 E27.00787
G1 X146.444 Y157.424 E27.03791
G1 X145.942 Y158.175 E27.06796
G1 X145.375 Y158.878 E27.098
G1 X144.749 Y159.528 E27.12801
G1 X144.067 Y160.121 E27.15807
G1 X143.336 Y160.65 E27.18808
G1 X142.56 Y161.113 E27.21814
G1 X141.747 Y161.506 E27.24817
G1 X140.902 Y161.825 E27.27821
G1 X140.032 Y162.068 E27.30825
G1 X139.145 Y162.234 E27.33827
G1 X138.058 Y162.328 E27.37456
G1 X137.753 Y162.338 E27.38471
G1 X137.419 Y162.343 E27.39582
G1 X73.387 Y162.343 E29.52553
G1 X72.705 Y162.333 E29.54822
G1 X71.804 Y162.28 E29.57824
G1 X70.911 Y162.147 E29.60826
G1 X70.033 Y161.936 E29.6383
G1 X69.177 Y161.648 E29.66834
G1 X68.35 Y161.285 E29.69838
G1 X67.558 Y160.851 E29.72841
G1 X66.808 Y160.348 E29.75845
G1 X66.105 Y159.781 E29.78849
G1 X65.273 Y158.957 E29.82744
G1 X64.682 Y158.24 E29.85834
G1 X64.172 Y157.495 E29.88837
G1 X63.73 Y156.707 E29.91842
G1 X63.359 Y155.884 E29.94845
G1 X63.063 Y155.03 E29.97851
G1 X62.843 Y154.154 E30.00855
G1 X62.702 Y153.262 E30.03858
G1 X62.64 Y152.346 E30.06912
G1 X62.629 Y151.763 E30.08851
G1 X62.631 Y87.756 E32.2174
G1 X62.641 Y87.095 E32.23938
G1 X62.695 Y86.193 E32.26944
G1 X62.828 Y85.3 E32.29947
G1 X63.04 Y84.422 E32.32951
G1 X63.328 Y83.566 E32.35955
G1 X63.691 Y82.739 E32.38959
G1 X64.126 Y81.948 E32.41961
G1 X64.629 Y81.198 E32.44965
G1 X65.196 Y80.495 E32.47969
G1 X65.824 Y79.845 E32.50975
G1 X66.506 Y79.254 E32.53976
G1 F1500 E26.03976
;MESH:Peana_cuadrada.stl
G0 F6000 X73.249 Y86.574
G0 X73.25 Y87.659
G0 X136.953 Y88.02
G0 X137.134 Y151.543
;TYPE:WALL-INNER
G1 F1500 E32.53976
G1 F1200 X73.628 Y151.544 E34.65198
G1 X73.429 Y151.544 E34.6586
G1 X73.429 Y151.345 E34.66288
G1 X73.43 Y87.839 E36.7751
G1 X136.936 Y87.838 E38.88732
G1 X137.135 Y87.838 E38.89394
G1 X137.135 Y88.037 E38.89822
G1 X137.134 Y151.543 E41.01044
G0 F6000 X137.534 Y151.943
;TYPE:WALL-OUTER
G1 F1200 X73.029 Y151.944 E43.15588
G1 X73.03 Y87.439 E45.30133
G1 X137.535 Y87.438 E47.44677
G1 X137.534 Y151.943 E49.59222
G0 F6000 X137.264 Y151.673
G0 X137.024 Y151.154
G0 X136.744 Y151.153
;TYPE:SKIN
G1 F1200 X73.819 Y151.154 E51.68511
G1 X73.82 Y88.229 E53.77801
G1 X136.745 Y88.228 E55.8709
G1 X136.744 Y151.153 E57.96379
G1 F1500 E51.46379
G0 F6000 X137.024 Y151.154
G0 X137.024 Y88.501
G0 X136.584 Y88.5
G1 F1500 E57.96379
G1 F1200 X136.471 Y88.388 E57.96909
G0 F6000 X135.905 Y88.388
G1 F1200 X136.584 Y89.066 E58.001
G0 F6000 X136.584 Y89.632
G1 F1200 X135.34 Y88.388 E58.05951
G0 F6000 X134.774 Y88.388
G1 F1200 X136.584 Y90.197 E58.14463
G0 F6000 X136.584 Y90.763
G1 F1200 X134.208 Y88.388 E58.25636
G0 F6000 X133.643 Y88.388
G1 F1200 X136.584 Y91.329 E58.3947
G0 F6000 X136.584 Y91.894
G1 F1200 X133.077 Y88.388 E58.55963
G0 F6000 X132.511 Y88.388
G1 F1200 X136.584 Y92.46 E58.75119
G0 F6000 X136.584 Y93.026
G1 F1200 X131.946 Y88.388 E58.96935
G0 F6000 X131.38 Y88.388
G1 F1200 X136.584 Y93.591 E59.21411
G0 F6000 X136.584 Y94.157
G1 F1200 X130.814 Y88.388 E59.48549
G0 F6000 X130.249 Y88.388
G1 F1200 X136.584 Y94.723 E59.78346
G0 F6000 X136.584 Y95.289
G1 F1200 X129.683 Y88.388 E60.10807
G0 F6000 X129.117 Y88.388
G1 F1200 X136.584 Y95.854 E60.45927
G0 F6000 X136.584 Y96.42
G1 F1200 X128.552 Y88.388 E60.83707
G0 F6000 X127.986 Y88.388
G1 F1200 X136.584 Y96.986 E61.24149
G0 F6000 X136.584 Y97.551
G1 F1200 X127.42 Y88.388 E61.67251
G0 F6000 X126.854 Y88.388
G1 F1200 X136.584 Y98.117 E62.13016
G0 F6000 X136.584 Y98.683
G1 F1200 X126.289 Y88.388 E62.61441
G0 F6000 X125.723 Y88.388
G1 F1200 X136.584 Y99.248 E63.12525
G0 F6000 X136.584 Y99.814
G1 F1200 X125.157 Y88.388 E63.66272
G0 F6000 X124.592 Y88.388
G1 F1200 X136.584 Y100.38 E64.22678
G0 F6000 X136.584 Y100.945
G1 F1200 X124.026 Y88.388 E64.81745
G0 F6000 X123.46 Y88.388
G1 F1200 X136.584 Y101.511 E65.43474
G0 F6000 X136.584 Y102.077
G1 F1200 X122.895 Y88.388 E66.07863
G0 F6000 X122.329 Y88.388
G1 F1200 X136.584 Y102.642 E66.74912
G0 F6000 X136.584 Y103.208
G1 F1200 X121.763 Y88.388 E67.44623
G0 F6000 X121.198 Y88.388
G1 F1200 X136.584 Y103.774 E68.16994
G0 F6000 X136.584 Y104.339
G1 F1200 X120.632 Y88.388 E68.92025
G0 F6000 X120.066 Y88.388
G1 F1200 X136.584 Y104.905 E69.69718
G0 F6000 X136.584 Y105.471
G1 F1200 X119.501 Y88.388 E70.50071
G0 F6000 X118.935 Y88.388
G1 F1200 X136.584 Y106.037 E71.33087
G0 F6000 X136.584 Y106.602
G1 F1200 X118.369 Y88.388 E72.18762
G0 F6000 X117.803 Y88.388
G1 F1200 X136.584 Y107.168 E73.071
G0 F6000 X136.584 Y107.734
G1 F1200 X117.238 Y88.388 E73.98098
G0 F6000 X116.672 Y88.388
G1 F1200 X136.584 Y108.299 E74.91755
G0 F6000 X136.584 Y108.865
G1 F1200 X116.106 Y88.388 E75.88075
G0 F6000 X115.541 Y88.388
G1 F1200 X136.584 Y109.431 E76.87055
G0 F6000 X136.584 Y109.996
G1 F1200 X114.975 Y88.388 E77.88695
G0 F6000 X114.409 Y88.388
G1 F1200 X136.584 Y110.562 E78.92997
G0 F6000 X136.584 Y111.128
G1 F1200 X113.844 Y88.388 E79.99959
G0 F6000 X113.278 Y88.388
G1 F1200 X136.584 Y111.693 E81.09581
G0 F6000 X136.584 Y112.259
G1 F1200 X112.712 Y88.388 E82.21865
G0 F6000 X112.147 Y88.388
G1 F1200 X136.584 Y112.825 E83.36809
G0 F6000 X136.584 Y113.39
G1 F1200 X111.581 Y88.388 E84.54413
G0 F6000 X111.015 Y88.388
G1 F1200 X136.584 Y113.956 E85.74679
G0 F6000 X136.584 Y114.522
G1 F1200 X110.45 Y88.388 E86.97606
G0 F6000 X109.884 Y88.388
G1 F1200 X136.584 Y115.087 E88.23192
G0 F6000 X136.584 Y115.653
G1 F1200 X109.318 Y88.388 E89.51441
G0 F6000 X108.753 Y88.388
G1 F1200 X136.584 Y116.219 E90.82349
G0 F6000 X136.584 Y116.785
G1 F1200 X108.187 Y88.388 E92.1592
G0 F6000 X107.621 Y88.388
G1 F1200 X136.584 Y117.35 E93.52151
G0 F6000 X136.584 Y117.916
G1 F1200 X107.055 Y88.388 E94.91044
G0 F6000 X106.49 Y88.388
G1 F1200 X136.584 Y118.482 E96.32596
G0 F6000 X136.584 Y119.047
G1 F1200 X105.924 Y88.388 E97.76809
G0 F6000 X105.358 Y88.388
G1 F1200 X136.584 Y119.613 E99.23685
G0 F6000 X136.584 Y120.179
G1 F1200 X104.793 Y88.388 E100.7322
G0 F6000 X104.227 Y88.388
G1 F1200 X136.584 Y120.744 E102.25415
G0 F6000 X136.584 Y121.31
G1 F1200 X103.661 Y88.388 E103.80272
G0 F6000 X103.096 Y88.388
G1 F1200 X136.584 Y121.876 E105.37789
G0 F6000 X136.584 Y122.441
G1 F1200 X102.53 Y88.388 E106.97967
G0 F6000 X101.964 Y88.388
G1 F1200 X136.584 Y123.007 E108.60806
G0 F6000 X136.584 Y123.573
G1 F1200 X101.399 Y88.388 E110.26306
G0 F6000 X100.833 Y88.388
G1 F1200 X136.584 Y124.138 E111.94465
G0 F6000 X136.584 Y124.704
G1 F1200 X100.267 Y88.388 E113.65287
G0 F6000 X99.702 Y88.388
G1 F1200 X136.584 Y125.27 E115.38768
G0 F6000 X136.584 Y125.836
G1 F1200 X99.136 Y88.388 E117.14912
G0 F6000 X98.57 Y88.388
G1 F1200 X136.584 Y126.401 E118.93716
G0 F6000 X136.584 Y126.967
G1 F1200 X98.004 Y88.388 E120.75182
G0 F6000 X97.439 Y88.388
G1 F1200 X136.584 Y127.533 E122.59308
G0 F6000 X136.584 Y128.098
G1 F1200 X96.873 Y88.388 E124.46094
G0 F6000 X96.307 Y88.388
G1 F1200 X136.584 Y128.664 E126.35543
G0 F6000 X136.584 Y129.23
G1 F1200 X95.742 Y88.388 E128.27651
G0 F6000 X95.176 Y88.388
G1 F1200 X136.584 Y129.795 E130.22419
G0 F6000 X136.584 Y130.361
G1 F1200 X94.61 Y88.388 E132.19849
G0 F6000 X94.045 Y88.388
G1 F1200 X136.584 Y130.927 E134.1994
G0 F6000 X136.584 Y131.492
G1 F1200 X93.479 Y88.388 E136.2269
G0 F6000 X92.913 Y88.388
G1 F1200 X136.584 Y132.058 E138.28103
G0 F6000 X136.584 Y132.624
G1 F1200 X92.348 Y88.388 E140.36175
G0 F6000 X91.782 Y88.388
G1 F1200 X136.584 Y133.189 E142.46908
G0 F6000 X136.584 Y133.755
G1 F1200 X91.216 Y88.388 E144.60303
G0 F6000 X90.651 Y88.388
G1 F1200 X136.584 Y134.321 E146.76357
G0 F6000 X136.584 Y134.886
G1 F1200 X90.085 Y88.388 E148.95072
G0 F6000 X89.519 Y88.388
G1 F1200 X136.584 Y135.452 E151.16449
G0 F6000 X136.584 Y136.018
G1 F1200 X88.954 Y88.388 E153.40486
G0 F6000 X88.388 Y88.388
G1 F1200 X136.584 Y136.584 E155.67185
G0 F6000 X136.584 Y137.149
G1 F1200 X87.822 Y88.388 E157.96544
G0 F6000 X87.256 Y88.388
G1 F1200 X136.584 Y137.715 E160.28566
G0 F6000 X136.584 Y138.281
G1 F1200 X86.691 Y88.388 E162.63247
G0 F6000 X86.125 Y88.388
G1 F1200 X136.584 Y138.846 E165.00589
G0 F6000 X136.584 Y139.412
G1 F1200 X85.559 Y88.388 E167.40592
G0 F6000 X84.994 Y88.388
G1 F1200 X136.584 Y139.978 E169.83256
G0 F6000 X136.584 Y140.543
G1 F1200 X84.428 Y88.388 E172.28579
G0 F6000 X83.862 Y88.388
G1 F1200 X136.584 Y141.109 E174.76565
G0 F6000 X136.584 Y141.675
G1 F1200 X83.297 Y88.388 E177.27211
G0 F6000 X82.731 Y88.388
G1 F1200 X136.584 Y142.24 E179.80516
G0 F6000 X136.584 Y142.806
G1 F1200 X82.165 Y88.388 E182.36484
G0 F6000 X81.6 Y88.388
G1 F1200 X136.584 Y143.372 E184.95112
G0 F6000 X136.584 Y143.937
G1 F1200 X81.034 Y88.388 E187.564
G0 F6000 X80.468 Y88.388
G1 F1200 X136.584 Y144.503 E190.2035
G0 F6000 X136.584 Y145.069
G1 F1200 X79.903 Y88.388 E192.8696
G0 F6000 X79.337 Y88.388
G1 F1200 X136.584 Y145.635 E195.56232
G0 F6000 X136.584 Y146.2
G1 F1200 X78.771 Y88.388 E198.28165
G0 F6000 X78.206 Y88.388
G1 F1200 X136.584 Y146.766 E201.02757
G0 F6000 X136.584 Y147.332
G1 F1200 X77.64 Y88.388 E203.80011
G0 F6000 X77.074 Y88.388
