;FLAVOR:Marlin
;TIME:2301
;Filament used: 0.704476m
;Layer height: 0.08
;MINX:84.01
;MINY:84.015
;MINZ:0.2
;MAXX:135.991
;MAXY:135.991
;MAXZ:4.28
;Generated with Cura_SteamEngine 4.10.0
M140 S60
M105
M190 S60
M104 S215
M105
M109 S215
M82 ;absolute extrusion mode
; Ender 3 Custom Start G-code
G92 E0 ; Reset Extruder
G28 ; Home all axes
G1 Z2.0 F3000 ; Move Z Axis up little to prevent scratching of Heat Bed
G1 X0.1 Y20 Z0.3 F5000.0 ; Move to start position
G1 X0.1 Y200.0 Z0.3 F1500.0 E15 ; Draw the first line
G1 X0.4 Y200.0 Z0.3 F5000.0 ; Move to side a little
G1 X0.4 Y20 Z0.3 F1500.0 E30 ; Draw the second line
G92 E0 ; Reset Extruder
G1 Z2.0 F3000 ; Move Z Axis up little to prevent scratching of Heat Bed
G1 X5 Y20 Z0.3 F5000.0 ; Move over to prevent blob squish
G92 E0
G92 E0
G1 F1800 E-6.5
;LAYER_COUNT:53
;LAYER:0
M107
G0 F6000 X91.768 Y91.48 Z0.2
;TYPE:SKIRT
G1 F1800 E0
G1 F1200 X92.106 Y91.153 E0.01564
G1 X92.529 Y90.764 E0.03476
G1 X93.335 Y90.062 E0.07031
G1 X93.598 Y89.841 E0.08173
G1 X93.746 Y89.72 E0.08809
G1 X94.215 Y89.357 E0.10782
G1 X95.097 Y88.712 E0.14416
G1 X95.676 Y88.316 E0.16749
G1 X96.283 Y87.929 E0.19143
G1 X96.639 Y87.711 E0.20532
G1 X97.218 Y87.372 E0.22763
G1 X97.773 Y87.069 E0.24866
G1 X98.38 Y86.759 E0.27133
G1 X98.745 Y86.581 E0.28484
G1 X99.431 Y86.262 E0.31
G1 X99.726 Y86.13 E0.32075
G1 X99.968 Y86.026 E0.32951
G1 X100.304 Y85.888 E0.34159
G1 X100.754 Y85.712 E0.35766
G1 X101.068 Y85.594 E0.36882
G1 X101.458 Y85.455 E0.38259
G1 X101.737 Y85.36 E0.39239
G1 X102.028 Y85.265 E0.40258
G1 X102.35 Y85.166 E0.41378
G1 X103.026 Y84.968 E0.43721
G1 X103.381 Y84.87 E0.44946
G1 X103.669 Y84.796 E0.45935
G1 X104.188 Y84.676 E0.47707
G1 X105.203 Y84.467 E0.51153
G1 X105.613 Y84.391 E0.5254
G1 X105.961 Y84.333 E0.53714
G1 X106.367 Y84.273 E0.55079
G1 X106.943 Y84.199 E0.5701
G1 X107.371 Y84.152 E0.58442
G1 X108.248 Y84.074 E0.61371
G1 X108.612 Y84.048 E0.62584
G1 X108.828 Y84.036 E0.63304
G1 X109.145 Y84.023 E0.64359
G1 X109.295 Y84.019 E0.64858
G1 X109.633 Y84.015 E0.65982
G1 X110.362 Y84.018 E0.68407
G1 X110.777 Y84.028 E0.69788
G1 X111.59 Y84.062 E0.72494
G1 X112.033 Y84.089 E0.7397
G1 X112.585 Y84.143 E0.75815
G1 X113.693 Y84.281 E0.79529
G1 X114.1 Y84.34 E0.80897
G1 X114.438 Y84.395 E0.82036
G1 X114.755 Y84.451 E0.83106
G1 X115.206 Y84.538 E0.84634
G1 X115.501 Y84.599 E0.85636
G1 X115.808 Y84.667 E0.86682
G1 X116.333 Y84.797 E0.88481
G1 X117.294 Y85.06 E0.91795
G1 X117.649 Y85.164 E0.93025
G1 X117.865 Y85.231 E0.93777
G1 X118.362 Y85.398 E0.95521
G1 X119.24 Y85.717 E0.98628
G1 X119.649 Y85.875 E1.00086
G1 X120.001 Y86.019 E1.01351
G1 X120.394 Y86.189 E1.02775
G1 X121.345 Y86.622 E1.06251
G1 X121.706 Y86.794 E1.07581
G1 X121.856 Y86.869 E1.08139
G1 X122.301 Y87.104 E1.09812
G1 X122.976 Y87.481 E1.12384
G1 X123.271 Y87.653 E1.1352
G1 X123.576 Y87.836 E1.14703
G1 X124.002 Y88.104 E1.16377
G1 X124.633 Y88.523 E1.18896
G1 X124.998 Y88.776 E1.20373
G1 X125.313 Y89.008 E1.21674
G1 X126.212 Y89.695 E1.25437
G1 X126.526 Y89.944 E1.2677
G1 X126.696 Y90.084 E1.27503
G1 X127.091 Y90.426 E1.29241
G1 X127.787 Y91.057 E1.32365
G1 X128.289 Y91.541 E1.34685
G1 X128.87 Y92.139 E1.37458
G1 X129.153 Y92.442 E1.38837
G1 X129.525 Y92.855 E1.40685
G1 X129.761 Y93.125 E1.41878
G1 X130.111 Y93.54 E1.43684
G1 X130.331 Y93.81 E1.44842
G1 X130.584 Y94.13 E1.46199
G1 X130.921 Y94.58 E1.48069
G1 X131.314 Y95.133 E1.50325
G1 X131.519 Y95.431 E1.51528
G1 X131.77 Y95.81 E1.5304
G1 X132.016 Y96.199 E1.54571
G1 X132.38 Y96.802 E1.56914
G1 X132.601 Y97.184 E1.58382
G1 X133.034 Y97.971 E1.61369
G1 X133.187 Y98.261 E1.6246
G1 X133.294 Y98.47 E1.63241
G1 X133.529 Y98.958 E1.65042
G1 X133.761 Y99.472 E1.66918
G1 X133.981 Y99.995 E1.68805
G1 X134.311 Y100.84 E1.71822
G1 X134.456 Y101.232 E1.73212
G1 X134.628 Y101.727 E1.74955
G1 X134.767 Y102.155 E1.76452
G1 X135.023 Y103.002 E1.79395
G1 X135.122 Y103.35 E1.80598
G1 X135.186 Y103.59 E1.81424
G1 X135.306 Y104.09 E1.83135
G1 X135.435 Y104.684 E1.85156
G1 X135.503 Y105.018 E1.8629
G1 X135.574 Y105.402 E1.87589
G1 X135.644 Y105.832 E1.89038
G1 X135.8 Y106.914 E1.92674
G1 X135.847 Y107.285 E1.93918
G1 X135.864 Y107.44 E1.94436
G1 X135.91 Y107.972 E1.96212
G1 X135.954 Y108.696 E1.98625
G1 X135.97 Y109.08 E1.99903
G1 X135.987 Y109.74 E2.02099
G1 X135.991 Y110.081 E2.03233
G1 X135.989 Y110.459 E2.0449
G1 X135.976 Y110.936 E2.06078
G1 X135.949 Y111.491 E2.07926
G1 X135.91 Y112.022 E2.09697
G1 X135.851 Y112.628 E2.11722
G1 X135.802 Y113.049 E2.13131
G1 X135.656 Y114.119 E2.16723
G1 X135.584 Y114.578 E2.18268
G1 X135.449 Y115.259 E2.20578
G1 X135.193 Y116.361 E2.2434
G1 X135.088 Y116.776 E2.25764
G1 X134.983 Y117.146 E2.27043
G1 X134.756 Y117.898 E2.29656
G1 X134.637 Y118.267 E2.30946
G1 X134.56 Y118.493 E2.3174
G1 X134.464 Y118.765 E2.32699
G1 X134.297 Y119.216 E2.34299
G1 X134.161 Y119.563 E2.35538
G1 X133.881 Y120.247 E2.37996
G1 X133.737 Y120.583 E2.39212
G1 X133.632 Y120.817 E2.40065
G1 X133.494 Y121.113 E2.41152
G1 X133.223 Y121.672 E2.43218
G1 X132.931 Y122.233 E2.45321
G1 X132.522 Y122.966 E2.48113
G1 X132.335 Y123.288 E2.49352
G1 X132.148 Y123.598 E2.50556
G1 X131.986 Y123.858 E2.51575
G1 X131.787 Y124.168 E2.528
G1 X131.567 Y124.497 E2.54116
G1 X131.295 Y124.889 E2.55703
G1 X131.073 Y125.198 E2.56969
G1 X130.599 Y125.833 E2.59604
G1 X130.358 Y126.144 E2.60913
G1 X130.096 Y126.47 E2.62304
G1 X129.824 Y126.796 E2.63716
G1 X129.292 Y127.408 E2.66413
G1 X128.939 Y127.794 E2.68153
G1 X128.587 Y128.162 E2.69847
G1 X128.351 Y128.402 E2.70966
G1 X128.111 Y128.638 E2.72086
G1 X127.697 Y129.024 E2.73968
G1 X126.918 Y129.715 E2.77432
G1 X126.596 Y129.99 E2.7884
G1 X126.106 Y130.392 E2.80948
G1 X125.821 Y130.618 E2.82158
G1 X125.534 Y130.838 E2.83361
G1 X125.119 Y131.141 E2.8507
G1 X124.611 Y131.494 E2.87127
G1 X124.194 Y131.77 E2.8879
G1 X123.584 Y132.154 E2.91188
G1 X123.235 Y132.365 E2.92544
G1 X122.874 Y132.574 E2.93932
G1 X122.608 Y132.723 E2.94946
G1 X122.101 Y132.998 E2.96864
G1 X121.775 Y133.168 E2.98087
G1 X121.477 Y133.317 E2.99195
G1 X121.135 Y133.481 E3.00457
G1 X120.534 Y133.756 E3.02655
G1 X120.252 Y133.88 E3.03679
G1 X119.995 Y133.989 E3.04608
G1 X119.708 Y134.106 E3.05639
G1 X119.202 Y134.304 E3.07446
G1 X118.901 Y134.416 E3.08514
G1 X118.468 Y134.571 E3.10044
G1 X117.99 Y134.73 E3.11719
G1 X117.469 Y134.89 E3.13532
G1 X116.958 Y135.034 E3.15298
G1 X116.205 Y135.226 E3.17882
G1 X115.804 Y135.32 E3.19252
G1 X114.978 Y135.498 E3.22063
G1 X114.581 Y135.576 E3.23408
G1 X114.299 Y135.626 E3.24361
G1 X113.948 Y135.682 E3.25543
G1 X113.393 Y135.762 E3.27408
G1 X113.044 Y135.807 E3.28578
G1 X112.551 Y135.862 E3.30228
G1 X112.262 Y135.89 E3.31194
G1 X111.909 Y135.92 E3.32372
G1 X111.388 Y135.952 E3.34109
G1 X110.611 Y135.981 E3.36695
G1 X110.268 Y135.989 E3.37836
G1 X109.939 Y135.991 E3.3893
G1 X109.424 Y135.982 E3.40643
G1 X108.835 Y135.958 E3.42604
G1 X108.434 Y135.934 E3.4394
G1 X107.426 Y135.856 E3.47303
G1 X106.968 Y135.811 E3.48833
G1 X106.642 Y135.772 E3.49925
G1 X106.193 Y135.709 E3.51433
G1 X105.618 Y135.616 E3.53371
G1 X105.054 Y135.51 E3.55279
G1 X104.053 Y135.294 E3.58685
G1 X103.416 Y135.136 E3.60868
G1 X102.599 Y134.908 E3.63689
G1 X102.234 Y134.8 E3.64955
G1 X102.013 Y134.73 E3.65726
G1 X101.547 Y134.57 E3.67365
G1 X100.781 Y134.289 E3.70079
G1 X100.374 Y134.131 E3.71531
G1 X99.562 Y133.796 E3.74453
G1 X99.138 Y133.61 E3.75992
G1 X99.004 Y133.548 E3.76484
G1 X98.59 Y133.346 E3.78016
G1 X97.626 Y132.85 E3.81621
G1 X97.248 Y132.646 E3.8305
G1 X97.048 Y132.533 E3.83814
G1 X96.553 Y132.241 E3.85726
G1 X96.106 Y131.961 E3.8748
G1 X95.359 Y131.466 E3.9046
G1 X95.026 Y131.236 E3.91807
G1 X94.687 Y130.993 E3.93194
G1 X94.41 Y130.788 E3.9434
G1 X93.971 Y130.452 E3.96179
G1 X93.685 Y130.225 E3.97393
G1 X93.253 Y129.871 E3.99251
G1 X93.004 Y129.661 E4.00334
G1 X92.873 Y129.547 E4.00912
G1 X92.644 Y129.342 E4.01934
G1 X92.254 Y128.983 E4.03697
G1 X91.989 Y128.731 E4.04913
G1 X91.615 Y128.363 E4.06658
G1 X91.384 Y128.128 E4.07754
G1 X91.071 Y127.801 E4.0926
G1 X90.821 Y127.532 E4.10481
G1 X90.394 Y127.055 E4.12611
G1 X90.159 Y126.784 E4.13804
G1 X90.071 Y126.679 E4.14259
G1 X89.842 Y126.395 E4.15473
G1 X89.239 Y125.625 E4.18726
G1 X88.921 Y125.2 E4.20491
G1 X88.742 Y124.942 E4.21536
G1 X88.155 Y124.072 E4.25026
G1 X87.752 Y123.427 E4.27556
G1 X87.272 Y122.597 E4.30745
G1 X87.101 Y122.291 E4.31911
G1 X87.013 Y122.127 E4.3253
G1 X86.758 Y121.619 E4.3442
G1 X86.315 Y120.68 E4.37874
G1 X86.136 Y120.281 E4.39328
G1 X86.044 Y120.064 E4.40112
G1 X85.9 Y119.708 E4.41389
G1 X85.548 Y118.79 E4.44659
G1 X85.408 Y118.404 E4.46025
G1 X85.306 Y118.105 E4.47076
G1 X85.168 Y117.671 E4.4859
G1 X85.009 Y117.133 E4.50456
G1 X84.866 Y116.6 E4.52292
G1 X84.711 Y115.959 E4.54485
G1 X84.624 Y115.569 E4.55814
G1 X84.468 Y114.803 E4.58414
G1 X84.387 Y114.358 E4.59919
G1 X84.284 Y113.719 E4.62071
G1 X84.228 Y113.326 E4.63392
G1 X84.181 Y112.948 E4.64659
G1 X84.145 Y112.619 E4.65759
G1 X84.088 Y112.012 E4.67787
G1 X84.048 Y111.409 E4.69797
G1 X84.019 Y110.659 E4.72294
G1 X84.011 Y110.323 E4.73411
G1 X84.01 Y110.199 E4.73824
G1 X84.013 Y109.855 E4.74968
G1 X84.03 Y109.122 E4.77407
G1 X84.047 Y108.718 E4.78752
G1 X84.095 Y107.918 E4.81417
G1 X84.144 Y107.346 E4.83327
G1 X84.195 Y106.893 E4.84843
G1 X84.266 Y106.372 E4.86592
G1 X84.408 Y105.492 E4.89557
G1 X84.49 Y105.039 E4.91088
G1 X84.572 Y104.649 E4.92413
G1 X84.772 Y103.773 E4.95402
G1 X84.87 Y103.377 E4.96759
G1 X84.923 Y103.179 E4.9744
G1 X84.998 Y102.914 E4.98356
G1 X85.158 Y102.371 E5.00239
G1 X85.266 Y102.024 E5.01448
G1 X85.357 Y101.749 E5.02411
G1 X85.457 Y101.461 E5.03425
G1 X85.613 Y101.03 E5.0495
G1 X85.762 Y100.64 E5.06338
G1 X86.082 Y99.851 E5.0917
G1 X86.259 Y99.441 E5.10656
G1 X86.445 Y99.031 E5.12153
G1 X86.587 Y98.729 E5.13263
G1 X86.88 Y98.132 E5.15475
G1 X87.04 Y97.819 E5.16644
G1 X87.134 Y97.642 E5.17311
G1 X87.308 Y97.326 E5.1851
G1 X87.479 Y97.028 E5.19653
G1 X87.658 Y96.727 E5.20818
G1 X88.101 Y96.009 E5.23624
G1 X88.304 Y95.693 E5.24873
G1 X88.445 Y95.481 E5.2572
G1 X88.621 Y95.224 E5.26756
G1 X88.879 Y94.859 E5.28243
G1 X89.103 Y94.554 E5.29501
G1 X89.552 Y93.963 E5.3197
G1 X90.026 Y93.381 E5.34466
G1 X90.798 Y92.497 E5.3837
G1 X91.031 Y92.239 E5.39526
G1 X91.192 Y92.066 E5.40312
G1 X91.421 Y91.827 E5.41413
G1 X91.768 Y91.48 E5.43045
G0 F6000 X92.046 Y91.768
G1 F1200 X92.384 Y91.441 E5.4461
G1 X92.792 Y91.066 E5.46453
G1 X93.598 Y90.364 E5.50008
G1 X93.851 Y90.151 E5.51108
G1 X93.999 Y90.03 E5.51743
G1 X94.451 Y89.68 E5.53645
G1 X95.333 Y89.035 E5.57279
G1 X95.891 Y88.653 E5.59528
G1 X96.498 Y88.266 E5.61923
G1 X96.841 Y88.057 E5.63258
G1 X97.42 Y87.718 E5.6549
G1 X97.955 Y87.425 E5.67519
G1 X98.562 Y87.115 E5.69786
G1 X98.913 Y86.943 E5.71086
G1 X99.599 Y86.624 E5.73602
G1 X99.884 Y86.497 E5.7464
G1 X100.126 Y86.393 E5.75516
G1 X100.45 Y86.26 E5.76681
G1 X100.9 Y86.084 E5.78288
G1 X101.202 Y85.971 E5.7936
G1 X101.592 Y85.832 E5.80738
G1 X101.861 Y85.74 E5.81683
G1 X102.152 Y85.645 E5.82701
G1 X102.462 Y85.549 E5.83781
G1 X103.138 Y85.351 E5.86123
G1 X103.48 Y85.257 E5.87303
G1 X103.768 Y85.183 E5.88292
G1 X104.268 Y85.068 E5.89999
G1 X105.283 Y84.859 E5.93445
G1 X105.678 Y84.785 E5.94782
G1 X106.026 Y84.727 E5.95955
G1 X106.418 Y84.669 E5.97273
G1 X106.994 Y84.595 E5.99205
G1 X107.406 Y84.551 E6.00583
G1 X108.283 Y84.473 E6.03511
G1 X108.634 Y84.447 E6.04682
G1 X108.85 Y84.435 E6.05402
G1 X109.305 Y84.419 E6.06916
G1 X109.632 Y84.415 E6.08004
G1 X110.361 Y84.418 E6.10428
G1 X110.76 Y84.427 E6.11756
G1 X111.573 Y84.461 E6.14462
G1 X112.004 Y84.488 E6.15898
G1 X112.535 Y84.54 E6.17673
G1 X113.643 Y84.678 E6.21387
G1 X114.035 Y84.735 E6.22704
G1 X114.373 Y84.79 E6.23843
G1 X114.679 Y84.844 E6.24877
G1 X115.13 Y84.931 E6.26404
G1 X115.414 Y84.99 E6.27369
G1 X115.721 Y85.058 E6.28415
G1 X116.227 Y85.183 E6.30148
G1 X117.188 Y85.446 E6.33462
G1 X117.53 Y85.546 E6.34647
G1 X117.746 Y85.613 E6.354
G1 X118.226 Y85.774 E6.37083
G1 X119.104 Y86.093 E6.4019
G1 X119.498 Y86.245 E6.41595
G1 X119.85 Y86.389 E6.4286
G1 X120.228 Y86.553 E6.4423
G1 X121.179 Y86.986 E6.47706
G1 X121.527 Y87.152 E6.48988
G1 X121.677 Y87.227 E6.49546
G1 X122.106 Y87.454 E6.5116
G1 X122.781 Y87.831 E6.53732
G1 X123.066 Y87.996 E6.54827
G1 X123.371 Y88.179 E6.5601
G1 X123.781 Y88.438 E6.57623
G1 X124.412 Y88.857 E6.60142
G1 X124.767 Y89.102 E6.61577
G1 X125.07 Y89.326 E6.6283
G1 X125.969 Y90.013 E6.66594
G1 X126.271 Y90.253 E6.67877
G1 X126.441 Y90.393 E6.68609
G1 X126.823 Y90.722 E6.70286
G1 X127.519 Y91.353 E6.73411
G1 X128.002 Y91.82 E6.75645
G1 X128.583 Y92.418 E6.78418
G1 X128.856 Y92.71 E6.79748
G1 X129.228 Y93.123 E6.81596
G1 X129.455 Y93.383 E6.82744
G1 X129.805 Y93.798 E6.8455
G1 X130.017 Y94.058 E6.85666
G1 X130.27 Y94.378 E6.87023
G1 X130.595 Y94.812 E6.88826
G1 X130.988 Y95.365 E6.91082
G1 X131.186 Y95.652 E6.92242
G1 X131.437 Y96.031 E6.93754
G1 X131.674 Y96.406 E6.9523
G1 X132.038 Y97.009 E6.97572
G1 X132.25 Y97.377 E6.98985
G1 X132.683 Y98.164 E7.01972
G1 X132.831 Y98.443 E7.03023
G1 X132.938 Y98.652 E7.03804
G1 X133.164 Y99.122 E7.05538
G1 X133.396 Y99.636 E7.07414
G1 X133.609 Y100.141 E7.09237
G1 X133.939 Y100.986 E7.12254
G1 X134.078 Y101.363 E7.13591
G1 X134.25 Y101.858 E7.15333
G1 X134.384 Y102.27 E7.16774
G1 X134.64 Y103.117 E7.19717
G1 X134.735 Y103.453 E7.20879
G1 X134.799 Y103.693 E7.21705
G1 X134.916 Y104.174 E7.23351
G1 X135.045 Y104.768 E7.25373
G1 X135.109 Y105.091 E7.26468
G1 X135.18 Y105.475 E7.27767
G1 X135.249 Y105.889 E7.29163
G1 X135.405 Y106.971 E7.32799
G1 X135.45 Y107.328 E7.33996
G1 X135.467 Y107.483 E7.34514
G1 X135.51 Y107.996 E7.36227
G1 X135.554 Y108.72 E7.38639
G1 X135.57 Y109.09 E7.39871
G1 X135.587 Y109.75 E7.42067
G1 X135.591 Y110.079 E7.43161
G1 X135.589 Y110.457 E7.44418
G1 X135.576 Y110.916 E7.45946
G1 X135.549 Y111.471 E7.47794
G1 X135.512 Y111.983 E7.49501
G1 X135.453 Y112.589 E7.51526
G1 X135.406 Y112.995 E7.52886
G1 X135.26 Y114.065 E7.56477
G1 X135.213 Y114.375 E7.5752
G1 X135.19 Y114.513 E7.57986
G1 X135.059 Y115.169 E7.60211
G1 X134.803 Y116.271 E7.63973
G1 X134.702 Y116.67 E7.65342
G1 X134.6 Y117.03 E7.66587
G1 X134.373 Y117.782 E7.69199
G1 X134.259 Y118.138 E7.70443
G1 X134.182 Y118.364 E7.71237
G1 X134.088 Y118.626 E7.72163
G1 X133.921 Y119.077 E7.73762
G1 X133.791 Y119.412 E7.74957
G1 X133.511 Y120.096 E7.77416
G1 X133.372 Y120.42 E7.78588
G1 X133.267 Y120.654 E7.79441
G1 X133.134 Y120.938 E7.80484
G1 X132.863 Y121.497 E7.82551
G1 X132.582 Y122.038 E7.84578
G1 X132.173 Y122.771 E7.8737
G1 X131.992 Y123.081 E7.88564
G1 X131.805 Y123.391 E7.89768
G1 X131.649 Y123.642 E7.90751
G1 X131.45 Y123.952 E7.91976
G1 X131.239 Y124.269 E7.93243
G1 X130.967 Y124.661 E7.9483
G1 X130.752 Y124.959 E7.96052
G1 X130.278 Y125.594 E7.98687
G1 X130.046 Y125.893 E7.99946
G1 X129.784 Y126.219 E8.01337
G1 X129.522 Y126.533 E8.02697
G1 X128.99 Y127.145 E8.05394
G1 X128.65 Y127.518 E8.07073
G1 X128.298 Y127.886 E8.08767
G1 X128.07 Y128.117 E8.09846
G1 X127.83 Y128.353 E8.10966
G1 X127.432 Y128.725 E8.12778
G1 X126.653 Y129.416 E8.16241
G1 X126.342 Y129.681 E8.176
G1 X125.852 Y130.083 E8.19708
G1 X125.578 Y130.301 E8.20873
G1 X125.291 Y130.521 E8.22076
G1 X124.891 Y130.813 E8.23723
G1 X124.383 Y131.166 E8.2578
G1 X123.981 Y131.432 E8.27384
G1 X123.371 Y131.816 E8.29781
G1 X123.035 Y132.019 E8.31087
G1 X122.674 Y132.228 E8.32474
G1 X122.417 Y132.372 E8.33454
G1 X121.91 Y132.647 E8.35372
G1 X121.596 Y132.81 E8.36549
G1 X121.298 Y132.959 E8.37657
G1 X120.968 Y133.117 E8.38874
G1 X120.367 Y133.392 E8.41072
G1 X120.096 Y133.512 E8.42058
G1 X119.839 Y133.621 E8.42986
G1 X119.563 Y133.733 E8.43977
G1 X119.057 Y133.931 E8.45784
G1 X118.766 Y134.04 E8.46818
G1 X118.333 Y134.195 E8.48348
G1 X117.873 Y134.348 E8.4996
G1 X117.352 Y134.508 E8.51773
G1 X116.859 Y134.646 E8.53475
G1 X116.106 Y134.838 E8.5606
G1 X115.72 Y134.929 E8.57379
G1 X114.894 Y135.107 E8.60189
G1 X114.512 Y135.182 E8.61484
G1 X114.23 Y135.232 E8.62437
G1 X113.891 Y135.287 E8.63579
G1 X113.336 Y135.367 E8.65444
G1 X112.999 Y135.41 E8.66574
G1 X112.506 Y135.465 E8.68224
G1 X112.229 Y135.492 E8.6915
G1 X111.876 Y135.522 E8.70328
G1 X111.373 Y135.553 E8.72004
