;FLAVOR:Marlin
;TIME:3877
;Filament used: 1.21238m
;Layer height: 0.08
;MINX:79.01
;MINY:79.013
;MINZ:0.2
;MAXX:140.991
;MAXY:140.991
;MAXZ:4.28
;Generated with Cura_SteamEngine 4.10.0
M140 S60
M105
M190 S60
M104 S215
M105
M109 S215
M82 ;absolute extrusion mode
; Ender 3 Custom Start G-code
G92 E0 ; Reset Extruder
G28 ; Home all axes
G1 Z2.0 F3000 ; Move Z Axis up little to prevent scratching of Heat Bed
G1 X0.1 Y20 Z0.3 F5000.0 ; Move to start position
G1 X0.1 Y200.0 Z0.3 F1500.0 E15 ; Draw the first line
G1 X0.4 Y200.0 Z0.3 F5000.0 ; Move to side a little
G1 X0.4 Y20 Z0.3 F1500.0 E30 ; Draw the second line
G92 E0 ; Reset Extruder
G1 Z2.0 F3000 ; Move Z Axis up little to prevent scratching of Heat Bed
G1 X5 Y20 Z0.3 F5000.0 ; Move over to prevent blob squish
G92 E0
G92 E0
G1 F1800 E-6.5
;LAYER_COUNT:53
;LAYER:0
M107
G0 F6000 X87.945 Y88.233 Z0.2
;TYPE:SKIRT
G1 F1800 E0
G1 F1200 X88.177 Y88.006 E0.0108
G1 X88.965 Y87.257 E0.04696
G1 X89.299 Y86.952 E0.062
G1 X90.092 Y86.258 E0.09705
G1 X90.384 Y86.011 E0.10977
G1 X90.693 Y85.759 E0.12303
G1 X91.094 Y85.444 E0.13999
G1 X91.57 Y85.084 E0.15984
G1 X92.125 Y84.683 E0.18261
G1 X92.338 Y84.533 E0.19128
G1 X92.634 Y84.331 E0.2032
G1 X92.923 Y84.141 E0.2147
G1 X93.626 Y83.693 E0.24243
G1 X93.956 Y83.491 E0.2553
G1 X94.732 Y83.034 E0.28525
G1 X95.025 Y82.867 E0.29647
G1 X95.273 Y82.731 E0.30587
G1 X95.569 Y82.575 E0.317
G1 X96.044 Y82.333 E0.33473
G1 X96.401 Y82.159 E0.34794
G1 X97.436 Y81.678 E0.3859
G1 X97.774 Y81.527 E0.39822
G1 X98.224 Y81.336 E0.41447
G1 X98.516 Y81.218 E0.42495
G1 X98.897 Y81.069 E0.43856
G1 X99.18 Y80.962 E0.44862
G1 X99.761 Y80.753 E0.46916
G1 X100.076 Y80.645 E0.48023
G1 X100.653 Y80.457 E0.50042
G1 X100.95 Y80.365 E0.51076
G1 X101.625 Y80.166 E0.53416
G1 X101.955 Y80.074 E0.54556
G1 X102.464 Y79.941 E0.56305
G1 X103.032 Y79.809 E0.58245
G1 X104.259 Y79.557 E0.62411
G1 X104.669 Y79.481 E0.63798
G1 X105.289 Y79.378 E0.65888
G1 X105.692 Y79.318 E0.67244
G1 X106.409 Y79.226 E0.69648
G1 X106.825 Y79.181 E0.7104
G1 X107.771 Y79.096 E0.74199
G1 X108.154 Y79.068 E0.75476
G1 X108.812 Y79.032 E0.77668
G1 X109.265 Y79.016 E0.79175
G1 X109.565 Y79.013 E0.80173
G1 X110.303 Y79.015 E0.82628
G1 X110.727 Y79.024 E0.84038
G1 X111.72 Y79.065 E0.87344
G1 X112.176 Y79.094 E0.88864
G1 X112.863 Y79.151 E0.91157
G1 X113.3 Y79.196 E0.92618
G1 X114.321 Y79.322 E0.96039
G1 X114.737 Y79.381 E0.97437
G1 X115.507 Y79.506 E1.00031
G1 X115.821 Y79.562 E1.01092
G1 X116.055 Y79.607 E1.01885
G1 X116.351 Y79.668 E1.0289
G1 X116.971 Y79.805 E1.05002
G1 X117.495 Y79.934 E1.06797
G1 X118.682 Y80.258 E1.10889
G1 X119.009 Y80.353 E1.12022
G1 X119.433 Y80.483 E1.13497
G1 X119.962 Y80.66 E1.15352
G1 X120.998 Y81.036 E1.19018
G1 X121.406 Y81.193 E1.20472
G1 X122.26 Y81.542 E1.2354
G1 X122.564 Y81.672 E1.2464
G1 X122.895 Y81.819 E1.25844
G1 X123.407 Y82.063 E1.27731
G1 X124.42 Y82.577 E1.31509
G1 X124.802 Y82.78 E1.32948
G1 X125.614 Y83.233 E1.3604
G1 X125.946 Y83.425 E1.37316
G1 X126.3 Y83.639 E1.38692
G1 X126.691 Y83.887 E1.40232
G1 X127.431 Y84.378 E1.43186
G1 X127.724 Y84.58 E1.44369
G1 X128.001 Y84.777 E1.455
G1 X128.31 Y85.005 E1.46777
G1 X129.289 Y85.754 E1.50877
G1 X129.593 Y85.995 E1.52167
G1 X129.948 Y86.287 E1.53696
G1 X130.336 Y86.621 E1.55399
G1 X131.157 Y87.363 E1.59079
G1 X131.4 Y87.59 E1.60185
G1 X131.576 Y87.759 E1.60997
G1 X131.859 Y88.041 E1.62326
G1 X132.563 Y88.768 E1.65692
G1 X132.824 Y89.047 E1.66962
G1 X133.207 Y89.471 E1.68863
G1 X133.452 Y89.752 E1.70103
G1 X134.034 Y90.442 E1.73105
G1 X134.241 Y90.694 E1.7419
G1 X134.53 Y91.058 E1.75735
G1 X134.898 Y91.549 E1.77776
G1 X135.631 Y92.586 E1.82
G1 X135.822 Y92.866 E1.83127
G1 X136.037 Y93.191 E1.84423
G1 X136.218 Y93.473 E1.85538
G1 X136.518 Y93.958 E1.87435
G1 X136.789 Y94.422 E1.89222
G1 X137.41 Y95.545 E1.9349
G1 X137.602 Y95.907 E1.94853
G1 X137.793 Y96.285 E1.96262
G1 X137.964 Y96.636 E1.9756
G1 X138.072 Y96.868 E1.98411
G1 X138.354 Y97.493 E2.00692
G1 X138.565 Y97.993 E2.02497
G1 X138.984 Y99.059 E2.06307
G1 X139.139 Y99.48 E2.07799
G1 X139.39 Y100.204 E2.10347
G1 X139.528 Y100.629 E2.11834
G1 X139.767 Y101.421 E2.14585
G1 X139.891 Y101.866 E2.16122
G1 X140.147 Y102.864 E2.19548
G1 X140.241 Y103.262 E2.20909
G1 X140.352 Y103.773 E2.22648
G1 X140.422 Y104.12 E2.23825
G1 X140.508 Y104.588 E2.25408
G1 X140.576 Y105.006 E2.26816
G1 X140.762 Y106.296 E2.31151
G1 X140.81 Y106.675 E2.32422
G1 X140.849 Y107.033 E2.3362
G1 X140.894 Y107.565 E2.35395
G1 X140.951 Y108.515 E2.38561
G1 X140.967 Y108.885 E2.39793
G1 X140.987 Y109.647 E2.42328
G1 X140.991 Y109.983 E2.43445
G1 X140.989 Y110.456 E2.45019
G1 X140.972 Y111.022 E2.46902
G1 X140.912 Y112.097 E2.50483
G1 X140.879 Y112.527 E2.51917
G1 X140.782 Y113.545 E2.55319
G1 X140.741 Y113.915 E2.56557
G1 X140.68 Y114.386 E2.58136
G1 X140.611 Y114.844 E2.59677
G1 X140.475 Y115.632 E2.62337
G1 X140.35 Y116.249 E2.6443
G1 X140.046 Y117.558 E2.689
G1 X139.954 Y117.926 E2.70162
G1 X139.854 Y118.298 E2.71443
G1 X139.768 Y118.601 E2.72491
G1 X139.58 Y119.228 E2.74668
G1 X139.466 Y119.586 E2.75917
G1 X139.246 Y120.238 E2.78206
G1 X139.131 Y120.562 E2.79349
G1 X138.938 Y121.08 E2.81188
G1 X138.813 Y121.4 E2.82331
G1 X138.52 Y122.117 E2.84907
G1 X138.37 Y122.467 E2.86173
G1 X138.129 Y123.003 E2.88128
G1 X137.995 Y123.289 E2.89179
G1 X137.712 Y123.873 E2.91337
G1 X137.585 Y124.126 E2.92279
G1 X137.477 Y124.335 E2.93061
G1 X137.315 Y124.637 E2.94201
G1 X136.855 Y125.463 E2.97345
G1 X136.673 Y125.778 E2.98555
G1 X136.453 Y126.144 E2.99976
G1 X136.291 Y126.405 E3.00997
G1 X135.959 Y126.924 E3.03047
G1 X135.738 Y127.256 E3.04373
G1 X135.34 Y127.831 E3.06699
G1 X135.103 Y128.16 E3.08048
G1 X134.613 Y128.815 E3.10768
G1 X134.36 Y129.14 E3.12138
G1 X133.631 Y130.042 E3.15996
G1 X133.293 Y130.441 E3.17735
G1 X132.993 Y130.777 E3.19233
G1 X132.698 Y131.099 E3.20685
G1 X132.508 Y131.3 E3.21605
G1 X132.191 Y131.629 E3.23125
G1 X131.987 Y131.836 E3.24092
G1 X131.41 Y132.404 E3.26785
G1 X131.055 Y132.738 E3.28406
G1 X130.501 Y133.237 E3.30886
G1 X130.103 Y133.579 E3.32631
G1 X129.153 Y134.356 E3.36713
G1 X128.875 Y134.576 E3.37892
G1 X128.453 Y134.899 E3.3966
G1 X128.045 Y135.196 E3.41338
G1 X127.376 Y135.661 E3.44048
G1 X126.951 Y135.943 E3.45744
G1 X126.176 Y136.43 E3.48789
G1 X125.85 Y136.627 E3.50055
G1 X125.203 Y137.003 E3.52544
G1 X124.923 Y137.16 E3.53612
G1 X124.595 Y137.338 E3.54853
G1 X124.267 Y137.509 E3.56084
G1 X123.589 Y137.848 E3.58605
G1 X123.255 Y138.008 E3.59837
G1 X122.531 Y138.34 E3.62486
G1 X122.225 Y138.474 E3.63597
G1 X121.929 Y138.599 E3.64665
G1 X121.643 Y138.716 E3.65693
G1 X121.145 Y138.91 E3.67471
G1 X120.772 Y139.047 E3.68792
G1 X119.567 Y139.467 E3.73037
G1 X119.17 Y139.597 E3.74426
G1 X118.798 Y139.711 E3.7572
G1 X118.315 Y139.847 E3.77389
G1 X117.417 Y140.078 E3.80473
G1 X116.986 Y140.18 E3.81946
G1 X115.924 Y140.408 E3.85559
G1 X115.533 Y140.485 E3.86884
G1 X115.019 Y140.576 E3.88621
G1 X114.672 Y140.631 E3.89789
G1 X114.18 Y140.702 E3.91443
G1 X113.825 Y140.748 E3.92633
G1 X113.124 Y140.826 E3.94979
G1 X112.735 Y140.862 E3.96278
G1 X111.873 Y140.927 E3.99154
G1 X111.466 Y140.95 E4.00509
G1 X110.68 Y140.98 E4.03126
G1 X110.329 Y140.988 E4.04293
G1 X109.854 Y140.991 E4.05873
G1 X109.346 Y140.982 E4.07563
G1 X108.545 Y140.95 E4.10229
G1 X108.13 Y140.926 E4.11612
G1 X106.949 Y140.834 E4.15552
G1 X106.562 Y140.797 E4.16845
G1 X106.157 Y140.751 E4.18201
G1 X105.886 Y140.717 E4.19109
G1 X105.677 Y140.688 E4.19811
G1 X105.41 Y140.647 E4.20709
G1 X104.635 Y140.52 E4.23321
G1 X104.106 Y140.42 E4.25112
G1 X102.927 Y140.167 E4.29123
G1 X102.277 Y140.007 E4.31349
G1 X101.138 Y139.689 E4.35282
G1 X100.781 Y139.583 E4.36521
G1 X100.357 Y139.449 E4.38
G1 X99.867 Y139.281 E4.39723
G1 X98.923 Y138.933 E4.43069
G1 X98.532 Y138.78 E4.44465
G1 X97.616 Y138.402 E4.47761
G1 X97.25 Y138.244 E4.49087
G1 X96.866 Y138.069 E4.50491
G1 X96.396 Y137.84 E4.5223
G1 X95.292 Y137.272 E4.56359
G1 X94.953 Y137.091 E4.57637
G1 X94.583 Y136.884 E4.59047
G1 X94.317 Y136.73 E4.6007
G1 X93.888 Y136.474 E4.61731
G1 X93.453 Y136.2 E4.63441
G1 X92.521 Y135.583 E4.67159
G1 X92.172 Y135.343 E4.68568
G1 X91.642 Y134.962 E4.70739
G1 X91.376 Y134.764 E4.71841
G1 X90.962 Y134.447 E4.73576
G1 X90.677 Y134.221 E4.74785
G1 X90.029 Y133.69 E4.77572
G1 X89.773 Y133.474 E4.78686
G1 X89.422 Y133.168 E4.80235
G1 X89.217 Y132.985 E4.81149
G1 X88.929 Y132.721 E4.82448
G1 X88.666 Y132.472 E4.83653
G1 X88.092 Y131.91 E4.86325
G1 X87.837 Y131.651 E4.87534
G1 X87.338 Y131.129 E4.89935
G1 X87.086 Y130.856 E4.91171
G1 X86.684 Y130.406 E4.93178
G1 X86.453 Y130.14 E4.9435
G1 X86.067 Y129.679 E4.9635
G1 X85.841 Y129.4 E4.97544
G1 X85.364 Y128.791 E5.00117
G1 X85.126 Y128.476 E5.0143
G1 X84.748 Y127.956 E5.03568
G1 X84.538 Y127.656 E5.04786
G1 X84.089 Y126.993 E5.07449
G1 X83.869 Y126.655 E5.08791
G1 X83.624 Y126.263 E5.10328
G1 X83.441 Y125.959 E5.11508
G1 X82.921 Y125.064 E5.14951
G1 X82.747 Y124.753 E5.16136
G1 X82.544 Y124.376 E5.1756
G1 X82.28 Y123.852 E5.19512
G1 X81.8 Y122.834 E5.23255
G1 X81.63 Y122.458 E5.24628
G1 X81.378 Y121.867 E5.26765
G1 X81.23 Y121.501 E5.28078
G1 X80.89 Y120.617 E5.31228
G1 X80.763 Y120.268 E5.32463
G1 X80.621 Y119.858 E5.33906
G1 X80.442 Y119.293 E5.35878
G1 X80.093 Y118.077 E5.40085
G1 X79.982 Y117.66 E5.41521
G1 X79.774 Y116.811 E5.44428
G1 X79.701 Y116.491 E5.4552
G1 X79.613 Y116.079 E5.46921
G1 X79.511 Y115.539 E5.48749
G1 X79.358 Y114.594 E5.51933
G1 X79.304 Y114.213 E5.53212
G1 X79.199 Y113.381 E5.56002
G1 X79.161 Y113.037 E5.57153
G1 X79.118 Y112.581 E5.58676
G1 X79.093 Y112.273 E5.59704
G1 X79.058 Y111.743 E5.61471
G1 X79.042 Y111.436 E5.62493
G1 X79.021 Y110.884 E5.6433
G1 X79.014 Y110.594 E5.65295
G1 X79.01 Y110.251 E5.66436
G1 X79.012 Y109.867 E5.67713
G1 X79.036 Y108.836 E5.71143
G1 X79.053 Y108.425 E5.72511
G1 X79.101 Y107.635 E5.75144
G1 X79.136 Y107.199 E5.76599
G1 X79.173 Y106.846 E5.77779
G1 X79.294 Y105.855 E5.811
G1 X79.354 Y105.431 E5.82524
G1 X79.494 Y104.566 E5.85438
G1 X79.552 Y104.239 E5.86543
G1 X79.596 Y104.011 E5.87315
G1 X79.669 Y103.666 E5.88488
G1 X79.883 Y102.721 E5.91711
G1 X79.973 Y102.35 E5.92981
G1 X80.107 Y101.841 E5.94731
G1 X80.197 Y101.52 E5.9584
G1 X80.413 Y100.79 E5.98372
G1 X80.511 Y100.477 E5.99463
G1 X80.626 Y100.127 E6.00688
G1 X80.733 Y99.816 E6.01782
G1 X81.002 Y99.073 E6.0441
G1 X81.115 Y98.774 E6.05474
G1 X81.302 Y98.301 E6.07165
G1 X81.504 Y97.824 E6.08888
G1 X81.935 Y96.868 E6.12376
G1 X82.095 Y96.529 E6.13623
G1 X82.392 Y95.926 E6.15858
G1 X82.551 Y95.615 E6.1702
G1 X82.812 Y95.125 E6.18867
G1 X82.969 Y94.841 E6.19946
G1 X83.174 Y94.482 E6.21321
G1 X83.358 Y94.171 E6.22523
G1 X83.763 Y93.513 E6.25093
G1 X83.966 Y93.196 E6.26345
G1 X84.483 Y92.417 E6.29454
G1 X84.711 Y92.087 E6.30788
G1 X84.939 Y91.776 E6.32071
G1 X85.615 Y90.883 E6.35796
G1 X85.824 Y90.614 E6.36929
G1 X85.941 Y90.469 E6.37549
G1 X86.223 Y90.135 E6.39003
G1 X87.082 Y89.153 E6.43342
G1 X87.299 Y88.911 E6.44423
G1 X87.571 Y88.618 E6.45753
G1 X87.823 Y88.356 E6.46962
G1 X87.945 Y88.233 E6.47538
G0 F6000 X88.229 Y88.514
G1 F1200 X88.452 Y88.296 E6.48576
G1 X89.24 Y87.547 E6.52192
G1 X89.562 Y87.253 E6.53642
G1 X90.355 Y86.559 E6.57147
G1 X90.637 Y86.321 E6.58374
G1 X90.946 Y86.069 E6.597
G1 X91.34 Y85.759 E6.61368
G1 X91.81 Y85.404 E6.63327
G1 X91.993 Y85.27 E6.64081
G1 X92.358 Y85.008 E6.65575
G1 X92.564 Y84.863 E6.66413
G1 X92.86 Y84.661 E6.67605
G1 X93.138 Y84.478 E6.68712
G1 X93.841 Y84.03 E6.71485
G1 X94.159 Y83.835 E6.72725
G1 X94.935 Y83.378 E6.75721
G1 X95.217 Y83.218 E6.76799
G1 X95.465 Y83.082 E6.7774
G1 X95.75 Y82.931 E6.78813
G1 X96.225 Y82.689 E6.80586
G1 X96.57 Y82.521 E6.81862
G1 X97.605 Y82.04 E6.85658
G1 X97.931 Y81.896 E6.86843
G1 X98.381 Y81.705 E6.88469
G1 X98.661 Y81.59 E6.89476
G1 X99.042 Y81.441 E6.90837
G1 X99.315 Y81.339 E6.91806
G1 X99.896 Y81.13 E6.9386
G1 X100.2 Y81.025 E6.94929
G1 X100.777 Y80.837 E6.96948
G1 X101.064 Y80.749 E6.97946
G1 X101.739 Y80.55 E7.00287
G1 X102.056 Y80.461 E7.01382
G1 X102.565 Y80.328 E7.03132
G1 X103.112 Y80.201 E7.04999
G1 X104.339 Y79.949 E7.09166
G1 X104.735 Y79.875 E7.10506
G1 X105.355 Y79.772 E7.12596
G1 X105.743 Y79.715 E7.139
G1 X106.46 Y79.623 E7.16305
G1 X106.86 Y79.58 E7.17643
G1 X107.806 Y79.495 E7.20802
G1 X108.176 Y79.468 E7.22036
G1 X108.834 Y79.432 E7.24227
G1 X109.152 Y79.419 E7.25286
G1 X109.564 Y79.413 E7.26656
G1 X110.302 Y79.415 E7.29111
G1 X110.71 Y79.424 E7.30468
G1 X111.703 Y79.465 E7.33774
G1 X112.142 Y79.492 E7.35237
G1 X112.829 Y79.549 E7.3753
G1 X113.251 Y79.593 E7.38941
G1 X114.272 Y79.719 E7.42363
G1 X114.673 Y79.776 E7.4371
G1 X115.443 Y79.901 E7.46304
G1 X115.746 Y79.955 E7.47328
G1 X115.98 Y80 E7.4812
G1 X116.265 Y80.059 E7.49088
G1 X116.885 Y80.196 E7.512
G1 X117.389 Y80.32 E7.52927
G1 X118.576 Y80.644 E7.57019
G1 X118.892 Y80.736 E7.58114
G1 X119.316 Y80.866 E7.59589
G1 X119.825 Y81.036 E7.61374
G1 X120.861 Y81.412 E7.65039
G1 X121.255 Y81.564 E7.66444
G1 X122.109 Y81.913 E7.69512
G1 X122.401 Y82.037 E7.70567
G1 X122.732 Y82.184 E7.71772
G1 X123.226 Y82.419 E7.73591
G1 X124.239 Y82.933 E7.7737
G1 X124.607 Y83.129 E7.78756
G1 X125.419 Y83.582 E7.81849
G1 X125.739 Y83.768 E7.8308
G1 X126.093 Y83.982 E7.84456
G1 X126.47 Y84.22 E7.85939
G1 X127.21 Y84.711 E7.88892
G1 X127.492 Y84.906 E7.90033
G1 X127.769 Y85.103 E7.91163
G1 X128.067 Y85.322 E7.92393
G1 X129.046 Y86.071 E7.96493
G1 X129.339 Y86.304 E7.97738
G1 X129.694 Y86.596 E7.99267
G1 X130.067 Y86.918 E8.00906
G1 X130.888 Y87.66 E8.04587
G1 X131.123 Y87.878 E8.05653
G1 X131.299 Y88.047 E8.06464
G1 X131.572 Y88.319 E8.07746
G1 X132.276 Y89.046 E8.11112
G1 X132.527 Y89.315 E8.12336
G1 X132.91 Y89.739 E8.14236
G1 X133.147 Y90.01 E8.15434
G1 X133.729 Y90.7 E8.18436
G1 X133.928 Y90.943 E8.19481
G1 X134.217 Y91.307 E8.21026
G1 X134.571 Y91.78 E8.22991
G1 X135.304 Y92.817 E8.27215
G1 X135.489 Y93.087 E8.28304
G1 X135.704 Y93.412 E8.296
G1 X135.878 Y93.684 E8.30674
G1 X136.178 Y94.169 E8.32571
G1 X136.439 Y94.615 E8.34289
G1 X137.06 Y95.738 E8.38557
G1 X137.245 Y96.088 E8.39874
G1 X137.436 Y96.466 E8.41283
G1 X137.603 Y96.809 E8.42552
G1 X137.707 Y97.032 E8.4337
G1 X137.989 Y97.657 E8.45651
G1 X138.192 Y98.139 E8.4739
G1 X138.611 Y99.205 E8.512
G1 X138.761 Y99.611 E8.52639
G1 X139.012 Y100.335 E8.55188
G1 X139.145 Y100.745 E8.56621
G1 X139.384 Y101.537 E8.59373
G1 X139.504 Y101.965 E8.60851
G1 X139.76 Y102.963 E8.64278
G1 X139.85 Y103.347 E8.6559
G1 X139.961 Y103.858 E8.67329
G1 X140.028 Y104.192 E8.68462
G1 X140.114 Y104.66 E8.70045
G1 X140.181 Y105.063 E8.71404
G1 X140.367 Y106.353 E8.75739
G1 X140.413 Y106.718 E8.76962
G1 X140.452 Y107.076 E8.7816
G1 X140.495 Y107.589 E8.79872
G1 X140.552 Y108.539 E8.83038
G1 X140.567 Y108.896 E8.84226
G1 X140.587 Y109.658 E8.86761
G1 X140.591 Y109.981 E8.87836
G1 X140.589 Y110.454 E8.89409
G1 X140.573 Y111 E8.91226
G1 X140.513 Y112.075 E8.94807
G1 X140.481 Y112.489 E8.96188
G1 X140.384 Y113.507 E8.99589
G1 X140.344 Y113.863 E9.00781
G1 X140.283 Y114.334 E9.0236
G1 X140.217 Y114.776 E9.03847
G1 X140.081 Y115.564 E9.06506
G1 X139.96 Y116.159 E9.08526
G1 X139.656 Y117.468 E9.12995
G1 X139.568 Y117.822 E9.14209
G1 X139.468 Y118.194 E9.1549
G1 X139.384 Y118.486 E9.165
G1 X139.196 Y119.113 E9.18678
G1 X139.087 Y119.458 E9.19881
G1 X138.867 Y120.11 E9.2217
G1 X138.756 Y120.422 E9.23271
G1 X138.563 Y120.94 E9.2511
G1 X138.442 Y121.249 E9.26213
G1 X138.149 Y121.966 E9.2879
G1 X138.005 Y122.303 E9.30008
G1 X137.764 Y122.839 E9.31963
G1 X137.635 Y123.114 E9.32973
G1 X137.352 Y123.698 E9.35132
G1 X137.23 Y123.942 E9.36039
G1 X137.122 Y124.151 E9.36822
G1 X136.966 Y124.442 E9.3792
G1 X136.506 Y125.268 E9.41064
G1 X136.33 Y125.572 E9.42233
G1 X136.11 Y125.938 E9.43653
G1 X135.954 Y126.189 E9.44636
G1 X135.622 Y126.708 E9.46685
G1 X135.409 Y127.029 E9.47966
G1 X135.011 Y127.604 E9.50292
G1 X134.783 Y127.921 E9.51591
G1 X134.293 Y128.576 E9.54312
G1 X134.049 Y128.889 E9.55632
G1 X133.32 Y129.791 E9.59489
G1 X132.995 Y130.175 E9.61162
G1 X132.698 Y130.506 E9.62641
G1 X132.403 Y130.828 E9.64094
G1 X132.22 Y131.023 E9.64983
G1 X131.903 Y131.352 E9.66503
G1 X131.706 Y131.551 E9.67434
G1 X131.129 Y132.119 E9.70127
