;FLAVOR:Marlin
;TIME:4788
;Filament used: 1.52205m
;Layer height: 0.08
;MINX:76.51
;MINY:76.513
;MINZ:0.2
;MAXX:143.491
;MAXY:143.492
;MAXZ:4.28
;Generated with Cura_SteamEngine 4.10.0
M140 S60
M105
M190 S60
M104 S215
M105
M109 S215
M82 ;absolute extrusion mode
; Ender 3 Custom Start G-code
G92 E0 ; Reset Extruder
G28 ; Home all axes
G1 Z2.0 F3000 ; Move Z Axis up little to prevent scratching of Heat Bed
G1 X0.1 Y20 Z0.3 F5000.0 ; Move to start position
G1 X0.1 Y200.0 Z0.3 F1500.0 E15 ; Draw the first line
G1 X0.4 Y200.0 Z0.3 F5000.0 ; Move to side a little
G1 X0.4 Y20 Z0.3 F1500.0 E30 ; Draw the second line
G92 E0 ; Reset Extruder
G1 Z2.0 F3000 ; Move Z Axis up little to prevent scratching of Heat Bed
G1 X5 Y20 Z0.3 F5000.0 ; Move over to prevent blob squish
G92 E0
G92 E0
G1 F1800 E-6.5
;LAYER_COUNT:53
;LAYER:0
M107
G0 F6000 X86.197 Y86.447 Z0.2
;TYPE:SKIRT
G1 F1800 E0
G1 F1200 X86.429 Y86.22 E0.0108
G1 X87.322 Y85.373 E0.05173
G1 X87.655 Y85.07 E0.06671
G1 X88.494 Y84.337 E0.10376
G1 X88.767 Y84.106 E0.11566
G1 X89.146 Y83.796 E0.13194
G1 X89.604 Y83.442 E0.15119
G1 X90.775 Y82.583 E0.1995
G1 X91.083 Y82.365 E0.21205
G1 X91.256 Y82.247 E0.21901
G1 X91.531 Y82.065 E0.22998
G1 X92.351 Y81.541 E0.26235
G1 X92.709 Y81.321 E0.27632
G1 X93.536 Y80.836 E0.30821
G1 X93.984 Y80.585 E0.32529
G1 X94.304 Y80.415 E0.33734
G1 X94.996 Y80.062 E0.36318
G1 X95.36 Y79.885 E0.37664
G1 X96.404 Y79.4 E0.41493
G1 X96.744 Y79.249 E0.4273
G1 X97.211 Y79.051 E0.44417
G1 X97.474 Y78.943 E0.45363
G1 X98.025 Y78.726 E0.47333
G1 X98.349 Y78.605 E0.48483
G1 X99.039 Y78.358 E0.50921
G1 X99.328 Y78.258 E0.51938
G1 X99.845 Y78.089 E0.53747
G1 X100.161 Y77.992 E0.54846
G1 X100.957 Y77.758 E0.57606
G1 X101.267 Y77.671 E0.58677
G1 X101.869 Y77.513 E0.60747
G1 X102.443 Y77.379 E0.62707
G1 X103.842 Y77.091 E0.67458
G1 X104.278 Y77.01 E0.68933
G1 X104.881 Y76.911 E0.70965
G1 X105.262 Y76.856 E0.72246
G1 X106.228 Y76.732 E0.75485
G1 X106.641 Y76.686 E0.76867
G1 X107.55 Y76.604 E0.79903
G1 X107.942 Y76.576 E0.8121
G1 X108.679 Y76.536 E0.83665
G1 X108.976 Y76.524 E0.84653
G1 X109.233 Y76.517 E0.85508
G1 X109.56 Y76.513 E0.86596
G1 X110.359 Y76.515 E0.89254
G1 X110.794 Y76.525 E0.90701
G1 X111.886 Y76.571 E0.94336
G1 X112.312 Y76.597 E0.95755
G1 X113.336 Y76.68 E0.99172
G1 X113.73 Y76.719 E1.00489
G1 X114.275 Y76.783 E1.02314
G1 X114.754 Y76.85 E1.03923
G1 X115.82 Y77.023 E1.07515
G1 X116.154 Y77.083 E1.08644
G1 X116.7 Y77.189 E1.10494
G1 X116.996 Y77.25 E1.11499
G1 X117.611 Y77.387 E1.13594
G1 X118.117 Y77.513 E1.15329
G1 X119.395 Y77.862 E1.19735
G1 X119.729 Y77.959 E1.20892
G1 X120.23 Y78.113 E1.22635
G1 X120.754 Y78.288 E1.24473
G1 X121.899 Y78.704 E1.28524
G1 X122.291 Y78.855 E1.29922
G1 X123.239 Y79.241 E1.33326
G1 X123.591 Y79.392 E1.346
G1 X124.133 Y79.635 E1.36576
G1 X124.537 Y79.826 E1.38062
G1 X125.298 Y80.205 E1.4089
G1 X125.754 Y80.445 E1.42603
G1 X126.797 Y81.027 E1.46576
G1 X127.121 Y81.216 E1.47824
G1 X127.623 Y81.519 E1.49774
G1 X128.023 Y81.772 E1.51348
G1 X128.877 Y82.339 E1.54757
G1 X129.154 Y82.528 E1.55873
G1 X129.693 Y82.91 E1.5807
G1 X129.91 Y83.068 E1.58963
G1 X130.166 Y83.259 E1.60025
G1 X130.776 Y83.733 E1.62595
G1 X130.967 Y83.885 E1.63406
G1 X131.34 Y84.19 E1.65009
G1 X131.509 Y84.331 E1.65741
G1 X131.893 Y84.658 E1.67419
G1 X132.159 Y84.893 E1.68599
G1 X132.795 Y85.471 E1.71457
G1 X133.012 Y85.673 E1.72444
G1 X133.331 Y85.979 E1.73914
G1 X133.615 Y86.261 E1.75245
G1 X134.372 Y87.042 E1.78863
G1 X134.627 Y87.314 E1.80103
G1 X135.116 Y87.854 E1.82526
G1 X135.374 Y88.15 E1.83832
G1 X135.984 Y88.874 E1.8698
G1 X136.211 Y89.152 E1.88174
G1 X136.561 Y89.596 E1.90055
G1 X136.891 Y90.037 E1.91886
G1 X137.621 Y91.065 E1.9608
G1 X137.833 Y91.376 E1.97332
G1 X138.188 Y91.914 E1.99476
G1 X138.362 Y92.185 E2.00547
G1 X138.675 Y92.691 E2.02526
G1 X138.948 Y93.158 E2.04325
G1 X139.616 Y94.367 E2.08919
G1 X139.8 Y94.715 E2.10228
G1 X140.027 Y95.163 E2.11899
G1 X140.217 Y95.552 E2.13339
G1 X140.333 Y95.802 E2.14255
G1 X140.669 Y96.547 E2.16974
G1 X140.883 Y97.054 E2.18804
G1 X141.324 Y98.179 E2.22823
G1 X141.475 Y98.587 E2.2427
G1 X141.778 Y99.46 E2.27343
G1 X141.913 Y99.876 E2.28798
G1 X142.227 Y100.912 E2.32399
G1 X142.33 Y101.275 E2.33654
G1 X142.475 Y101.82 E2.35529
G1 X142.594 Y102.313 E2.37216
G1 X142.791 Y103.22 E2.40303
G1 X142.861 Y103.566 E2.41477
G1 X143.023 Y104.447 E2.44457
G1 X143.077 Y104.768 E2.45539
G1 X143.185 Y105.472 E2.47908
G1 X143.249 Y105.967 E2.49568
G1 X143.342 Y106.834 E2.52468
G1 X143.385 Y107.341 E2.54161
G1 X143.45 Y108.413 E2.57733
G1 X143.467 Y108.802 E2.59028
G1 X143.488 Y109.636 E2.61803
G1 X143.491 Y109.953 E2.62857
G1 X143.489 Y110.509 E2.64706
G1 X143.471 Y111.095 E2.66656
G1 X143.396 Y112.411 E2.7104
G1 X143.363 Y112.845 E2.72488
G1 X143.294 Y113.558 E2.74871
G1 X143.244 Y113.987 E2.76307
G1 X143.075 Y115.224 E2.8046
G1 X143.016 Y115.604 E2.81739
G1 X142.926 Y116.126 E2.835
G1 X142.805 Y116.728 E2.85543
G1 X142.491 Y118.09 E2.90192
G1 X142.394 Y118.479 E2.91525
G1 X142.258 Y118.984 E2.93265
G1 X142.164 Y119.311 E2.94396
G1 X141.907 Y120.16 E2.97347
G1 X141.799 Y120.496 E2.9852
G1 X141.634 Y120.984 E3.00234
G1 X141.528 Y121.284 E3.01292
G1 X141.296 Y121.91 E3.03512
G1 X141.153 Y122.276 E3.04819
G1 X140.749 Y123.257 E3.08348
G1 X140.623 Y123.551 E3.09412
G1 X140.432 Y123.979 E3.10971
G1 X140.285 Y124.295 E3.1213
G1 X139.965 Y124.955 E3.1457
G1 X139.818 Y125.248 E3.1566
G1 X139.571 Y125.721 E3.17435
G1 X139.425 Y125.99 E3.18453
G1 X139.041 Y126.678 E3.21073
G1 X138.876 Y126.963 E3.22169
G1 X138.62 Y127.391 E3.23827
G1 X138.438 Y127.685 E3.24977
G1 X137.978 Y128.402 E3.27811
G1 X137.755 Y128.737 E3.29149
G1 X137.373 Y129.287 E3.31376
G1 X137.157 Y129.586 E3.32603
G1 X136.501 Y130.466 E3.36254
G1 X136.294 Y130.735 E3.37383
G1 X135.911 Y131.217 E3.3943
G1 X135.564 Y131.632 E3.4123
G1 X134.704 Y132.609 E3.45559
G1 X134.525 Y132.804 E3.46439
G1 X134.363 Y132.976 E3.47225
G1 X133.972 Y133.384 E3.49105
G1 X133.748 Y133.61 E3.50163
G1 X133.221 Y134.129 E3.52623
G1 X132.805 Y134.519 E3.5452
G1 X131.871 Y135.348 E3.58673
G1 X131.541 Y135.629 E3.60115
G1 X130.699 Y136.319 E3.63736
G1 X130.402 Y136.555 E3.64997
G1 X129.916 Y136.926 E3.67031
G1 X129.518 Y137.216 E3.68669
G1 X128.748 Y137.751 E3.71787
G1 X128.335 Y138.024 E3.73434
G1 X127.489 Y138.557 E3.7676
G1 X127.159 Y138.757 E3.78043
G1 X126.532 Y139.122 E3.80456
G1 X126.227 Y139.293 E3.81619
G1 X125.57 Y139.648 E3.84103
G1 X125.268 Y139.805 E3.85235
G1 X124.749 Y140.065 E3.87166
G1 X124.418 Y140.224 E3.88387
G1 X123.57 Y140.614 E3.91491
G1 X123.265 Y140.748 E3.92599
G1 X122.885 Y140.909 E3.93972
G1 X122.589 Y141.03 E3.95036
G1 X122.004 Y141.258 E3.97124
G1 X121.621 Y141.399 E3.98481
G1 X120.338 Y141.845 E4.02999
G1 X119.977 Y141.963 E4.04262
G1 X119.531 Y142.101 E4.05815
G1 X119.005 Y142.25 E4.07633
G1 X117.961 Y142.517 E4.11218
G1 X117.556 Y142.613 E4.12602
G1 X116.411 Y142.86 E4.16498
G1 X116.007 Y142.939 E4.17867
G1 X115.453 Y143.037 E4.19738
G1 X115.11 Y143.092 E4.20894
G1 X114.418 Y143.192 E4.23219
G1 X114.066 Y143.237 E4.24399
G1 X113.448 Y143.306 E4.26468
G1 X113.045 Y143.344 E4.27814
G1 X111.919 Y143.428 E4.31569
G1 X111.518 Y143.45 E4.32905
G1 X110.754 Y143.479 E4.35448
G1 X110.433 Y143.487 E4.36516
G1 X109.86 Y143.492 E4.38422
G1 X109.324 Y143.483 E4.40205
G1 X108.375 Y143.445 E4.43364
G1 X107.958 Y143.421 E4.44753
G1 X106.743 Y143.326 E4.48807
G1 X106.359 Y143.289 E4.5009
G1 X105.857 Y143.232 E4.5177
G1 X105.61 Y143.201 E4.52598
G1 X105.317 Y143.161 E4.53582
G1 X105.019 Y143.116 E4.54584
G1 X104.168 Y142.976 E4.57452
G1 X103.653 Y142.879 E4.59195
G1 X102.447 Y142.621 E4.63297
G1 X102.108 Y142.542 E4.64455
G1 X101.833 Y142.474 E4.65397
G1 X101.509 Y142.389 E4.66511
G1 X100.462 Y142.096 E4.70128
G1 X100.135 Y141.999 E4.71262
G1 X99.596 Y141.83 E4.73141
G1 X99.1 Y141.662 E4.74883
G1 X98.069 Y141.284 E4.78535
G1 X97.676 Y141.131 E4.79938
G1 X96.656 Y140.712 E4.83605
G1 X96.311 Y140.563 E4.84855
G1 X95.828 Y140.345 E4.86618
G1 X95.315 Y140.097 E4.88513
G1 X94.102 Y139.472 E4.93051
G1 X93.774 Y139.296 E4.94289
G1 X93.366 Y139.068 E4.95844
G1 X93.111 Y138.921 E4.96823
G1 X92.534 Y138.578 E4.99055
G1 X92.078 Y138.292 E5.00846
G1 X91.203 Y137.712 E5.04337
G1 X90.872 Y137.484 E5.05674
G1 X90.145 Y136.963 E5.08649
G1 X89.852 Y136.745 E5.09864
G1 X89.356 Y136.364 E5.11944
G1 X89.089 Y136.153 E5.13076
G1 X88.422 Y135.607 E5.15943
G1 X88.161 Y135.386 E5.1708
G1 X87.872 Y135.134 E5.18355
G1 X87.657 Y134.942 E5.19314
G1 X87.113 Y134.442 E5.21772
G1 X86.853 Y134.195 E5.22964
G1 X86.27 Y133.623 E5.25681
G1 X86.009 Y133.358 E5.26918
G1 X85.466 Y132.788 E5.29536
G1 X85.235 Y132.538 E5.30669
G1 X84.859 Y132.118 E5.32543
G1 X84.635 Y131.86 E5.3368
G1 X84.123 Y131.251 E5.36326
G1 X83.878 Y130.948 E5.37622
G1 X83.304 Y130.214 E5.40721
G1 X83.069 Y129.903 E5.42018
G1 X82.761 Y129.479 E5.43761
G1 X82.553 Y129.183 E5.44964
G1 X81.98 Y128.337 E5.48363
G1 X81.761 Y128 E5.49699
G1 X81.459 Y127.517 E5.51594
G1 X81.267 Y127.197 E5.52835
G1 X80.736 Y126.28 E5.5636
G1 X80.571 Y125.985 E5.57484
G1 X80.3 Y125.482 E5.59384
G1 X80.03 Y124.947 E5.61377
G1 X79.538 Y123.901 E5.65222
G1 X79.373 Y123.533 E5.66563
G1 X79.072 Y122.827 E5.69116
G1 X78.925 Y122.463 E5.70422
G1 X78.516 Y121.4 E5.7421
G1 X78.38 Y121.027 E5.7553
G1 X78.217 Y120.553 E5.77198
G1 X78.072 Y120.108 E5.78754
G1 X77.996 Y119.859 E5.7962
G1 X77.754 Y119.034 E5.8248
G1 X77.619 Y118.533 E5.84205
G1 X77.327 Y117.33 E5.88323
G1 X77.254 Y117.005 E5.89431
G1 X77.146 Y116.493 E5.91171
G1 X77.052 Y115.993 E5.92863
G1 X76.894 Y115.024 E5.96129
G1 X76.836 Y114.622 E5.9748
G1 X76.705 Y113.577 E6.00983
G1 X76.669 Y113.243 E6.021
G1 X76.63 Y112.83 E6.0348
G1 X76.606 Y112.539 E6.04451
G1 X76.562 Y111.889 E6.06618
G1 X76.544 Y111.551 E6.07743
G1 X76.521 Y110.926 E6.09824
G1 X76.515 Y110.64 E6.10775
G1 X76.51 Y110.178 E6.12312
G1 X76.512 Y109.806 E6.13549
G1 X76.535 Y108.806 E6.16876
G1 X76.553 Y108.377 E6.18304
G1 X76.618 Y107.331 E6.2179
G1 X76.678 Y106.683 E6.23954
G1 X76.83 Y105.435 E6.28136
G1 X76.889 Y105.017 E6.2954
G1 X77.02 Y104.203 E6.32282
G1 X77.076 Y103.883 E6.33363
G1 X77.161 Y103.439 E6.34866
G1 X77.247 Y103.032 E6.3625
G1 X77.474 Y102.049 E6.39605
G1 X77.554 Y101.725 E6.40715
G1 X77.705 Y101.151 E6.42689
G1 X77.793 Y100.837 E6.43774
G1 X78.004 Y100.122 E6.46253
G1 X78.099 Y99.815 E6.47322
G1 X78.275 Y99.277 E6.49205
G1 X78.384 Y98.961 E6.50317
G1 X78.661 Y98.194 E6.53029
G1 X78.778 Y97.885 E6.54128
G1 X79.001 Y97.321 E6.56145
G1 X79.199 Y96.851 E6.57841
G1 X79.655 Y95.838 E6.61536
G1 X79.825 Y95.479 E6.62857
G1 X80.211 Y94.698 E6.65755
G1 X80.369 Y94.39 E6.66906
G1 X80.596 Y93.965 E6.68509
G1 X80.742 Y93.701 E6.69512
G1 X80.991 Y93.264 E6.71185
G1 X81.175 Y92.953 E6.72387
G1 X81.713 Y92.077 E6.75806
G1 X81.929 Y91.738 E6.77143
G1 X82.383 Y91.056 E6.79868
G1 X82.567 Y90.789 E6.80947
G1 X82.723 Y90.569 E6.81844
G1 X82.929 Y90.288 E6.83003
G1 X83.636 Y89.355 E6.86896
G1 X83.852 Y89.079 E6.88062
G1 X84.043 Y88.843 E6.89071
G1 X84.31 Y88.526 E6.9045
G1 X85.215 Y87.49 E6.95025
G1 X85.449 Y87.231 E6.96186
G1 X85.787 Y86.868 E6.97836
G1 X86.035 Y86.61 E6.99026
G1 X86.197 Y86.447 E6.99791
G0 F6000 X86.481 Y86.729
G1 F1200 X86.704 Y86.51 E7.0083
G1 X87.597 Y85.663 E7.04924
G1 X87.918 Y85.371 E7.06367
G1 X88.757 Y84.638 E7.10073
G1 X89.02 Y84.416 E7.11217
G1 X89.399 Y84.106 E7.12846
G1 X89.84 Y83.764 E7.14702
G1 X91.011 Y82.905 E7.19532
G1 X91.308 Y82.695 E7.20742
G1 X91.481 Y82.577 E7.21439
G1 X91.746 Y82.402 E7.22495
G1 X92.566 Y81.878 E7.25731
G1 X92.912 Y81.666 E7.27081
G1 X93.739 Y81.181 E7.3027
G1 X93.977 Y81.046 E7.3118
G1 X94.178 Y80.935 E7.31944
G1 X94.485 Y80.772 E7.331
G1 X95.177 Y80.419 E7.35683
G1 X95.528 Y80.248 E7.36982
G1 X96.572 Y79.763 E7.40811
G1 X96.9 Y79.617 E7.42005
G1 X97.367 Y79.419 E7.43692
G1 X97.621 Y79.315 E7.44605
G1 X98.172 Y79.098 E7.46575
G1 X98.484 Y78.981 E7.47683
G1 X99.174 Y78.734 E7.5012
G1 X99.453 Y78.639 E7.51101
G1 X99.97 Y78.47 E7.5291
G1 X100.273 Y78.375 E7.53966
G1 X101.069 Y78.141 E7.56725
G1 X101.368 Y78.058 E7.57758
G1 X101.97 Y77.9 E7.59828
G1 X102.524 Y77.771 E7.61719
G1 X103.923 Y77.483 E7.6647
G1 X104.343 Y77.405 E7.67891
G1 X104.946 Y77.306 E7.69923
G1 X105.313 Y77.252 E7.71157
G1 X106.279 Y77.128 E7.74396
G1 X106.677 Y77.085 E7.75728
G1 X107.586 Y77.003 E7.78764
G1 X107.964 Y76.976 E7.80024
G1 X108.701 Y76.936 E7.82479
G1 X108.986 Y76.924 E7.83428
G1 X109.243 Y76.917 E7.84283
G1 X109.559 Y76.913 E7.85334
G1 X110.358 Y76.915 E7.87991
G1 X110.777 Y76.924 E7.89385
G1 X111.869 Y76.97 E7.9302
G1 X112.279 Y76.996 E7.94387
G1 X113.303 Y77.079 E7.97804
G1 X113.683 Y77.116 E7.99074
G1 X114.228 Y77.18 E8.00899
G1 X114.69 Y77.245 E8.02451
G1 X115.756 Y77.418 E8.06043
G1 X116.078 Y77.475 E8.0713
G1 X116.624 Y77.581 E8.0898
G1 X116.909 Y77.641 E8.09949
G1 X117.524 Y77.778 E8.12044
G1 X118.011 Y77.898 E8.13713
G1 X119.289 Y78.247 E8.18119
G1 X119.611 Y78.341 E8.19235
G1 X120.112 Y78.495 E8.20978
G1 X120.618 Y78.664 E8.22752
G1 X121.763 Y79.08 E8.26804
G1 X122.14 Y79.226 E8.28149
G1 X123.088 Y79.612 E8.31553
G1 X123.428 Y79.757 E8.32783
G1 X123.97 Y80 E8.34758
G1 X124.358 Y80.184 E8.36186
G1 X125.119 Y80.563 E8.39014
G1 X125.559 Y80.795 E8.40668
G1 X126.602 Y81.377 E8.44641
G1 X126.915 Y81.558 E8.45844
G1 X127.417 Y81.861 E8.47794
G1 X127.802 Y82.105 E8.4931
G1 X128.656 Y82.672 E8.52719
G1 X128.922 Y82.855 E8.53793
G1 X129.461 Y83.237 E8.5599
G1 X129.671 Y83.389 E8.56853
G1 X129.927 Y83.58 E8.57915
G1 X130.114 Y83.723 E8.58698
G1 X130.53 Y84.048 E8.60454
G1 X130.714 Y84.195 E8.61237
G1 X131.087 Y84.5 E8.6284
G1 X131.633 Y84.963 E8.65221
G1 X131.89 Y85.189 E8.66359
G1 X132.526 Y85.767 E8.69217
G1 X132.735 Y85.961 E8.70166
G1 X133.054 Y86.267 E8.71636
G1 X133.327 Y86.54 E8.7292
G1 X134.084 Y87.321 E8.76538
G1 X134.33 Y87.583 E8.77733
G1 X134.819 Y88.123 E8.80156
G1 X135.068 Y88.408 E8.81415
G1 X135.678 Y89.132 E8.84564
G1 X135.897 Y89.4 E8.85715
G1 X136.247 Y89.844 E8.87595
G1 X136.565 Y90.269 E8.89361
G1 X137.295 Y91.297 E8.93554
G1 X137.499 Y91.596 E8.94758
G1 X137.854 Y92.134 E8.96902
G1 X138.022 Y92.396 E8.97937
G1 X138.335 Y92.902 E8.99916
G1 X138.598 Y93.352 E9.0165
G1 X139.266 Y94.561 E9.06244
G1 X139.443 Y94.896 E9.07504
G1 X139.766 Y95.537 E9.09891
G1 X139.857 Y95.726 E9.10589
G1 X139.969 Y95.966 E9.1147
G1 X140.305 Y96.711 E9.14188
G1 X140.511 Y97.2 E9.15953
G1 X140.952 Y98.325 E9.19972
G1 X141.097 Y98.718 E9.21365
G1 X141.4 Y99.591 E9.24439
G1 X141.53 Y99.992 E9.25841
G1 X141.844 Y101.028 E9.29441
G1 X141.944 Y101.378 E9.30652
G1 X142.089 Y101.923 E9.32528
G1 X142.203 Y102.398 E9.34152
G1 X142.4 Y103.305 E9.37239
G1 X142.467 Y103.638 E9.38369
G1 X142.629 Y104.519 E9.41348
G1 X142.681 Y104.829 E9.42394
G1 X142.789 Y105.533 E9.44763
G1 X142.852 Y106.009 E9.4636
G1 X142.945 Y106.876 E9.4926
G1 X142.986 Y107.365 E9.50892
G1 X143.051 Y108.437 E9.54464
G1 X143.067 Y108.812 E9.55713
G1 X143.088 Y109.646 E9.58487
G1 X143.091 Y109.951 E9.59502
G1 X143.089 Y110.507 E9.61351
G1 X143.072 Y111.072 E9.63231
G1 X142.997 Y112.388 E9.67615
G1 X142.965 Y112.806 E9.6901
G1 X142.896 Y113.519 E9.71392
G1 X142.847 Y113.933 E9.72779
G1 X142.678 Y115.17 E9.76931
G1 X142.622 Y115.536 E9.78163
G1 X142.532 Y116.058 E9.79925
G1 X142.415 Y116.638 E9.81892
G1 X142.101 Y118 E9.86541
G1 X142.007 Y118.375 E9.87827
G1 X141.871 Y118.88 E9.89567
G1 X141.781 Y119.195 E9.90656
G1 X141.524 Y120.044 E9.93607
G1 X141.421 Y120.368 E9.94737
G1 X141.256 Y120.856 E9.96451
G1 X141.153 Y121.145 E9.97471
G1 X140.921 Y121.771 E9.99692
G1 X140.783 Y122.123 E10.00949
G1 X140.379 Y123.104 E10.04478
G1 X140.258 Y123.388 E10.05505
G1 X140.067 Y123.816 E10.07063
G1 X139.925 Y124.12 E10.08179
G1 X139.605 Y124.78 E10.10619
G1 X139.463 Y125.063 E10.11672
G1 X139.216 Y125.536 E10.13447
G1 X139.076 Y125.795 E10.14426
G1 X138.692 Y126.483 E10.17047
G1 X138.533 Y126.758 E10.18103
G1 X138.277 Y127.186 E10.19762
G1 X138.102 Y127.469 E10.20869
G1 X137.642 Y128.186 E10.23702
G1 X137.426 Y128.509 E10.24994
G1 X137.044 Y129.059 E10.27222
G1 X136.837 Y129.347 E10.28401
G1 X136.181 Y130.227 E10.32052
G1 X135.981 Y130.486 E10.3314
