;FLAVOR:Marlin
;TIME:5855
;Filament used: 1.86848m
;Layer height: 0.08
;MINX:74.009
;MINY:74.013
;MINZ:0.2
;MAXX:145.992
;MAXY:145.992
;MAXZ:4.28
;Generated with Cura_SteamEngine 4.10.0
M140 S60
M105
M190 S60
M104 S215
M105
M109 S215
M82 ;absolute extrusion mode
; Ender 3 Custom Start G-code
G92 E0 ; Reset Extruder
G28 ; Home all axes
G1 Z2.0 F3000 ; Move Z Axis up little to prevent scratching of Heat Bed
G1 X0.1 Y20 Z0.3 F5000.0 ; Move to start position
G1 X0.1 Y200.0 Z0.3 F1500.0 E15 ; Draw the first line
G1 X0.4 Y200.0 Z0.3 F5000.0 ; Move to side a little
G1 X0.4 Y20 Z0.3 F1500.0 E30 ; Draw the second line
G92 E0 ; Reset Extruder
G1 Z2.0 F3000 ; Move Z Axis up little to prevent scratching of Heat Bed
G1 X5 Y20 Z0.3 F5000.0 ; Move over to prevent blob squish
G92 E0
G92 E0
G1 F1800 E-6.5
;LAYER_COUNT:53
;LAYER:0
M107
G0 F6000 X84.713 Y84.399 Z0.2
;TYPE:SKIRT
G1 F1800 E0
G1 F1200 X85.588 Y83.569 E0.04011
G1 X85.921 Y83.266 E0.05509
G1 X86.91 Y82.402 E0.09877
G1 X87.181 Y82.172 E0.11059
G1 X87.577 Y81.848 E0.12761
G1 X88.039 Y81.491 E0.14703
G1 X89.422 Y80.477 E0.20406
G1 X89.745 Y80.249 E0.21721
G1 X89.851 Y80.177 E0.22147
G1 X90.119 Y80.001 E0.23214
G1 X91.068 Y79.396 E0.26957
G1 X91.411 Y79.185 E0.28297
G1 X92.3 Y78.663 E0.31725
G1 X92.561 Y78.515 E0.32723
G1 X92.786 Y78.391 E0.33578
G1 X93.092 Y78.229 E0.34729
G1 X93.932 Y77.8 E0.37867
G1 X94.291 Y77.624 E0.39196
G1 X95.369 Y77.122 E0.43151
G1 X95.732 Y76.961 E0.44472
G1 X96.274 Y76.732 E0.46429
G1 X96.537 Y76.625 E0.47374
G1 X97.169 Y76.377 E0.49632
G1 X97.478 Y76.261 E0.50729
G1 X98.215 Y75.997 E0.53333
G1 X98.508 Y75.897 E0.54363
G1 X99.111 Y75.7 E0.56473
G1 X99.428 Y75.601 E0.57577
G1 X100.3 Y75.345 E0.606
G1 X100.606 Y75.261 E0.61656
G1 X101.303 Y75.078 E0.64052
G1 X101.879 Y74.943 E0.6602
G1 X103.41 Y74.628 E0.71219
G1 X103.84 Y74.548 E0.72674
G1 X104.502 Y74.439 E0.74905
G1 X104.886 Y74.383 E0.76196
G1 X105.928 Y74.249 E0.7969
G1 X106.333 Y74.204 E0.81045
G1 X107.332 Y74.113 E0.84382
G1 X107.738 Y74.084 E0.85736
G1 X108.629 Y74.036 E0.88703
G1 X108.931 Y74.024 E0.89709
G1 X109.196 Y74.017 E0.9059
G1 X109.523 Y74.013 E0.91678
G1 X110.427 Y74.016 E0.94685
G1 X110.838 Y74.025 E0.96052
G1 X111.99 Y74.072 E0.99887
G1 X112.444 Y74.1 E1.014
G1 X113.404 Y74.179 E1.04603
G1 X113.841 Y74.224 E1.06065
G1 X114.974 Y74.363 E1.09861
G1 X115.406 Y74.425 E1.11313
G1 X116.35 Y74.579 E1.14494
G1 X116.682 Y74.638 E1.15616
G1 X117.216 Y74.742 E1.17425
G1 X117.487 Y74.798 E1.18345
G1 X118.143 Y74.943 E1.2058
G1 X118.659 Y75.07 E1.22347
G1 X120.095 Y75.461 E1.27297
G1 X120.43 Y75.558 E1.28457
G1 X121.017 Y75.738 E1.305
G1 X121.552 Y75.918 E1.32377
G1 X122.822 Y76.38 E1.36872
G1 X123.213 Y76.53 E1.38265
G1 X124.224 Y76.942 E1.41896
G1 X124.567 Y77.089 E1.43137
G1 X125.063 Y77.311 E1.44944
G1 X125.547 Y77.542 E1.46728
G1 X126.814 Y78.185 E1.51454
G1 X127.197 Y78.389 E1.52897
G1 X128.082 Y78.883 E1.56268
G1 X128.393 Y79.063 E1.57463
G1 X128.928 Y79.385 E1.5954
G1 X129.338 Y79.644 E1.61153
G1 X130.298 Y80.281 E1.64985
G1 X130.595 Y80.486 E1.66185
G1 X130.949 Y80.738 E1.67631
G1 X131.256 Y80.964 E1.68899
G1 X132.471 Y81.894 E1.73988
G1 X132.714 Y82.085 E1.75016
G1 X133.005 Y82.321 E1.76262
G1 X133.271 Y82.544 E1.77416
G1 X133.537 Y82.774 E1.78586
G1 X133.736 Y82.951 E1.79472
G1 X134.572 Y83.71 E1.83227
G1 X134.836 Y83.957 E1.8443
G1 X135.1 Y84.213 E1.85653
G1 X135.333 Y84.446 E1.86749
G1 X136.212 Y85.351 E1.90945
G1 X136.484 Y85.642 E1.9227
G1 X137.035 Y86.252 E1.95004
G1 X137.277 Y86.528 E1.96225
G1 X137.863 Y87.222 E1.99246
G1 X138.068 Y87.473 E2.00324
G1 X138.452 Y87.956 E2.02376
G1 X138.717 Y88.301 E2.03823
G1 X138.895 Y88.545 E2.04827
G1 X139.661 Y89.621 E2.0922
G1 X139.879 Y89.938 E2.105
G1 X140.303 Y90.58 E2.13059
G1 X140.48 Y90.857 E2.14152
G1 X140.83 Y91.423 E2.16366
G1 X141.107 Y91.898 E2.18194
G1 X141.833 Y93.215 E2.23196
G1 X142.006 Y93.541 E2.24424
G1 X142.282 Y94.084 E2.2645
G1 X142.489 Y94.508 E2.28019
G1 X142.594 Y94.733 E2.28845
G1 X142.956 Y95.533 E2.31765
G1 X143.173 Y96.049 E2.33627
G1 X143.666 Y97.305 E2.38115
G1 X143.82 Y97.721 E2.3959
G1 X144.166 Y98.719 E2.43104
G1 X144.301 Y99.133 E2.44552
G1 X144.63 Y100.219 E2.48326
G1 X144.731 Y100.577 E2.49563
G1 X144.91 Y101.249 E2.51876
G1 X145.033 Y101.759 E2.53621
G1 X145.248 Y102.755 E2.5701
G1 X145.315 Y103.087 E2.58137
G1 X145.49 Y104.039 E2.61356
G1 X145.545 Y104.37 E2.62472
G1 X145.658 Y105.111 E2.64965
G1 X145.702 Y105.429 E2.66033
G1 X145.73 Y105.665 E2.66823
G1 X145.834 Y106.628 E2.70045
G1 X145.878 Y107.152 E2.71794
G1 X145.949 Y108.338 E2.75746
G1 X145.965 Y108.71 E2.76984
G1 X145.988 Y109.598 E2.79938
G1 X145.992 Y109.948 E2.81103
G1 X145.988 Y110.628 E2.83364
G1 X145.971 Y111.174 E2.85181
G1 X145.896 Y112.522 E2.89672
G1 X145.863 Y112.954 E2.91113
G1 X145.762 Y114.014 E2.94654
G1 X145.723 Y114.365 E2.95829
G1 X145.637 Y115.038 E2.98085
G1 X145.57 Y115.489 E2.99602
G1 X145.375 Y116.632 E3.03459
G1 X145.356 Y116.736 E3.0381
G1 X145.251 Y117.24 E3.05522
G1 X144.909 Y118.717 E3.10565
G1 X144.82 Y119.077 E3.11798
G1 X144.666 Y119.653 E3.13781
G1 X144.565 Y120.005 E3.14999
G1 X144.289 Y120.915 E3.18162
G1 X144.185 Y121.24 E3.19297
G1 X143.972 Y121.871 E3.21512
G1 X143.862 Y122.181 E3.22606
G1 X143.617 Y122.841 E3.24948
G1 X143.486 Y123.178 E3.2615
G1 X143.099 Y124.124 E3.2955
G1 X142.957 Y124.456 E3.30751
G1 X142.673 Y125.09 E3.33062
G1 X142.533 Y125.389 E3.3416
G1 X142.19 Y126.097 E3.36776
G1 X142.057 Y126.363 E3.37765
G1 X141.83 Y126.801 E3.39406
G1 X141.668 Y127.103 E3.40546
G1 X141.191 Y127.957 E3.43799
G1 X141.028 Y128.238 E3.4488
G1 X140.735 Y128.728 E3.46779
G1 X140.552 Y129.024 E3.47936
G1 X140.097 Y129.733 E3.50738
G1 X139.887 Y130.048 E3.51997
G1 X139.432 Y130.706 E3.54658
G1 X139.203 Y131.025 E3.55964
G1 X138.444 Y132.043 E3.60188
G1 X138.233 Y132.316 E3.61335
G1 X137.914 Y132.717 E3.6304
G1 X137.598 Y133.096 E3.64681
G1 X136.709 Y134.116 E3.69181
G1 X136.514 Y134.335 E3.70156
G1 X136.303 Y134.561 E3.71185
G1 X135.654 Y135.237 E3.74302
G1 X135.407 Y135.486 E3.75468
G1 X134.79 Y136.089 E3.78338
G1 X134.467 Y136.393 E3.79813
G1 X133.757 Y137.033 E3.82992
G1 X133.362 Y137.372 E3.84723
G1 X132.273 Y138.264 E3.89405
G1 X132 Y138.48 E3.90563
G1 X131.527 Y138.843 E3.92546
G1 X131.168 Y139.11 E3.94034
G1 X130.942 Y139.272 E3.94959
G1 X130.144 Y139.827 E3.98192
G1 X129.717 Y140.109 E3.99894
G1 X128.745 Y140.72 E4.03713
G1 X128.426 Y140.913 E4.04953
G1 X127.751 Y141.306 E4.07551
G1 X127.459 Y141.47 E4.08664
G1 X126.854 Y141.798 E4.10953
G1 X126.53 Y141.967 E4.12169
G1 X125.736 Y142.364 E4.15121
G1 X125.406 Y142.522 E4.16338
G1 X124.624 Y142.881 E4.192
G1 X124.318 Y143.016 E4.20313
G1 X123.781 Y143.243 E4.22252
G1 X123.496 Y143.359 E4.23275
G1 X122.909 Y143.588 E4.25371
G1 X122.529 Y143.728 E4.26718
G1 X121.102 Y144.225 E4.31744
G1 X120.729 Y144.347 E4.33049
G1 X120.214 Y144.506 E4.34842
G1 X119.701 Y144.651 E4.36615
G1 X118.297 Y145.011 E4.41435
G1 X117.965 Y145.091 E4.42571
G1 X117.312 Y145.237 E4.44797
G1 X116.826 Y145.334 E4.46445
G1 X115.881 Y145.501 E4.49637
G1 X115.539 Y145.556 E4.50789
G1 X114.777 Y145.666 E4.5335
G1 X114.434 Y145.71 E4.545
G1 X113.607 Y145.803 E4.57268
G1 X113.19 Y145.842 E4.58661
G1 X112.096 Y145.923 E4.62309
G1 X111.693 Y145.945 E4.63652
G1 X110.807 Y145.978 E4.66601
G1 X110.494 Y145.986 E4.67642
G1 X109.81 Y145.992 E4.69917
G1 X109.273 Y145.983 E4.71703
G1 X108.25 Y145.942 E4.75109
G1 X107.833 Y145.917 E4.76498
G1 X106.478 Y145.811 E4.81019
G1 X106.091 Y145.774 E4.82312
G1 X105.538 Y145.711 E4.84163
G1 X105.302 Y145.682 E4.84954
G1 X104.956 Y145.635 E4.86115
G1 X104.658 Y145.59 E4.87118
G1 X103.7 Y145.433 E4.90346
G1 X103.168 Y145.333 E4.92147
G1 X101.851 Y145.05 E4.96627
G1 X101.535 Y144.977 E4.97706
G1 X101.287 Y144.916 E4.98555
G1 X100.949 Y144.827 E4.99718
G1 X99.713 Y144.481 E5.03987
G1 X99.371 Y144.379 E5.05174
G1 X98.708 Y144.17 E5.07486
G1 X98.215 Y144.002 E5.09218
G1 X97.191 Y143.625 E5.12848
G1 X96.816 Y143.479 E5.14186
G1 X95.668 Y143.008 E5.18313
G1 X95.319 Y142.858 E5.19577
G1 X94.745 Y142.599 E5.21671
G1 X94.246 Y142.358 E5.23514
G1 X93.005 Y141.721 E5.28154
G1 X92.677 Y141.545 E5.29392
G1 X92.07 Y141.207 E5.31703
G1 X91.781 Y141.041 E5.32811
G1 X91.215 Y140.703 E5.35004
G1 X90.79 Y140.436 E5.36673
G1 X89.811 Y139.789 E5.40576
G1 X89.481 Y139.562 E5.41908
G1 X88.728 Y139.024 E5.44986
G1 X88.443 Y138.813 E5.46166
G1 X87.87 Y138.375 E5.48565
G1 X87.581 Y138.147 E5.49789
G1 X86.786 Y137.496 E5.53207
G1 X86.526 Y137.276 E5.54339
G1 X86.12 Y136.922 E5.56131
G1 X85.928 Y136.75 E5.56988
G1 X85.544 Y136.399 E5.58719
G1 X85.261 Y136.131 E5.60015
G1 X84.459 Y135.344 E5.63752
G1 X84.205 Y135.088 E5.64952
G1 X83.64 Y134.496 E5.67673
G1 X83.41 Y134.246 E5.68803
G1 X82.983 Y133.77 E5.7093
G1 X82.748 Y133.5 E5.72121
G1 X82.186 Y132.831 E5.75027
G1 X81.952 Y132.542 E5.76264
G1 X81.368 Y131.797 E5.79412
G1 X81.139 Y131.494 E5.80675
G1 X80.683 Y130.869 E5.83248
G1 X80.448 Y130.535 E5.84607
G1 X79.813 Y129.593 E5.88385
G1 X79.627 Y129.308 E5.89517
G1 X79.472 Y129.062 E5.90484
G1 X79.275 Y128.736 E5.91751
G1 X78.549 Y127.49 E5.96548
G1 X78.365 Y127.162 E5.97798
G1 X78.073 Y126.619 E5.99849
G1 X77.809 Y126.095 E6.018
G1 X77.226 Y124.857 E6.06352
G1 X77.062 Y124.491 E6.07686
G1 X76.787 Y123.847 E6.10015
G1 X76.638 Y123.479 E6.11335
G1 X76.171 Y122.266 E6.15658
G1 X76.037 Y121.899 E6.16958
G1 X75.845 Y121.342 E6.18917
G1 X75.724 Y120.974 E6.20206
G1 X75.639 Y120.702 E6.21154
G1 X75.355 Y119.739 E6.24493
G1 X75.224 Y119.251 E6.26174
G1 X74.915 Y117.993 E6.30482
G1 X74.837 Y117.656 E6.31633
G1 X74.695 Y116.988 E6.33904
G1 X74.599 Y116.477 E6.35633
G1 X74.42 Y115.383 E6.3932
G1 X74.363 Y114.985 E6.40658
G1 X74.224 Y113.884 E6.44349
G1 X74.186 Y113.543 E6.4549
G1 X74.129 Y112.941 E6.47501
G1 X74.104 Y112.623 E6.48562
G1 X74.067 Y112.058 E6.50445
G1 X74.051 Y111.757 E6.51448
G1 X74.022 Y110.995 E6.53984
G1 X74.014 Y110.681 E6.55029
G1 X74.009 Y110.153 E6.56785
G1 X74.012 Y109.797 E6.57969
G1 X74.038 Y108.664 E6.61738
G1 X74.054 Y108.267 E6.6306
G1 X74.106 Y107.387 E6.65992
G1 X74.13 Y107.059 E6.67086
G1 X74.167 Y106.644 E6.68472
G1 X74.206 Y106.28 E6.69689
G1 X74.352 Y105.091 E6.73673
G1 X74.408 Y104.696 E6.75
G1 X74.549 Y103.814 E6.77971
G1 X74.615 Y103.442 E6.79228
G1 X74.722 Y102.894 E6.81085
G1 X74.791 Y102.567 E6.82196
G1 X75.025 Y101.536 E6.85713
G1 X75.116 Y101.166 E6.8698
G1 X75.299 Y100.472 E6.89367
G1 X75.388 Y100.151 E6.90475
G1 X75.634 Y99.321 E6.93354
G1 X75.728 Y99.023 E6.94394
G1 X75.88 Y98.559 E6.96018
G1 X75.989 Y98.24 E6.97139
G1 X76.281 Y97.433 E6.99993
G1 X76.43 Y97.046 E7.01373
G1 X76.893 Y95.903 E7.05474
G1 X77.055 Y95.524 E7.06845
G1 X77.379 Y94.803 E7.09474
G1 X77.545 Y94.45 E7.10772
G1 X77.952 Y93.624 E7.13834
G1 X78.122 Y93.293 E7.15072
G1 X78.454 Y92.673 E7.17411
G1 X78.599 Y92.411 E7.18407
G1 X78.86 Y91.954 E7.20158
G1 X79.041 Y91.649 E7.21337
G1 X79.588 Y90.759 E7.24812
G1 X79.797 Y90.431 E7.26105
G1 X80.316 Y89.65 E7.29224
G1 X80.496 Y89.388 E7.30281
G1 X80.701 Y89.098 E7.31463
G1 X80.921 Y88.797 E7.32703
G1 X81.652 Y87.834 E7.36724
G1 X81.868 Y87.559 E7.37887
G1 X82.176 Y87.179 E7.39514
G1 X82.438 Y86.868 E7.40866
G1 X83.26 Y85.927 E7.45022
G1 X83.539 Y85.619 E7.46404
G1 X84.278 Y84.835 E7.49988
G1 X84.713 Y84.399 E7.52036
G0 F6000 X84.988 Y84.69
G1 F1200 X85.863 Y83.86 E7.56047
G1 X86.184 Y83.567 E7.57493
G1 X87.173 Y82.703 E7.61861
G1 X87.435 Y82.482 E7.63001
G1 X87.831 Y82.158 E7.64703
G1 X88.275 Y81.814 E7.66571
G1 X89.658 Y80.8 E7.72275
G1 X89.97 Y80.58 E7.73544
G1 X90.334 Y80.338 E7.74998
G1 X91.283 Y79.733 E7.78741
G1 X91.614 Y79.53 E7.80033
G1 X92.503 Y79.008 E7.83462
G1 X92.754 Y78.865 E7.84423
G1 X92.979 Y78.741 E7.85277
G1 X93.274 Y78.585 E7.86387
G1 X94.114 Y78.156 E7.89524
G1 X94.46 Y77.987 E7.90805
G1 X95.538 Y77.485 E7.9476
G1 X95.888 Y77.33 E7.96033
G1 X96.43 Y77.101 E7.9799
G1 X96.683 Y76.998 E7.98899
G1 X97.315 Y76.75 E8.01157
G1 X97.612 Y76.638 E8.02212
G1 X98.349 Y76.374 E8.04816
G1 X98.632 Y76.277 E8.05811
G1 X99.235 Y76.08 E8.07921
G1 X99.541 Y75.985 E8.08987
G1 X100.413 Y75.729 E8.1201
G1 X100.707 Y75.647 E8.13025
G1 X101.404 Y75.464 E8.15421
G1 X101.96 Y75.334 E8.17321
G1 X103.491 Y75.019 E8.22519
G1 X103.905 Y74.943 E8.23919
G1 X104.567 Y74.834 E8.26151
G1 X104.937 Y74.78 E8.27395
G1 X105.979 Y74.646 E8.30889
G1 X106.369 Y74.603 E8.32194
G1 X107.368 Y74.512 E8.3553
G1 X107.76 Y74.483 E8.36838
G1 X108.651 Y74.435 E8.39805
G1 X108.941 Y74.424 E8.40771
G1 X109.206 Y74.417 E8.41652
G1 X109.521 Y74.413 E8.427
G1 X110.425 Y74.416 E8.45707
G1 X110.822 Y74.425 E8.47028
G1 X111.974 Y74.472 E8.50862
G1 X112.411 Y74.499 E8.52319
G1 X113.371 Y74.578 E8.55522
G1 X113.793 Y74.621 E8.56933
G1 X114.926 Y74.76 E8.6073
G1 X115.342 Y74.819 E8.62127
G1 X116.286 Y74.973 E8.65309
G1 X116.605 Y75.03 E8.66386
G1 X117.139 Y75.134 E8.68196
G1 X117.401 Y75.189 E8.69086
G1 X118.057 Y75.334 E8.71321
G1 X118.554 Y75.456 E8.73023
G1 X119.99 Y75.847 E8.77973
G1 X120.313 Y75.941 E8.79092
G1 X120.9 Y76.121 E8.81134
G1 X121.416 Y76.294 E8.82944
G1 X122.686 Y76.756 E8.87439
G1 X123.062 Y76.901 E8.88779
G1 X124.073 Y77.313 E8.9241
G1 X124.403 Y77.454 E8.93604
G1 X124.899 Y77.676 E8.95411
G1 X125.366 Y77.899 E8.97132
G1 X126.633 Y78.542 E9.01858
G1 X127.002 Y78.738 E9.03248
G1 X127.887 Y79.232 E9.06619
G1 X128.187 Y79.406 E9.07772
G1 X128.722 Y79.728 E9.09849
G1 X129.117 Y79.978 E9.11404
G1 X130.077 Y80.615 E9.15236
G1 X130.363 Y80.812 E9.16391
G1 X130.717 Y81.064 E9.17836
G1 X131.013 Y81.282 E9.19059
G1 X132.228 Y82.212 E9.24148
G1 X132.462 Y82.396 E9.25138
G1 X132.753 Y82.632 E9.26384
G1 X133.009 Y82.847 E9.27496
G1 X133.275 Y83.077 E9.28666
G1 X133.467 Y83.247 E9.29519
G1 X134.303 Y84.006 E9.33274
G1 X134.557 Y84.244 E9.34432
G1 X134.821 Y84.5 E9.35655
G1 X135.046 Y84.725 E9.36713
G1 X135.925 Y85.63 E9.4091
G1 X136.187 Y85.91 E9.42185
G1 X136.738 Y86.52 E9.44919
G1 X136.971 Y86.786 E9.46095
G1 X137.557 Y87.48 E9.49116
G1 X137.755 Y87.722 E9.50156
G1 X138.139 Y88.205 E9.52208
G1 X138.397 Y88.542 E9.5362
G1 X138.569 Y88.777 E9.54589
G1 X139.335 Y89.853 E9.58982
G1 X139.545 Y90.158 E9.60213
G1 X139.969 Y90.8 E9.62772
G1 X140.14 Y91.067 E9.63827
G1 X140.49 Y91.633 E9.6604
G1 X140.757 Y92.091 E9.67804
G1 X141.483 Y93.408 E9.72805
G1 X141.649 Y93.722 E9.73987
G1 X141.925 Y94.265 E9.76013
G1 X142.128 Y94.681 E9.77552
G1 X142.229 Y94.898 E9.78348
G1 X142.591 Y95.698 E9.81269
G1 X142.801 Y96.195 E9.83063
G1 X143.294 Y97.451 E9.87551
G1 X143.442 Y97.852 E9.88973
G1 X143.788 Y98.85 E9.92486
G1 X143.918 Y99.249 E9.93882
G1 X144.247 Y100.335 E9.97656
G1 X144.345 Y100.68 E9.98849
G1 X144.524 Y101.352 E10.01162
G1 X144.642 Y101.843 E10.02841
G1 X144.857 Y102.839 E10.0623
G1 X144.921 Y103.16 E10.07319
G1 X145.096 Y104.112 E10.10538
G1 X145.15 Y104.43 E10.11611
G1 X145.263 Y105.171 E10.14104
G1 X145.306 Y105.481 E10.15145
G1 X145.333 Y105.708 E10.15906
G1 X145.437 Y106.671 E10.19127
G1 X145.479 Y107.176 E10.20813
G1 X145.55 Y108.362 E10.24764
G1 X145.565 Y108.721 E10.25959
G1 X145.588 Y109.609 E10.28914
G1 X145.592 Y109.945 E10.30031
G1 X145.588 Y110.625 E10.32293
G1 X145.572 Y111.152 E10.34047
G1 X145.497 Y112.5 E10.38537
G1 X145.465 Y112.916 E10.39925
G1 X145.364 Y113.976 E10.43466
G1 X145.327 Y114.315 E10.44601
G1 X145.241 Y114.988 E10.46857
G1 X145.176 Y115.422 E10.48317
G1 X144.981 Y116.56 E10.52157
G1 X144.962 Y116.664 E10.52509
G1 X144.862 Y117.15 E10.54159
G1 X144.52 Y118.627 E10.59202
G1 X144.433 Y118.974 E10.60391
G1 X144.279 Y119.55 E10.62374
G1 X144.183 Y119.889 E10.63546
G1 X143.907 Y120.799 E10.66709
G1 X143.806 Y121.112 E10.67803
G1 X143.593 Y121.743 E10.70018
G1 X143.487 Y122.042 E10.71073
G1 X143.242 Y122.702 E10.73415
G1 X143.116 Y123.027 E10.74574
G1 X142.729 Y123.973 E10.77974
G1 X142.592 Y124.292 E10.79128
G1 X142.308 Y124.926 E10.81439
G1 X142.173 Y125.215 E10.825
G1 X141.83 Y125.923 E10.85116
G1 X141.702 Y126.178 E10.86065
G1 X141.475 Y126.616 E10.87706
G1 X141.318 Y126.908 E10.88809
G1 X140.841 Y127.762 E10.92062
G1 X140.685 Y128.033 E10.93102
G1 X140.392 Y128.523 E10.95001
G1 X140.215 Y128.808 E10.96117
G1 X139.76 Y129.517 E10.98919
