;FLAVOR:Marlin
;TIME:12039
;Filament used: 10.015m
;Layer height: 0.2
;MINX:49.011
;MINY:49.011
;MINZ:0.2
;MAXX:170.989
;MAXY:170.989
;MAXZ:11
;Generated with Cura_SteamEngine 4.10.0
M140 S60
M105
M190 S60
M104 S200
M105
M109 S200
M82 ;absolute extrusion mode
; Ender 3 Custom Start G-code
G92 E0 ; Reset Extruder
G28 ; Home all axes
G1 Z2.0 F3000 ; Move Z Axis up little to prevent scratching of Heat Bed
G1 X0.1 Y20 Z0.3 F5000.0 ; Move to start position
G1 X0.1 Y200.0 Z0.3 F1500.0 E15 ; Draw the first line
G1 X0.4 Y200.0 Z0.3 F5000.0 ; Move to side a little
G1 X0.4 Y20 Z0.3 F1500.0 E30 ; Draw the second line
G92 E0 ; Reset Extruder
G1 Z2.0 F3000 ; Move Z Axis up little to prevent scratching of Heat Bed
G1 X5 Y20 Z0.3 F5000.0 ; Move over to prevent blob squish
G92 E0
G92 E0
G1 F1500 E-6.5
;LAYER_COUNT:55
;LAYER:0
M107
G0 F6000 X66.788 Y66.961 Z0.2
;TYPE:SKIRT
G1 F1500 E0
G1 F1200 X66.999 Y66.75 E0.00992
G1 X67.587 Y66.18 E0.03716
G1 X68.748 Y65.083 E0.09029
G1 X69.234 Y64.636 E0.11225
G1 X69.473 Y64.422 E0.12292
G1 X70.016 Y63.951 E0.14683
G1 X71.321 Y62.849 E0.20364
G1 X71.869 Y62.4 E0.2272
G1 X72.1 Y62.217 E0.237
G1 X72.775 Y61.694 E0.2654
G1 X74.021 Y60.758 E0.31724
G1 X74.571 Y60.356 E0.3399
G1 X74.828 Y60.174 E0.35037
G1 X75.559 Y59.672 E0.37986
G1 X76.703 Y58.907 E0.42564
G1 X77.432 Y58.434 E0.45454
G1 X77.705 Y58.262 E0.46527
G1 X78.406 Y57.837 E0.49254
G1 X79.617 Y57.123 E0.5393
G1 X80.38 Y56.687 E0.56852
G1 X80.65 Y56.538 E0.57878
G1 X81.383 Y56.147 E0.60641
G1 X82.756 Y55.439 E0.65779
G1 X83.414 Y55.111 E0.68225
G1 X83.691 Y54.978 E0.69247
G1 X84.467 Y54.619 E0.7209
G1 X85.834 Y54.008 E0.77071
G1 X86.545 Y53.702 E0.79645
G1 X86.823 Y53.587 E0.80646
G1 X87.593 Y53.281 E0.83402
G1 X88.852 Y52.8 E0.87884
G1 X89.756 Y52.469 E0.91086
G1 X90.054 Y52.364 E0.92137
G1 X90.654 Y52.164 E0.94241
G1 X92.277 Y51.647 E0.99906
G1 X93.002 Y51.427 E1.02426
G1 X93.306 Y51.339 E1.03478
G1 X94.036 Y51.142 E1.05993
G1 X95.659 Y50.725 E1.11567
G1 X96.286 Y50.573 E1.13713
G1 X96.582 Y50.505 E1.14723
G1 X97.38 Y50.336 E1.17436
G1 X98.903 Y50.033 E1.22601
G1 X99.65 Y49.895 E1.25127
G1 X99.971 Y49.841 E1.2621
G1 X100.782 Y49.716 E1.28939
G1 X102.277 Y49.506 E1.3396
G1 X103.039 Y49.409 E1.36515
G1 X103.364 Y49.373 E1.37603
G1 X104.171 Y49.295 E1.40299
G1 X105.712 Y49.166 E1.45443
G1 X106.453 Y49.114 E1.47913
G1 X106.775 Y49.096 E1.48986
G1 X107.569 Y49.065 E1.51629
G1 X109.123 Y49.021 E1.56799
G1 X109.848 Y49.011 E1.59211
G1 X110.166 Y49.011 E1.60269
G1 X111.04 Y49.025 E1.63176
G1 X112.569 Y49.069 E1.68264
G1 X113.25 Y49.097 E1.7053
G1 X113.576 Y49.116 E1.71617
G1 X114.435 Y49.177 E1.74481
G1 X115.82 Y49.293 E1.79104
G1 X116.673 Y49.377 E1.81954
G1 X116.969 Y49.41 E1.82945
G1 X117.854 Y49.523 E1.85912
G1 X119.368 Y49.738 E1.90998
G1 X120.051 Y49.844 E1.93297
G1 X120.361 Y49.897 E1.94343
G1 X121.232 Y50.059 E1.9729
G1 X122.719 Y50.356 E2.02333
G1 X123.409 Y50.502 E2.04679
G1 X123.754 Y50.581 E2.05856
G1 X124.54 Y50.775 E2.08549
G1 X126.099 Y51.178 E2.13905
G1 X126.726 Y51.349 E2.16066
G1 X127.027 Y51.435 E2.17108
G1 X127.834 Y51.681 E2.19914
G1 X129.226 Y52.125 E2.24773
G1 X130.008 Y52.386 E2.27515
G1 X130.297 Y52.487 E2.28533
G1 X131.054 Y52.765 E2.31216
G1 X132.517 Y53.325 E2.36426
G1 X133.208 Y53.6 E2.38899
G1 X133.491 Y53.717 E2.39918
G1 X134.283 Y54.059 E2.42787
G1 X135.678 Y54.685 E2.47873
G1 X136.336 Y54.991 E2.50286
G1 X136.611 Y55.123 E2.51301
G1 X137.379 Y55.508 E2.54158
G1 X138.729 Y56.206 E2.59213
G1 X139.374 Y56.551 E2.61646
G1 X139.635 Y56.696 E2.62639
G1 X140.393 Y57.129 E2.65543
G1 X141.706 Y57.905 E2.70615
G1 X142.331 Y58.286 E2.7305
G1 X142.588 Y58.447 E2.74059
G1 X143.31 Y58.917 E2.76924
G1 X144.584 Y59.769 E2.82021
G1 X145.189 Y60.186 E2.84465
G1 X145.435 Y60.361 E2.85469
G1 X146.084 Y60.836 E2.88144
G1 X147.361 Y61.798 E2.93462
G1 X147.893 Y62.21 E2.957
G1 X148.14 Y62.407 E2.96751
G1 X148.818 Y62.965 E2.99671
G1 X149.889 Y63.87 E3.04335
G1 X150.542 Y64.437 E3.07211
G1 X150.775 Y64.645 E3.0825
G1 X151.356 Y65.181 E3.10879
G1 X152.504 Y66.267 E3.16135
G1 X153.039 Y66.788 E3.18619
G1 X153.25 Y66.999 E3.19612
G1 X153.82 Y67.587 E3.22335
G1 X154.917 Y68.748 E3.27648
G1 X155.364 Y69.234 E3.29844
G1 X155.578 Y69.473 E3.30911
G1 X156.049 Y70.016 E3.33302
G1 X157.148 Y71.318 E3.38969
G1 X157.59 Y71.857 E3.41287
G1 X157.776 Y72.091 E3.42282
G1 X158.306 Y72.775 E3.4516
G1 X159.242 Y74.021 E3.50343
G1 X159.644 Y74.571 E3.52609
G1 X159.826 Y74.828 E3.53656
G1 X160.328 Y75.559 E3.56606
G1 X161.178 Y76.832 E3.61697
G1 X161.56 Y77.421 E3.64032
G1 X161.732 Y77.696 E3.6511
G1 X162.163 Y78.406 E3.67873
G1 X162.877 Y79.617 E3.72549
G1 X163.313 Y80.381 E3.75474
G1 X163.458 Y80.642 E3.76468
G1 X163.854 Y81.384 E3.79265
G1 X164.547 Y82.729 E3.84297
G1 X164.876 Y83.387 E3.86744
G1 X165.015 Y83.675 E3.87808
G1 X165.381 Y84.467 E3.9071
G1 X165.989 Y85.828 E3.95668
G1 X166.283 Y86.51 E3.98138
G1 X166.398 Y86.788 E3.99138
G1 X166.719 Y87.593 E4.02021
G1 X167.254 Y88.997 E4.07018
G1 X167.53 Y89.751 E4.09689
G1 X167.637 Y90.059 E4.10773
G1 X167.879 Y90.789 E4.13331
G1 X168.352 Y92.273 E4.18511
G1 X168.572 Y92.997 E4.21028
G1 X168.662 Y93.31 E4.22111
G1 X168.858 Y94.036 E4.24612
G1 X169.275 Y95.656 E4.30176
G1 X169.426 Y96.278 E4.32305
G1 X169.494 Y96.578 E4.33328
G1 X169.664 Y97.38 E4.36055
G1 X169.968 Y98.907 E4.41233
G1 X170.104 Y99.645 E4.43729
G1 X170.156 Y99.952 E4.44765
G1 X170.284 Y100.782 E4.47558
G1 X170.495 Y102.284 E4.52603
G1 X170.591 Y103.042 E4.55144
G1 X170.625 Y103.349 E4.56172
G1 X170.706 Y104.18 E4.58949
G1 X170.833 Y105.699 E4.64018
G1 X170.884 Y106.428 E4.66449
G1 X170.901 Y106.73 E4.67455
G1 X170.937 Y107.592 E4.70325
G1 X170.979 Y109.123 E4.75419
G1 X170.989 Y109.835 E4.77787
G1 X170.989 Y110.152 E4.78841
G1 X170.975 Y111.042 E4.81802
G1 X170.931 Y112.569 E4.86883
G1 X170.903 Y113.25 E4.8915
G1 X170.884 Y113.576 E4.90236
G1 X170.823 Y114.435 E4.931
G1 X170.707 Y115.82 E4.97723
G1 X170.623 Y116.673 E5.00574
G1 X170.59 Y116.969 E5.01564
G1 X170.477 Y117.854 E5.04532
G1 X170.26 Y119.38 E5.09658
G1 X170.154 Y120.058 E5.11941
G1 X170.106 Y120.343 E5.12902
G1 X169.974 Y121.063 E5.15336
G1 X169.643 Y122.723 E5.20966
G1 X169.498 Y123.407 E5.23292
G1 X169.422 Y123.741 E5.24431
G1 X169.225 Y124.54 E5.27168
G1 X168.822 Y126.099 E5.32524
G1 X168.651 Y126.726 E5.34686
G1 X168.565 Y127.027 E5.35727
G1 X168.319 Y127.834 E5.38533
G1 X167.826 Y129.376 E5.43917
G1 X167.615 Y130.006 E5.46127
G1 X167.518 Y130.282 E5.471
G1 X167.235 Y131.054 E5.49835
G1 X166.676 Y132.515 E5.55038
G1 X166.404 Y133.199 E5.57486
G1 X166.286 Y133.484 E5.58512
G1 X165.941 Y134.283 E5.61406
G1 X165.313 Y135.683 E5.6651
G1 X165.009 Y136.336 E5.68906
G1 X164.882 Y136.6 E5.6988
G1 X164.492 Y137.379 E5.72778
G1 X163.797 Y138.724 E5.77813
G1 X163.453 Y139.368 E5.80241
G1 X163.303 Y139.639 E5.81272
G1 X162.871 Y140.393 E5.84162
G1 X162.178 Y141.568 E5.88699
G1 X161.713 Y142.331 E5.91671
G1 X161.559 Y142.577 E5.92636
G1 X161.083 Y143.31 E5.95543
G1 X160.234 Y144.58 E6.00624
G1 X159.827 Y145.171 E6.03011
G1 X159.651 Y145.418 E6.04019
G1 X159.164 Y146.084 E6.06764
G1 X158.2 Y147.364 E6.12093
G1 X157.787 Y147.897 E6.14336
G1 X157.593 Y148.14 E6.1537
G1 X157.035 Y148.818 E6.18291
G1 X156.023 Y150.014 E6.23502
G1 X155.564 Y150.541 E6.25826
G1 X155.373 Y150.754 E6.26778
G1 X154.819 Y151.356 E6.29499
G1 X153.735 Y152.502 E6.34745
G1 X153.224 Y153.027 E6.37182
G1 X153.013 Y153.238 E6.38174
G1 X152.413 Y153.82 E6.40955
G1 X151.252 Y154.917 E6.46267
G1 X150.766 Y155.364 E6.48463
G1 X150.527 Y155.578 E6.4953
G1 X149.984 Y156.049 E6.51921
G1 X148.682 Y157.148 E6.57588
G1 X148.143 Y157.59 E6.59907
G1 X147.909 Y157.776 E6.60901
G1 X147.225 Y158.306 E6.63779
G1 X145.979 Y159.242 E6.68962
G1 X145.429 Y159.644 E6.71228
G1 X145.172 Y159.826 E6.72275
G1 X144.441 Y160.328 E6.75225
G1 X143.168 Y161.178 E6.80316
G1 X142.579 Y161.56 E6.82651
G1 X142.304 Y161.732 E6.8373
G1 X141.594 Y162.163 E6.86492
G1 X140.383 Y162.877 E6.91168
G1 X139.619 Y163.313 E6.94094
G1 X139.358 Y163.458 E6.95087
G1 X138.617 Y163.853 E6.9788
G1 X137.244 Y164.561 E7.03018
G1 X136.586 Y164.889 E7.05463
G1 X136.309 Y165.022 E7.06485
G1 X135.533 Y165.381 E7.09329
G1 X134.166 Y165.992 E7.14309
G1 X133.455 Y166.298 E7.16883
G1 X133.177 Y166.413 E7.17884
G1 X132.407 Y166.719 E7.2064
G1 X131.148 Y167.2 E7.25123
G1 X130.244 Y167.531 E7.28325
G1 X129.946 Y167.636 E7.29375
G1 X129.346 Y167.836 E7.31479
G1 X127.722 Y168.353 E7.37147
G1 X127 Y168.572 E7.39657
G1 X126.7 Y168.659 E7.40696
G1 X125.964 Y168.858 E7.43232
G1 X124.341 Y169.275 E7.48805
G1 X123.714 Y169.427 E7.50951
G1 X123.418 Y169.495 E7.51961
G1 X122.62 Y169.664 E7.54674
G1 X121.097 Y169.967 E7.59839
G1 X120.35 Y170.105 E7.62365
G1 X120.029 Y170.159 E7.63448
G1 X119.218 Y170.284 E7.66177
G1 X117.874 Y170.474 E7.70692
G1 X116.955 Y170.591 E7.73773
G1 X116.652 Y170.625 E7.74787
G1 X115.82 Y170.706 E7.77568
G1 X114.29 Y170.834 E7.82674
G1 X113.536 Y170.886 E7.85188
G1 X113.246 Y170.902 E7.86154
G1 X112.408 Y170.937 E7.88944
G1 X110.875 Y170.979 E7.94044
G1 X110.153 Y170.989 E7.96446
G1 X109.836 Y170.989 E7.975
G1 X108.958 Y170.975 E8.00421
G1 X107.431 Y170.931 E8.05502
G1 X106.75 Y170.903 E8.07769
G1 X106.424 Y170.884 E8.08855
G1 X105.565 Y170.823 E8.11719
G1 X104.18 Y170.707 E8.16342
G1 X103.327 Y170.623 E8.19193
G1 X103.031 Y170.59 E8.20183
G1 X102.146 Y170.477 E8.23151
G1 X100.632 Y170.262 E8.28237
G1 X99.949 Y170.156 E8.30536
G1 X99.639 Y170.103 E8.31582
G1 X98.768 Y169.941 E8.34528
G1 X97.281 Y169.644 E8.39572
G1 X96.591 Y169.498 E8.41918
G1 X96.246 Y169.419 E8.43095
G1 X95.46 Y169.225 E8.45787
G1 X93.901 Y168.822 E8.51143
G1 X93.274 Y168.651 E8.53305
G1 X92.973 Y168.565 E8.54346
G1 X92.166 Y168.319 E8.57152
G1 X90.774 Y167.875 E8.62012
G1 X89.992 Y167.614 E8.64754
G1 X89.703 Y167.513 E8.65772
G1 X88.946 Y167.235 E8.68454
G1 X87.483 Y166.675 E8.73664
G1 X86.792 Y166.4 E8.76138
G1 X86.509 Y166.283 E8.77156
G1 X85.717 Y165.941 E8.80026
G1 X84.322 Y165.315 E8.85111
G1 X83.664 Y165.009 E8.87525
G1 X83.389 Y164.877 E8.88539
G1 X82.621 Y164.492 E8.91397
G1 X81.271 Y163.794 E8.96451
G1 X80.626 Y163.449 E8.98884
G1 X80.365 Y163.304 E8.99877
G1 X79.607 Y162.871 E9.02781
G1 X78.294 Y162.095 E9.07854
G1 X77.669 Y161.714 E9.10288
G1 X77.412 Y161.553 E9.11297
G1 X76.69 Y161.083 E9.14162
G1 X75.413 Y160.229 E9.19272
G1 X74.807 Y159.811 E9.2172
G1 X74.567 Y159.64 E9.227
G1 X73.916 Y159.164 E9.25383
G1 X72.763 Y158.297 E9.30181
G1 X72.1 Y157.784 E9.32969
G1 X71.861 Y157.594 E9.33985
G1 X71.182 Y157.035 E9.3691
G1 X70.111 Y156.13 E9.41573
G1 X69.458 Y155.563 E9.4445
G1 X69.225 Y155.355 E9.45489
G1 X68.644 Y154.819 E9.48118
G1 X67.496 Y153.733 E9.53374
G1 X66.961 Y153.212 E9.55858
G1 X66.75 Y153.001 E9.5685
G1 X66.18 Y152.413 E9.59574
G1 X65.084 Y151.253 E9.64882
G1 X64.635 Y150.765 E9.67087
G1 X64.418 Y150.522 E9.68171
G1 X63.858 Y149.874 E9.71019
G1 X62.854 Y148.684 E9.76198
G1 X62.411 Y148.144 E9.78521
G1 X62.217 Y147.901 E9.79555
G1 X61.701 Y147.233 E9.82363
G1 X60.756 Y145.975 E9.87596
G1 X60.34 Y145.405 E9.89943
G1 X60.164 Y145.157 E9.90954
G1 X59.689 Y144.465 E9.93746
G1 X58.85 Y143.208 E9.98772
G1 X58.443 Y142.582 E10.01256
G1 X58.263 Y142.296 E10.0238
G1 X57.824 Y141.572 E10.05196
G1 X57.046 Y140.25 E10.10298
G1 X56.688 Y139.623 E10.12699
G1 X56.538 Y139.351 E10.13732
G1 X56.147 Y138.617 E10.16498
G1 X55.439 Y137.244 E10.21636
G1 X55.111 Y136.586 E10.24082
G1 X54.978 Y136.309 E10.25104
G1 X54.619 Y135.533 E10.27948
G1 X54.008 Y134.166 E10.32928
G1 X53.702 Y133.455 E10.35502
G1 X53.587 Y133.177 E10.36503
G1 X53.281 Y132.407 E10.39259
G1 X52.8 Y131.148 E10.43741
G1 X52.469 Y130.244 E10.46943
G1 X52.364 Y129.946 E10.47994
G1 X52.164 Y129.346 E10.50098
G1 X51.647 Y127.723 E10.55763
G1 X51.427 Y126.998 E10.58283
G1 X51.339 Y126.694 E10.59336
G1 X51.142 Y125.964 E10.61851
G1 X50.725 Y124.341 E10.67424
G1 X50.573 Y123.714 E10.6957
G1 X50.505 Y123.418 E10.7058
G1 X50.336 Y122.62 E10.73293
G1 X50.033 Y121.097 E10.78458
G1 X49.895 Y120.35 E10.80984
G1 X49.841 Y120.029 E10.82067
G1 X49.716 Y119.218 E10.84796
G1 X49.526 Y117.874 E10.89311
G1 X49.409 Y116.955 E10.92392
G1 X49.375 Y116.652 E10.93406
G1 X49.294 Y115.82 E10.96187
G1 X49.166 Y114.29 E11.01293
G1 X49.114 Y113.536 E11.03807
G1 X49.098 Y113.246 E11.04773
G1 X49.063 Y112.408 E11.07563
G1 X49.024 Y111.035 E11.12131
G1 X49.011 Y110.139 E11.15111
G1 X49.011 Y109.821 E11.16169
G1 X49.025 Y108.958 E11.1904
G1 X49.064 Y107.573 E11.23648
G1 X49.099 Y106.732 E11.26448
G1 X49.116 Y106.427 E11.27464
G1 X49.177 Y105.565 E11.30338
G1 X49.293 Y104.18 E11.34961
G1 X49.378 Y103.316 E11.37848
G1 X49.411 Y103.02 E11.38839
G1 X49.523 Y102.146 E11.4177
G1 X49.739 Y100.625 E11.46879
G1 X49.847 Y99.932 E11.49212
G1 X49.898 Y99.631 E11.50227
G1 X50.028 Y98.926 E11.52612
G1 X50.356 Y97.281 E11.58191
G1 X50.502 Y96.591 E11.60536
G1 X50.581 Y96.246 E11.61714
G1 X50.775 Y95.46 E11.64406
G1 X51.18 Y93.892 E11.69793
G1 X51.354 Y93.256 E11.71986
G1 X51.437 Y92.968 E11.72983
G1 X51.681 Y92.166 E11.75771
G1 X52.125 Y90.774 E11.8063
G1 X52.386 Y89.992 E11.83372
G1 X52.487 Y89.703 E11.84391
G1 X52.765 Y88.946 E11.87073
G1 X53.325 Y87.483 E11.92283
G1 X53.6 Y86.792 E11.94757
G1 X53.717 Y86.509 E11.95775
G1 X54.059 Y85.717 E11.98645
G1 X54.685 Y84.322 E12.0373
G1 X54.991 Y83.664 E12.06144
G1 X55.123 Y83.389 E12.07158
G1 X55.508 Y82.621 E12.10016
G1 X56.203 Y81.276 E12.15051
G1 X56.547 Y80.632 E12.17479
G1 X56.697 Y80.361 E12.1851
G1 X57.129 Y79.607 E12.214
G1 X57.905 Y78.294 E12.26473
G1 X58.286 Y77.669 E12.28907
G1 X58.447 Y77.412 E12.29916
G1 X58.917 Y76.69 E12.32781
G1 X59.764 Y75.424 E12.37847
G1 X60.172 Y74.831 E12.40241
G1 X60.355 Y74.573 E12.41294
G1 X60.858 Y73.886 E12.44125
G1 X61.772 Y72.675 E12.49172
G1 X62.22 Y72.096 E12.51607
G1 X62.426 Y71.837 E12.52707
G1 X62.975 Y71.172 E12.55575
G1 X63.958 Y70.01 E12.60638
G1 X64.437 Y69.46 E12.63064
G1 X64.632 Y69.241 E12.64039
G1 X65.119 Y68.711 E12.66433
G1 X66.267 Y67.496 E12.71992
G1 X66.788 Y66.961 E12.74476
G0 F6000 X67.075 Y67.24
G1 F1200 X67.278 Y67.037 E12.75431
G1 X67.862 Y66.471 E12.78136
G1 X69.019 Y65.377 E12.83432
G1 X69.505 Y64.93 E12.85628
G1 X69.735 Y64.725 E12.86653
G1 X70.384 Y64.163 E12.89508
G1 X71.575 Y63.159 E12.94689
G1 X72.123 Y62.71 E12.97046
G1 X72.345 Y62.533 E12.9799
G1 X73.016 Y62.014 E13.00812
G1 X74.257 Y61.081 E13.05976
G1 X74.807 Y60.679 E13.08241
G1 X75.054 Y60.504 E13.09248
G1 X75.782 Y60.005 E13.12184
G1 X77.052 Y59.156 E13.17265
G1 X77.649 Y58.769 E13.19631
G1 X77.913 Y58.604 E13.20667
G1 X78.609 Y58.182 E13.23374
G1 X79.95 Y57.393 E13.28549
G1 X80.579 Y57.034 E13.30957
G1 X80.838 Y56.891 E13.31941
G1 X81.566 Y56.503 E13.34685
G1 X82.934 Y55.797 E13.39805
G1 X83.592 Y55.469 E13.42251
G1 X83.859 Y55.341 E13.43236
G1 X84.63 Y54.984 E13.46061
G1 X85.993 Y54.375 E13.51027
G1 X86.704 Y54.069 E13.53601
G1 X86.971 Y53.959 E13.54562
G1 X87.736 Y53.655 E13.573
G1 X89.139 Y53.12 E13.62294
G1 X89.894 Y52.844 E13.64968
G1 X90.181 Y52.744 E13.65978
G1 X90.91 Y52.502 E13.68533
G1 X92.393 Y52.03 E13.73709
G1 X93.118 Y51.81 E13.76229
G1 X93.411 Y51.725 E13.77244
G1 X94.135 Y51.529 E13.79739
G1 X95.754 Y51.113 E13.85298
G1 X96.381 Y50.961 E13.87444
G1 X96.666 Y50.896 E13.88417
G1 X97.458 Y50.728 E13.91109
G1 X98.975 Y50.426 E13.96254
G1 X99.722 Y50.288 E13.98781
G1 X100.032 Y50.236 E13.99826
G1 X100.838 Y50.112 E14.02538
G1 X102.327 Y49.903 E14.07539
G1 X103.089 Y49.806 E14.10094
G1 X103.403 Y49.771 E14.11145
G1 X104.205 Y49.694 E14.13825
G1 X105.74 Y49.565 E14.18948
G1 X106.481 Y49.513 E14.21419
G1 X106.791 Y49.496 E14.22451
G1 X107.58 Y49.464 E14.25078
G1 X109.129 Y49.421 E14.30232
G1 X109.854 Y49.411 E14.32643
G1 X110.159 Y49.411 E14.33658
G1 X111.029 Y49.425 E14.36552
G1 X112.552 Y49.469 E14.41619
G1 X113.233 Y49.497 E14.43886
G1 X113.548 Y49.515 E14.44936
G1 X114.402 Y49.576 E14.47783
G1 X115.948 Y49.707 E14.52944
G1 X116.634 Y49.775 E14.55237
G1 X116.919 Y49.807 E14.56191
G1 X117.798 Y49.919 E14.59138
G1 X119.307 Y50.133 E14.64207
G1 X119.99 Y50.239 E14.66506
G1 X120.288 Y50.29 E14.67511
G1 X121.153 Y50.451 E14.70438
G1 X122.636 Y50.748 E14.75468
