;FLAVOR:Marlin
;TIME:3452
;Filament used: 2.08405m
;Layer height: 0.2
;MINX:76.51
;MINY:76.51
;MINZ:0.2
;MAXX:143.49
;MAXY:143.49
;MAXZ:11
;Generated with Cura_SteamEngine 4.10.0
M140 S60
M105
M190 S60
M104 S200
M105
M109 S200
M82 ;absolute extrusion mode
; Ender 3 Custom Start G-code
G92 E0 ; Reset Extruder
G28 ; Home all axes
G1 Z2.0 F3000 ; Move Z Axis up little to prevent scratching of Heat Bed
G1 X0.1 Y20 Z0.3 F5000.0 ; Move to start position
G1 X0.1 Y200.0 Z0.3 F1500.0 E15 ; Draw the first line
G1 X0.4 Y200.0 Z0.3 F5000.0 ; Move to side a little
G1 X0.4 Y20 Z0.3 F1500.0 E30 ; Draw the second line
G92 E0 ; Reset Extruder
G1 Z2.0 F3000 ; Move Z Axis up little to prevent scratching of Heat Bed
G1 X5 Y20 Z0.3 F5000.0 ; Move over to prevent blob squish
G92 E0
G92 E0
G1 F1500 E-6.5
;LAYER_COUNT:55
;LAYER:0
M107
G0 F6000 X86.44 Y86.199 Z0.2
;TYPE:SKIRT
G1 F1500 E0
G1 F1200 X86.862 Y85.788 E0.01959
G1 X87.092 Y85.57 E0.03013
G1 X87.576 Y85.125 E0.052
G1 X87.816 Y84.911 E0.0627
G1 X88.289 Y84.501 E0.08352
G1 X88.522 Y84.304 E0.09366
G1 X88.987 Y83.923 E0.11366
G1 X89.217 Y83.74 E0.12343
G1 X89.743 Y83.332 E0.14557
G1 X90.002 Y83.138 E0.15634
G1 X90.516 Y82.763 E0.1775
G1 X90.758 Y82.591 E0.18737
G1 X91.266 Y82.241 E0.20789
G1 X91.515 Y82.075 E0.21785
G1 X92.043 Y81.732 E0.23879
G1 X92.324 Y81.554 E0.24985
G1 X92.864 Y81.226 E0.27086
G1 X93.117 Y81.077 E0.28063
G1 X93.649 Y80.773 E0.30101
G1 X93.919 Y80.624 E0.31127
G1 X94.508 Y80.309 E0.33348
G1 X94.784 Y80.167 E0.34381
G1 X95.345 Y79.887 E0.36466
G1 X95.629 Y79.75 E0.37515
G1 X96.153 Y79.507 E0.39436
G1 X96.45 Y79.375 E0.40517
G1 X97.085 Y79.103 E0.42815
G1 X97.337 Y78.998 E0.43723
G1 X97.883 Y78.78 E0.45678
G1 X98.187 Y78.664 E0.4676
G1 X98.863 Y78.417 E0.49154
G1 X99.159 Y78.313 E0.50197
G1 X99.663 Y78.145 E0.51964
G1 X99.941 Y78.057 E0.52934
G1 X100.569 Y77.866 E0.55117
G1 X100.863 Y77.781 E0.56135
G1 X101.498 Y77.607 E0.58325
G1 X101.826 Y77.523 E0.59451
G1 X102.394 Y77.386 E0.61395
G1 X102.665 Y77.324 E0.62319
G1 X103.308 Y77.186 E0.64507
G1 X103.639 Y77.12 E0.65629
G1 X104.285 Y77.002 E0.67813
G1 X104.557 Y76.956 E0.68731
G1 X105.137 Y76.865 E0.70684
G1 X105.467 Y76.818 E0.71792
G1 X106.094 Y76.739 E0.73894
G1 X106.388 Y76.706 E0.74878
G1 X107.016 Y76.644 E0.76977
G1 X107.331 Y76.618 E0.78028
G1 X108.004 Y76.571 E0.80272
G1 X108.293 Y76.554 E0.81235
G1 X108.892 Y76.528 E0.83229
G1 X109.221 Y76.519 E0.84324
G1 X109.889 Y76.51 E0.86546
G1 X110.206 Y76.51 E0.876
G1 X110.792 Y76.519 E0.89549
G1 X111.082 Y76.528 E0.90514
G1 X111.705 Y76.554 E0.92588
G1 X112.008 Y76.57 E0.93598
G1 X112.656 Y76.615 E0.95758
G1 X112.98 Y76.643 E0.9684
G1 X113.595 Y76.704 E0.98895
G1 X113.893 Y76.737 E0.99892
G1 X114.524 Y76.817 E1.02008
G1 X114.836 Y76.862 E1.03056
G1 X115.496 Y76.965 E1.05278
G1 X115.798 Y77.016 E1.06297
G1 X116.361 Y77.12 E1.08201
G1 X116.639 Y77.175 E1.09144
G1 X117.301 Y77.315 E1.11394
G1 X117.637 Y77.392 E1.12541
G1 X118.222 Y77.535 E1.14544
G1 X118.515 Y77.61 E1.1555
G1 X119.125 Y77.777 E1.17653
G1 X119.413 Y77.861 E1.18651
G1 X120.013 Y78.043 E1.20736
G1 X120.328 Y78.143 E1.21836
G1 X120.961 Y78.356 E1.24057
G1 X121.221 Y78.448 E1.24974
G1 X121.775 Y78.65 E1.26935
G1 X122.084 Y78.767 E1.28034
G1 X122.728 Y79.024 E1.30341
G1 X122.989 Y79.132 E1.3128
G1 X123.49 Y79.347 E1.33093
G1 X123.785 Y79.479 E1.34168
G1 X124.403 Y79.766 E1.36435
G1 X124.682 Y79.901 E1.37465
G1 X125.217 Y80.168 E1.39454
G1 X125.482 Y80.305 E1.40446
G1 X126.08 Y80.624 E1.42701
G1 X126.356 Y80.776 E1.43749
G1 X126.864 Y81.066 E1.45694
G1 X127.154 Y81.237 E1.46814
G1 X127.729 Y81.589 E1.49056
G1 X127.959 Y81.734 E1.49961
G1 X128.443 Y82.047 E1.51878
G1 X128.723 Y82.234 E1.52998
G1 X129.312 Y82.641 E1.55379
G1 X129.529 Y82.795 E1.56264
G1 X129.969 Y83.115 E1.58073
G1 X130.241 Y83.319 E1.59204
G1 X130.776 Y83.734 E1.61456
G1 X131.006 Y83.918 E1.62436
G1 X131.488 Y84.313 E1.64509
G1 X131.739 Y84.525 E1.65601
G1 X132.195 Y84.922 E1.67612
G1 X132.416 Y85.12 E1.68599
G1 X132.899 Y85.564 E1.70781
G1 X133.122 Y85.775 E1.71802
G1 X133.588 Y86.228 E1.73964
G1 X133.801 Y86.44 E1.74963
G1 X134.212 Y86.862 E1.76923
G1 X134.424 Y87.086 E1.77948
G1 X134.866 Y87.566 E1.80119
G1 X135.09 Y87.817 E1.81238
G1 X135.503 Y88.294 E1.83336
G1 X135.696 Y88.522 E1.8433
G1 X136.077 Y88.987 E1.86329
G1 X136.26 Y89.217 E1.87307
G1 X136.668 Y89.743 E1.89521
G1 X136.862 Y90.002 E1.90597
G1 X137.237 Y90.516 E1.92713
G1 X137.409 Y90.758 E1.93701
G1 X137.759 Y91.266 E1.95753
G1 X137.925 Y91.515 E1.96748
G1 X138.268 Y92.043 E1.98842
G1 X138.446 Y92.324 E1.99949
G1 X138.774 Y92.864 E2.0205
G1 X138.923 Y93.117 E2.03026
G1 X139.227 Y93.649 E2.05064
G1 X139.376 Y93.919 E2.0609
G1 X139.691 Y94.508 E2.08312
G1 X139.83 Y94.777 E2.09319
G1 X140.11 Y95.337 E2.11401
G1 X140.254 Y95.636 E2.12505
G1 X140.497 Y96.161 E2.14429
G1 X140.622 Y96.442 E2.15452
G1 X140.883 Y97.05 E2.17653
G1 X140.989 Y97.307 E2.18577
G1 X141.218 Y97.88 E2.2063
G1 X141.334 Y98.182 E2.21706
G1 X141.581 Y98.857 E2.24096
G1 X141.684 Y99.152 E2.25136
G1 X141.852 Y99.655 E2.26899
G1 X141.944 Y99.944 E2.27908
G1 X142.135 Y100.573 E2.30095
G1 X142.22 Y100.866 E2.31109
G1 X142.394 Y101.502 E2.33302
G1 X142.477 Y101.826 E2.34415
G1 X142.614 Y102.394 E2.36358
G1 X142.676 Y102.665 E2.37283
G1 X142.814 Y103.308 E2.3947
G1 X142.879 Y103.636 E2.40582
G1 X142.997 Y104.281 E2.42763
G1 X143.045 Y104.559 E2.43701
G1 X143.136 Y105.14 E2.45657
G1 X143.181 Y105.465 E2.46749
G1 X143.26 Y106.091 E2.48847
G1 X143.294 Y106.389 E2.49845
G1 X143.356 Y107.018 E2.51947
G1 X143.382 Y107.33 E2.52988
G1 X143.429 Y108.002 E2.55229
G1 X143.446 Y108.293 E2.56198
G1 X143.472 Y108.893 E2.58196
G1 X143.481 Y109.221 E2.59287
G1 X143.49 Y109.889 E2.61509
G1 X143.49 Y110.206 E2.62564
G1 X143.481 Y110.792 E2.64513
G1 X143.472 Y111.082 E2.65478
G1 X143.446 Y111.705 E2.67552
G1 X143.43 Y112.008 E2.68561
G1 X143.385 Y112.656 E2.70721
G1 X143.357 Y112.98 E2.71803
G1 X143.296 Y113.595 E2.73859
G1 X143.263 Y113.893 E2.74856
G1 X143.183 Y114.524 E2.76971
G1 X143.138 Y114.836 E2.7802
G1 X143.035 Y115.496 E2.80242
G1 X142.984 Y115.798 E2.8126
G1 X142.88 Y116.361 E2.83164
G1 X142.826 Y116.636 E2.84097
G1 X142.69 Y117.28 E2.86286
G1 X142.614 Y117.612 E2.87419
G1 X142.467 Y118.215 E2.89483
G1 X142.39 Y118.515 E2.90513
G1 X142.223 Y119.125 E2.92617
G1 X142.139 Y119.413 E2.93614
G1 X141.957 Y120.013 E2.957
G1 X141.857 Y120.328 E2.96799
G1 X141.644 Y120.961 E2.9902
G1 X141.552 Y121.221 E2.99938
G1 X141.35 Y121.775 E3.01899
G1 X141.233 Y122.084 E3.02998
G1 X140.976 Y122.728 E3.05304
G1 X140.868 Y122.989 E3.06244
G1 X140.653 Y123.49 E3.08057
G1 X140.52 Y123.788 E3.09142
G1 X140.237 Y124.397 E3.11376
G1 X140.107 Y124.666 E3.12369
G1 X139.836 Y125.21 E3.14391
G1 X139.699 Y125.476 E3.15386
G1 X139.381 Y126.073 E3.17636
G1 X139.222 Y126.362 E3.18733
G1 X138.931 Y126.871 E3.20683
G1 X138.763 Y127.154 E3.21778
G1 X138.411 Y127.729 E3.2402
G1 X138.266 Y127.959 E3.24924
G1 X137.953 Y128.443 E3.26841
G1 X137.766 Y128.723 E3.27961
G1 X137.359 Y129.312 E3.30342
G1 X137.205 Y129.529 E3.31228
G1 X136.885 Y129.969 E3.33037
G1 X136.685 Y130.235 E3.34144
G1 X136.276 Y130.763 E3.36365
G1 X136.086 Y131.002 E3.37381
G1 X135.685 Y131.491 E3.39484
G1 X135.475 Y131.739 E3.40565
G1 X135.078 Y132.195 E3.42576
G1 X134.88 Y132.416 E3.43563
G1 X134.436 Y132.899 E3.45745
G1 X134.225 Y133.122 E3.46766
G1 X133.772 Y133.588 E3.48928
G1 X133.56 Y133.801 E3.49927
G1 X133.138 Y134.212 E3.51886
G1 X132.908 Y134.43 E3.5294
G1 X132.424 Y134.875 E3.55127
G1 X132.185 Y135.088 E3.56192
G1 X131.719 Y135.492 E3.58243
G1 X131.484 Y135.69 E3.59265
G1 X130.986 Y136.098 E3.61407
G1 X130.749 Y136.287 E3.62415
G1 X130.262 Y136.664 E3.64463
G1 X130.023 Y136.844 E3.65458
G1 X129.509 Y137.22 E3.67577
G1 X129.251 Y137.403 E3.68629
G1 X128.728 Y137.763 E3.7074
G1 X128.487 Y137.924 E3.71704
G1 X127.961 Y138.266 E3.73791
G1 X127.676 Y138.446 E3.74912
G1 X127.136 Y138.774 E3.77014
G1 X126.879 Y138.925 E3.78005
G1 X126.35 Y139.227 E3.80031
G1 X126.089 Y139.371 E3.81023
G1 X125.497 Y139.688 E3.83256
G1 X125.216 Y139.833 E3.84308
G1 X124.655 Y140.113 E3.86393
G1 X124.371 Y140.25 E3.87442
G1 X123.847 Y140.493 E3.89363
G1 X123.554 Y140.624 E3.9043
G1 X122.929 Y140.892 E3.92692
G1 X122.673 Y140.998 E3.93614
G1 X122.117 Y141.22 E3.95605
G1 X121.813 Y141.336 E3.96687
G1 X121.137 Y141.583 E3.99081
G1 X120.841 Y141.687 E4.00125
G1 X120.337 Y141.855 E4.01892
G1 X120.059 Y141.943 E4.02861
G1 X119.431 Y142.134 E4.05045
G1 X119.137 Y142.219 E4.06063
G1 X118.502 Y142.393 E4.08252
G1 X118.174 Y142.477 E4.09379
G1 X117.606 Y142.614 E4.11322
G1 X117.335 Y142.676 E4.12247
G1 X116.692 Y142.814 E4.14434
G1 X116.361 Y142.88 E4.15556
G1 X115.715 Y142.998 E4.17741
G1 X115.443 Y143.044 E4.18658
G1 X114.863 Y143.135 E4.20611
G1 X114.533 Y143.182 E4.21719
G1 X113.906 Y143.261 E4.23821
G1 X113.612 Y143.294 E4.24805
G1 X112.984 Y143.356 E4.26904
G1 X112.669 Y143.382 E4.27955
G1 X111.996 Y143.429 E4.30199
G1 X111.707 Y143.446 E4.31162
G1 X111.108 Y143.472 E4.33156
G1 X110.779 Y143.481 E4.34251
G1 X110.111 Y143.49 E4.36473
G1 X109.794 Y143.49 E4.37527
G1 X109.208 Y143.481 E4.39477
G1 X108.918 Y143.472 E4.40442
G1 X108.295 Y143.446 E4.42516
G1 X107.992 Y143.43 E4.43525
G1 X107.344 Y143.385 E4.45685
G1 X107.02 Y143.357 E4.46767
G1 X106.405 Y143.296 E4.48822
G1 X106.107 Y143.263 E4.4982
G1 X105.476 Y143.183 E4.51935
G1 X105.164 Y143.138 E4.52984
G1 X104.504 Y143.035 E4.55205
G1 X104.202 Y142.984 E4.56224
G1 X103.639 Y142.88 E4.58128
G1 X103.361 Y142.825 E4.59071
G1 X102.699 Y142.685 E4.61321
G1 X102.363 Y142.608 E4.62468
G1 X101.778 Y142.465 E4.64471
G1 X101.485 Y142.39 E4.65477
G1 X100.875 Y142.223 E4.6758
G1 X100.587 Y142.139 E4.68578
G1 X99.987 Y141.957 E4.70663
G1 X99.672 Y141.857 E4.71763
G1 X99.039 Y141.644 E4.73984
G1 X98.779 Y141.552 E4.74901
G1 X98.225 Y141.35 E4.76863
G1 X97.921 Y141.235 E4.77944
G1 X97.271 Y140.976 E4.80271
G1 X96.995 Y140.861 E4.81265
G1 X96.5 Y140.648 E4.83058
G1 X96.208 Y140.517 E4.84122
G1 X95.589 Y140.229 E4.86393
G1 X95.324 Y140.102 E4.8737
G1 X94.79 Y139.836 E4.89354
G1 X94.514 Y139.693 E4.90388
G1 X93.911 Y139.371 E4.92662
G1 X93.641 Y139.222 E4.93688
G1 X93.138 Y138.935 E4.95614
G1 X92.846 Y138.763 E4.96741
G1 X92.271 Y138.411 E4.98983
G1 X92.041 Y138.266 E4.99888
G1 X91.557 Y137.953 E5.01805
G1 X91.279 Y137.767 E5.02917
G1 X90.681 Y137.354 E5.05334
G1 X90.455 Y137.194 E5.06255
G1 X90.024 Y136.88 E5.08029
G1 X89.757 Y136.679 E5.09141
G1 X89.221 Y136.263 E5.11397
G1 X88.995 Y136.083 E5.12358
G1 X88.514 Y135.689 E5.14426
G1 X88.261 Y135.475 E5.15528
G1 X87.805 Y135.078 E5.17539
G1 X87.584 Y134.88 E5.18526
G1 X87.101 Y134.436 E5.20708
G1 X86.878 Y134.225 E5.21729
G1 X86.412 Y133.772 E5.23891
G1 X86.199 Y133.56 E5.2489
G1 X85.788 Y133.138 E5.2685
G1 X85.579 Y132.918 E5.27859
G1 X85.132 Y132.433 E5.30053
G1 X84.9 Y132.172 E5.31214
G1 X84.498 Y131.707 E5.33259
G1 X84.312 Y131.486 E5.34219
G1 X83.903 Y130.987 E5.36365
G1 X83.71 Y130.745 E5.37395
G1 X83.334 Y130.259 E5.39439
G1 X83.156 Y130.023 E5.40422
G1 X82.78 Y129.509 E5.4254
G1 X82.597 Y129.251 E5.43592
G1 X82.237 Y128.728 E5.45704
G1 X82.079 Y128.491 E5.46651
G1 X81.736 Y127.964 E5.48742
G1 X81.55 Y127.67 E5.499
G1 X81.223 Y127.131 E5.51996
G1 X81.076 Y126.881 E5.52961
G1 X80.767 Y126.34 E5.55033
G1 X80.618 Y126.069 E5.56062
G1 X80.308 Y125.489 E5.58249
G1 X80.167 Y125.216 E5.59271
G1 X79.887 Y124.655 E5.61357
G1 X79.75 Y124.371 E5.62405
G1 X79.507 Y123.847 E5.64326
G1 X79.375 Y123.552 E5.65401
G1 X79.105 Y122.922 E5.67681
G1 X79 Y122.668 E5.68595
G1 X78.78 Y122.117 E5.70568
G1 X78.663 Y121.811 E5.71658
G1 X78.414 Y121.129 E5.74073
G1 X78.314 Y120.841 E5.75087
G1 X78.143 Y120.329 E5.76882
G1 X78.052 Y120.044 E5.77877
G1 X77.865 Y119.429 E5.80015
G1 X77.777 Y119.125 E5.81068
G1 X77.604 Y118.491 E5.83254
G1 X77.523 Y118.174 E5.84342
G1 X77.386 Y117.606 E5.86285
G1 X77.324 Y117.335 E5.8721
G1 X77.186 Y116.692 E5.89397
G1 X77.12 Y116.361 E5.9052
G1 X77.002 Y115.715 E5.92704
G1 X76.956 Y115.443 E5.93621
G1 X76.865 Y114.863 E5.95574
G1 X76.819 Y114.541 E5.96656
G1 X76.738 Y113.902 E5.98798
G1 X76.703 Y113.585 E5.99859
G1 X76.643 Y112.969 E6.01918
G1 X76.618 Y112.669 E6.02919
G1 X76.571 Y111.996 E6.05163
G1 X76.554 Y111.707 E6.06126
G1 X76.528 Y111.108 E6.0812
G1 X76.519 Y110.779 E6.09214
G1 X76.51 Y110.111 E6.11436
G1 X76.51 Y109.794 E6.12491
G1 X76.519 Y109.208 E6.1444
G1 X76.528 Y108.918 E6.15405
G1 X76.554 Y108.295 E6.17479
G1 X76.57 Y107.992 E6.18488
G1 X76.615 Y107.344 E6.20649
G1 X76.643 Y107.018 E6.21737
G1 X76.705 Y106.394 E6.23823
G1 X76.739 Y106.096 E6.2482
G1 X76.818 Y105.474 E6.26906
G1 X76.862 Y105.164 E6.27947
G1 X76.965 Y104.504 E6.30169
G1 X77.016 Y104.202 E6.31187
G1 X77.12 Y103.639 E6.33092
G1 X77.175 Y103.361 E6.34034
G1 X77.315 Y102.699 E6.36285
G1 X77.392 Y102.363 E6.37431
G1 X77.535 Y101.778 E6.39434
G1 X77.61 Y101.485 E6.4044
G1 X77.777 Y100.875 E6.42544
G1 X77.861 Y100.587 E6.43541
G1 X78.043 Y99.987 E6.45627
G1 X78.143 Y99.672 E6.46726
G1 X78.356 Y99.039 E6.48947
G1 X78.448 Y98.779 E6.49865
G1 X78.65 Y98.225 E6.51826
G1 X78.767 Y97.916 E6.52925
G1 X79.024 Y97.272 E6.55231
G1 X79.132 Y97.011 E6.56171
G1 X79.347 Y96.51 E6.57984
G1 X79.479 Y96.215 E6.59059
G1 X79.766 Y95.597 E6.61325
G1 X79.901 Y95.318 E6.62356
G1 X80.168 Y94.783 E6.64345
G1 X80.301 Y94.524 E6.65313
G1 X80.619 Y93.927 E6.67563
G1 X80.778 Y93.638 E6.6866
G1 X81.069 Y93.129 E6.7061
G1 X81.237 Y92.846 E6.71705
G1 X81.589 Y92.271 E6.73947
G1 X81.734 Y92.041 E6.74851
G1 X82.047 Y91.557 E6.76768
G1 X82.234 Y91.277 E6.77888
G1 X82.641 Y90.688 E6.8027
G1 X82.795 Y90.471 E6.81155
G1 X83.115 Y90.031 E6.82964
G1 X83.319 Y89.759 E6.84095
G1 X83.734 Y89.224 E6.86347
G1 X83.918 Y88.994 E6.87327
G1 X84.313 Y88.512 E6.89399
G1 X84.525 Y88.261 E6.90492
G1 X84.922 Y87.805 E6.92503
G1 X85.12 Y87.584 E6.9349
G1 X85.564 Y87.101 E6.95672
G1 X85.775 Y86.878 E6.96693
G1 X86.228 Y86.412 E6.98855
G1 X86.44 Y86.199 E6.99854
G0 F6000 X86.719 Y86.485
G1 F1200 X87.141 Y86.074 E7.01813
G1 X87.363 Y85.865 E7.02828
G1 X87.847 Y85.42 E7.05014
G1 X88.078 Y85.213 E7.06046
G1 X88.551 Y84.803 E7.08128
G1 X88.776 Y84.614 E7.09105
G1 X89.241 Y84.233 E7.11105
G1 X89.462 Y84.056 E7.12046
G1 X89.988 Y83.648 E7.14261
G1 X90.238 Y83.461 E7.15299
G1 X90.752 Y83.086 E7.17415
G1 X90.985 Y82.92 E7.18367
G1 X91.493 Y82.57 E7.20418
G1 X91.732 Y82.41 E7.21375
G1 X92.26 Y82.067 E7.23469
G1 X92.532 Y81.896 E7.24538
G1 X93.072 Y81.568 E7.26639
G1 X93.316 Y81.425 E7.2758
G1 X93.848 Y81.121 E7.29618
G1 X94.108 Y80.977 E7.30606
G1 X94.697 Y80.662 E7.32828
G1 X94.962 Y80.525 E7.3382
G1 X95.523 Y80.245 E7.35906
G1 X95.798 Y80.113 E7.3692
G1 X96.322 Y79.87 E7.38841
G1 X96.607 Y79.742 E7.3988
G1 X97.242 Y79.47 E7.42178
G1 X97.485 Y79.37 E7.43052
G1 X98.031 Y79.152 E7.45007
G1 X98.324 Y79.04 E7.46051
G1 X99 Y78.793 E7.48444
G1 X99.286 Y78.693 E7.49452
G1 X99.79 Y78.525 E7.51219
G1 X100.058 Y78.44 E7.52154
G1 X100.686 Y78.249 E7.54337
G1 X100.969 Y78.167 E7.55317
G1 X101.604 Y77.993 E7.57507
G1 X101.92 Y77.912 E7.58592
G1 X102.488 Y77.775 E7.60536
G1 X102.749 Y77.715 E7.61426
G1 X103.392 Y77.577 E7.63614
G1 X103.711 Y77.514 E7.64695
G1 X104.357 Y77.396 E7.66879
G1 X104.619 Y77.351 E7.67764
G1 X105.199 Y77.26 E7.69716
G1 X105.517 Y77.215 E7.70784
G1 X106.144 Y77.136 E7.72886
G1 X106.428 Y77.104 E7.73837
G1 X107.056 Y77.042 E7.75936
G1 X107.359 Y77.017 E7.76947
G1 X108.032 Y76.97 E7.79191
G1 X108.31 Y76.954 E7.80117
G1 X108.909 Y76.928 E7.82111
G1 X109.226 Y76.919 E7.83166
G1 X109.894 Y76.91 E7.85388
G1 X110.2 Y76.91 E7.86406
G1 X110.786 Y76.919 E7.88355
G1 X111.065 Y76.927 E7.89283
G1 X111.688 Y76.953 E7.91357
G1 X111.98 Y76.969 E7.9233
G1 X112.628 Y77.014 E7.9449
G1 X112.94 Y77.041 E7.95532
G1 X113.555 Y77.102 E7.97587
G1 X113.842 Y77.134 E7.98548
G1 X114.473 Y77.214 E8.00663
G1 X114.774 Y77.257 E8.01675
G1 X115.434 Y77.36 E8.03896
G1 X115.726 Y77.409 E8.04881
G1 X116.289 Y77.513 E8.06785
G1 X116.556 Y77.566 E8.07691
G1 X117.218 Y77.706 E8.09941
G1 X117.542 Y77.78 E8.11047
G1 X118.127 Y77.923 E8.1305
G1 X118.409 Y77.996 E8.14019
G1 X119.019 Y78.163 E8.16122
G1 X119.297 Y78.243 E8.17084
