;FLAVOR:Marlin
;TIME:6696
;Filament used: 5.23368m
;Layer height: 0.2
;MINX:64.01
;MINY:64.01
;MINZ:0.2
;MAXX:155.99
;MAXY:155.99
;MAXZ:11
;Generated with Cura_SteamEngine 4.10.0
M140 S60
M105
M190 S60
M104 S200
M105
M109 S200
M82 ;absolute extrusion mode
; Ender 3 Custom Start G-code
G92 E0 ; Reset Extruder
G28 ; Home all axes
G1 Z2.0 F3000 ; Move Z Axis up little to prevent scratching of Heat Bed
G1 X0.1 Y20 Z0.3 F5000.0 ; Move to start position
G1 X0.1 Y200.0 Z0.3 F1500.0 E15 ; Draw the first line
G1 X0.4 Y200.0 Z0.3 F5000.0 ; Move to side a little
G1 X0.4 Y20 Z0.3 F1500.0 E30 ; Draw the second line
G92 E0 ; Reset Extruder
G1 Z2.0 F3000 ; Move Z Axis up little to prevent scratching of Heat Bed
G1 X5 Y20 Z0.3 F5000.0 ; Move over to prevent blob squish
G92 E0
G92 E0
G1 F1500 E-6.5
;LAYER_COUNT:55
;LAYER:0
M107
G0 F6000 X77.365 Y77.596 Z0.2
;TYPE:SKIRT
G1 F1500 E0
G1 F1200 X77.597 Y77.364 E0.01091
G1 X78.209 Y76.772 E0.03923
G1 X78.739 Y76.272 E0.06347
G1 X79.247 Y75.805 E0.08642
G1 X79.487 Y75.591 E0.09711
G1 X80.085 Y75.074 E0.1234
G1 X80.692 Y74.561 E0.14984
G1 X81.186 Y74.156 E0.17108
G1 X81.421 Y73.969 E0.18107
G1 X82.164 Y73.395 E0.2123
G1 X82.682 Y73.006 E0.23385
G1 X83.279 Y72.57 E0.25843
G1 X83.536 Y72.388 E0.26891
G1 X84.199 Y71.933 E0.29565
G1 X84.813 Y71.524 E0.32019
G1 X85.432 Y71.123 E0.34472
G1 X85.691 Y70.96 E0.3549
G1 X86.362 Y70.553 E0.381
G1 X87.026 Y70.163 E0.40662
G1 X87.613 Y69.828 E0.42909
G1 X87.865 Y69.689 E0.43867
G1 X88.657 Y69.265 E0.46855
G1 X89.275 Y68.947 E0.49166
G1 X89.936 Y68.618 E0.51622
G1 X90.203 Y68.49 E0.52607
G1 X90.952 Y68.143 E0.55352
G1 X91.629 Y67.842 E0.57817
G1 X92.265 Y67.568 E0.6012
G1 X92.554 Y67.448 E0.61161
G1 X93.308 Y67.149 E0.63858
G1 X93.955 Y66.903 E0.66161
G1 X94.688 Y66.635 E0.68757
G1 X94.977 Y66.534 E0.69775
G1 X95.782 Y66.266 E0.72597
G1 X96.508 Y66.036 E0.7513
G1 X97.117 Y65.852 E0.77246
G1 X97.397 Y65.771 E0.78215
G1 X98.251 Y65.539 E0.81158
G1 X98.98 Y65.353 E0.83661
G1 X99.638 Y65.194 E0.85912
G1 X99.913 Y65.131 E0.86851
G1 X100.709 Y64.961 E0.89558
G1 X101.331 Y64.837 E0.91667
G1 X102.143 Y64.687 E0.94414
G1 X102.442 Y64.636 E0.95423
G1 X103.3 Y64.504 E0.9831
G1 X104.008 Y64.405 E1.00688
G1 X104.681 Y64.319 E1.02944
G1 X105.002 Y64.282 E1.04019
G1 X105.883 Y64.197 E1.06963
G1 X106.5 Y64.147 E1.09022
G1 X107.323 Y64.089 E1.11766
G1 X107.635 Y64.072 E1.12805
G1 X108.371 Y64.042 E1.15255
G1 X109.192 Y64.019 E1.17987
G1 X109.85 Y64.01 E1.20175
G1 X110.164 Y64.01 E1.2122
G1 X110.979 Y64.023 E1.23931
G1 X111.778 Y64.047 E1.2659
G1 X112.414 Y64.074 E1.28707
G1 X112.711 Y64.091 E1.29696
G1 X113.588 Y64.153 E1.3262
G1 X114.298 Y64.214 E1.34991
G1 X114.993 Y64.283 E1.37314
G1 X115.283 Y64.316 E1.38284
G1 X116.187 Y64.431 E1.41315
G1 X116.866 Y64.528 E1.43597
G1 X117.569 Y64.638 E1.45963
G1 X117.862 Y64.688 E1.46952
G1 X118.696 Y64.843 E1.49773
G1 X119.378 Y64.98 E1.52087
G1 X120.078 Y65.128 E1.54467
G1 X120.417 Y65.205 E1.55623
G1 X121.205 Y65.399 E1.58322
G1 X121.887 Y65.576 E1.60665
G1 X122.609 Y65.773 E1.63155
G1 X122.902 Y65.857 E1.64168
G1 X123.516 Y66.043 E1.66302
G1 X124.429 Y66.335 E1.6949
G1 X125.006 Y66.528 E1.71514
G1 X125.286 Y66.626 E1.72501
G1 X126.187 Y66.956 E1.75692
G1 X126.773 Y67.181 E1.7778
G1 X127.47 Y67.458 E1.80274
G1 X127.765 Y67.58 E1.81336
G1 X128.522 Y67.908 E1.8408
G1 X129.195 Y68.21 E1.86534
G1 X129.805 Y68.494 E1.88772
G1 X130.076 Y68.624 E1.89771
G1 X130.876 Y69.025 E1.92748
G1 X131.492 Y69.343 E1.95053
G1 X132.123 Y69.681 E1.97434
G1 X132.376 Y69.822 E1.98398
G1 X133.133 Y70.255 E2.01298
G1 X133.783 Y70.64 E2.03811
G1 X134.358 Y70.991 E2.06051
G1 X134.606 Y71.147 E2.07026
G1 X135.275 Y71.581 E2.09678
G1 X135.78 Y71.918 E2.11698
G1 X136.483 Y72.402 E2.14536
G1 X136.712 Y72.564 E2.15469
G1 X137.437 Y73.094 E2.18456
G1 X138.025 Y73.538 E2.20907
G1 X138.576 Y73.966 E2.23227
G1 X138.812 Y74.154 E2.24231
G1 X139.429 Y74.662 E2.26889
G1 X139.891 Y75.052 E2.289
G1 X140.563 Y75.637 E2.31863
G1 X140.777 Y75.827 E2.32815
G1 X141.352 Y76.357 E2.35416
G1 X141.891 Y76.867 E2.37884
G1 X142.404 Y77.365 E2.40262
G1 X142.636 Y77.597 E2.41353
G1 X143.228 Y78.209 E2.44185
G1 X143.728 Y78.739 E2.46609
G1 X144.195 Y79.247 E2.48904
G1 X144.409 Y79.487 E2.49973
G1 X144.926 Y80.085 E2.52603
G1 X145.439 Y80.692 E2.55246
G1 X145.844 Y81.186 E2.57371
G1 X146.031 Y81.421 E2.5837
G1 X146.605 Y82.164 E2.61492
G1 X146.99 Y82.676 E2.63623
G1 X147.412 Y83.253 E2.66001
G1 X147.596 Y83.513 E2.6706
G1 X148.067 Y84.199 E2.69828
G1 X148.476 Y84.813 E2.72281
G1 X148.877 Y85.432 E2.74734
G1 X149.04 Y85.691 E2.75752
G1 X149.447 Y86.362 E2.78363
G1 X149.837 Y87.026 E2.80924
G1 X150.172 Y87.613 E2.83172
G1 X150.311 Y87.865 E2.84129
G1 X150.735 Y88.657 E2.87117
G1 X151.047 Y89.263 E2.89384
G1 X151.365 Y89.9 E2.91752
G1 X151.5 Y90.181 E2.92789
G1 X151.857 Y90.952 E2.95615
G1 X152.158 Y91.629 E2.98079
G1 X152.432 Y92.265 E3.00382
G1 X152.552 Y92.554 E3.01423
G1 X152.851 Y93.308 E3.04121
G1 X153.095 Y93.948 E3.06399
G1 X153.354 Y94.655 E3.08903
G1 X153.456 Y94.947 E3.09932
G1 X153.734 Y95.782 E3.12859
G1 X153.962 Y96.503 E3.15374
G1 X154.146 Y97.111 E3.17487
G1 X154.23 Y97.4 E3.18488
G1 X154.461 Y98.251 E3.21421
G1 X154.647 Y98.98 E3.23923
G1 X154.806 Y99.638 E3.26175
G1 X154.869 Y99.913 E3.27113
G1 X155.039 Y100.709 E3.2982
G1 X155.193 Y101.488 E3.32461
G1 X155.313 Y102.139 E3.34663
G1 X155.364 Y102.443 E3.35688
G1 X155.496 Y103.3 E3.38572
G1 X155.595 Y104.006 E3.40943
G1 X155.681 Y104.678 E3.43197
G1 X155.718 Y105.002 E3.44281
G1 X155.803 Y105.883 E3.47225
G1 X155.853 Y106.499 E3.49281
G1 X155.911 Y107.321 E3.52022
G1 X155.928 Y107.635 E3.53067
G1 X155.958 Y108.371 E3.55517
G1 X155.981 Y109.192 E3.58249
G1 X155.99 Y109.85 E3.60438
G1 X155.99 Y110.164 E3.61482
G1 X155.977 Y110.982 E3.64203
G1 X155.959 Y111.62 E3.66326
G1 X155.926 Y112.416 E3.68976
G1 X155.908 Y112.737 E3.70045
G1 X155.85 Y113.554 E3.72769
G1 X155.801 Y114.139 E3.74722
G1 X155.716 Y115.009 E3.77629
G1 X155.681 Y115.323 E3.7868
G1 X155.585 Y116.07 E3.81185
G1 X155.472 Y116.865 E3.83856
G1 X155.363 Y117.562 E3.86202
G1 X155.313 Y117.855 E3.87191
G1 X155.157 Y118.696 E3.90036
G1 X155.02 Y119.381 E3.92359
G1 X154.875 Y120.066 E3.94688
G1 X154.8 Y120.392 E3.95801
G1 X154.601 Y121.205 E3.98584
G1 X154.424 Y121.887 E4.00928
G1 X154.227 Y122.609 E4.03417
G1 X154.143 Y122.902 E4.04431
G1 X153.957 Y123.516 E4.06565
G1 X153.665 Y124.429 E4.09753
G1 X153.472 Y125.006 E4.11777
G1 X153.374 Y125.286 E4.12763
G1 X153.044 Y126.187 E4.15955
G1 X152.818 Y126.775 E4.1805
G1 X152.546 Y127.459 E4.20498
G1 X152.428 Y127.744 E4.21524
G1 X152.092 Y128.522 E4.24343
G1 X151.786 Y129.204 E4.26829
G1 X151.499 Y129.819 E4.29086
G1 X151.376 Y130.075 E4.30031
G1 X150.975 Y130.876 E4.3301
G1 X150.742 Y131.329 E4.34704
G1 X150.322 Y132.116 E4.37671
G1 X150.177 Y132.38 E4.38673
G1 X149.83 Y132.988 E4.41002
G1 X149.358 Y133.787 E4.44088
G1 X149.011 Y134.355 E4.46302
G1 X148.861 Y134.593 E4.47238
G1 X148.419 Y135.275 E4.49941
G1 X148.082 Y135.78 E4.5196
G1 X147.598 Y136.483 E4.54799
G1 X147.436 Y136.712 E4.55732
G1 X146.906 Y137.437 E4.58719
G1 X146.466 Y138.019 E4.61145
G1 X146.044 Y138.563 E4.63435
G1 X145.853 Y138.803 E4.64456
G1 X145.359 Y139.403 E4.6704
G1 X144.836 Y140.02 E4.69731
G1 X144.363 Y140.563 E4.72126
G1 X144.173 Y140.777 E4.73078
G1 X143.643 Y141.352 E4.75679
G1 X143.132 Y141.892 E4.78151
G1 X142.63 Y142.409 E4.80548
G1 X142.412 Y142.627 E4.81574
G1 X141.792 Y143.229 E4.84448
G1 X141.276 Y143.714 E4.86803
G1 X140.786 Y144.166 E4.8902
G1 X140.521 Y144.403 E4.90203
G1 X139.87 Y144.965 E4.93063
G1 X139.356 Y145.398 E4.95299
G1 X138.759 Y145.887 E4.97865
G1 X138.53 Y146.07 E4.9884
G1 X137.887 Y146.567 E5.01543
G1 X137.319 Y146.993 E5.03905
G1 X136.725 Y147.427 E5.06352
G1 X136.475 Y147.605 E5.07372
G1 X135.796 Y148.071 E5.10111
G1 X135.187 Y148.476 E5.12544
G1 X134.568 Y148.877 E5.14997
G1 X134.309 Y149.04 E5.16015
G1 X133.638 Y149.447 E5.18625
G1 X132.974 Y149.837 E5.21186
G1 X132.387 Y150.172 E5.23434
G1 X132.135 Y150.311 E5.24391
G1 X131.343 Y150.735 E5.27379
G1 X130.725 Y151.053 E5.29691
G1 X130.066 Y151.381 E5.32139
G1 X129.8 Y151.509 E5.33121
G1 X129.048 Y151.857 E5.35877
G1 X128.371 Y152.158 E5.38341
G1 X127.735 Y152.432 E5.40645
G1 X127.446 Y152.552 E5.41685
G1 X126.692 Y152.851 E5.44383
G1 X126.045 Y153.097 E5.46686
G1 X125.312 Y153.365 E5.49281
G1 X125.023 Y153.466 E5.503
G1 X124.218 Y153.734 E5.53121
G1 X123.492 Y153.964 E5.55654
G1 X122.883 Y154.148 E5.5777
G1 X122.603 Y154.229 E5.5874
G1 X121.749 Y154.461 E5.61683
G1 X121.02 Y154.647 E5.64186
G1 X120.362 Y154.806 E5.66437
G1 X120.087 Y154.869 E5.67375
G1 X119.291 Y155.039 E5.70083
G1 X118.669 Y155.163 E5.72192
G1 X117.857 Y155.313 E5.74939
G1 X117.558 Y155.364 E5.75947
G1 X116.7 Y155.496 E5.78835
G1 X115.992 Y155.595 E5.81212
G1 X115.319 Y155.681 E5.83469
G1 X114.998 Y155.718 E5.84544
G1 X114.117 Y155.803 E5.87488
G1 X113.5 Y155.853 E5.89546
G1 X112.677 Y155.911 E5.92291
G1 X112.365 Y155.928 E5.9333
G1 X111.629 Y155.958 E5.9578
G1 X110.808 Y155.981 E5.98511
G1 X110.15 Y155.99 E6.007
G1 X109.836 Y155.99 E6.01745
G1 X109.018 Y155.977 E6.04466
G1 X108.38 Y155.959 E6.06588
G1 X107.584 Y155.926 E6.09238
G1 X107.263 Y155.908 E6.10308
G1 X106.446 Y155.85 E6.13032
G1 X105.861 Y155.801 E6.14984
G1 X104.991 Y155.716 E6.17892
G1 X104.673 Y155.68 E6.18956
G1 X103.879 Y155.578 E6.21619
G1 X103.134 Y155.472 E6.24122
G1 X102.431 Y155.362 E6.26488
G1 X102.138 Y155.312 E6.27477
G1 X101.304 Y155.157 E6.30298
G1 X100.622 Y155.02 E6.32612
G1 X99.922 Y154.872 E6.34991
G1 X99.583 Y154.795 E6.36148
G1 X98.795 Y154.601 E6.38847
G1 X98.113 Y154.424 E6.4119
G1 X97.391 Y154.227 E6.4368
G1 X97.098 Y154.143 E6.44693
G1 X96.484 Y153.957 E6.46827
G1 X95.571 Y153.665 E6.50015
G1 X94.994 Y153.472 E6.52039
G1 X94.714 Y153.374 E6.53026
G1 X93.813 Y153.044 E6.56217
G1 X93.227 Y152.819 E6.58305
G1 X92.53 Y152.542 E6.60799
G1 X92.235 Y152.42 E6.61861
G1 X91.478 Y152.092 E6.64605
G1 X90.796 Y151.786 E6.67091
G1 X90.181 Y151.499 E6.69349
G1 X89.925 Y151.376 E6.70293
G1 X89.124 Y150.975 E6.73273
G1 X88.508 Y150.657 E6.75578
G1 X87.877 Y150.319 E6.77959
G1 X87.624 Y150.178 E6.78922
G1 X86.867 Y149.745 E6.81823
G1 X86.217 Y149.36 E6.84336
G1 X85.642 Y149.009 E6.86576
G1 X85.394 Y148.853 E6.87551
G1 X84.725 Y148.419 E6.90203
G1 X84.077 Y147.985 E6.92797
G1 X83.512 Y147.595 E6.95081
G1 X83.289 Y147.437 E6.9599
G1 X82.709 Y147.015 E6.98375
G1 X82.105 Y146.561 E7.00888
G1 X81.421 Y146.031 E7.03766
G1 X81.189 Y145.846 E7.04753
G1 X80.571 Y145.338 E7.07414
G1 X80.109 Y144.948 E7.09425
G1 X79.437 Y144.363 E7.12388
G1 X79.223 Y144.173 E7.1334
G1 X78.648 Y143.643 E7.15941
G1 X78.108 Y143.132 E7.18414
G1 X77.591 Y142.63 E7.20811
G1 X77.373 Y142.412 E7.21836
G1 X76.771 Y141.792 E7.2471
G1 X76.281 Y141.272 E7.27087
G1 X75.824 Y140.776 E7.2933
G1 X75.593 Y140.517 E7.30484
G1 X75.035 Y139.87 E7.33326
G1 X74.604 Y139.358 E7.35552
G1 X74.114 Y138.76 E7.38123
G1 X73.927 Y138.526 E7.3912
G1 X73.433 Y137.887 E7.41806
G1 X73.006 Y137.318 E7.44172
G1 X72.57 Y136.721 E7.46631
G1 X72.388 Y136.464 E7.47678
G1 X71.933 Y135.801 E7.50353
G1 X71.526 Y135.19 E7.52794
G1 X71.124 Y134.57 E7.55252
G1 X70.956 Y134.303 E7.56301
G1 X70.556 Y133.643 E7.58868
G1 X70.143 Y132.941 E7.61577
G1 X69.825 Y132.384 E7.6371
G1 X69.676 Y132.114 E7.64736
G1 X69.265 Y131.343 E7.67642
G1 X68.947 Y130.725 E7.69954
G1 X68.619 Y130.066 E7.72402
G1 X68.491 Y129.8 E7.73384
G1 X68.143 Y129.048 E7.7614
G1 X67.842 Y128.371 E7.78604
G1 X67.568 Y127.735 E7.80907
G1 X67.448 Y127.446 E7.81948
G1 X67.149 Y126.692 E7.84646
G1 X66.903 Y126.045 E7.86948
G1 X66.635 Y125.312 E7.89544
G1 X66.534 Y125.023 E7.90562
G1 X66.266 Y124.218 E7.93384
G1 X66.036 Y123.494 E7.95911
G1 X65.848 Y122.872 E7.98072
G1 X65.766 Y122.583 E7.99071
G1 X65.538 Y121.742 E8.01969
G1 X65.336 Y120.951 E8.04685
G1 X65.192 Y120.353 E8.0673
G1 X65.131 Y120.087 E8.07638
G1 X64.961 Y119.291 E8.10345
G1 X64.805 Y118.5 E8.13027
G1 X64.685 Y117.845 E8.15242
G1 X64.637 Y117.563 E8.16193
G1 X64.528 Y116.866 E8.1854
G1 X64.403 Y115.98 E8.21516
G1 X64.317 Y115.301 E8.23792
G1 X64.283 Y115.001 E8.24796
G1 X64.197 Y114.117 E8.2775
G1 X64.147 Y113.5 E8.29809
G1 X64.089 Y112.677 E8.32553
G1 X64.072 Y112.365 E8.33592
G1 X64.042 Y111.629 E8.36042
G1 X64.019 Y110.808 E8.38774
G1 X64.01 Y110.15 E8.40963
G1 X64.01 Y109.836 E8.42007
G1 X64.023 Y109.021 E8.44718
G1 X64.047 Y108.222 E8.47377
G1 X64.074 Y107.586 E8.49494
G1 X64.091 Y107.289 E8.50484
G1 X64.153 Y106.412 E8.53408
G1 X64.214 Y105.705 E8.55768
G1 X64.284 Y104.998 E8.58131
G1 X64.318 Y104.697 E8.59139
G1 X64.431 Y103.813 E8.62103
G1 X64.528 Y103.134 E8.64384
G1 X64.638 Y102.431 E8.66751
G1 X64.688 Y102.138 E8.67739
G1 X64.843 Y101.304 E8.70561
G1 X64.98 Y100.622 E8.72874
G1 X65.128 Y99.922 E8.75254
G1 X65.205 Y99.583 E8.7641
G1 X65.399 Y98.795 E8.79109
G1 X65.576 Y98.113 E8.81453
G1 X65.773 Y97.391 E8.83942
G1 X65.857 Y97.098 E8.84956
G1 X66.043 Y96.484 E8.8709
G1 X66.335 Y95.571 E8.90278
G1 X66.528 Y94.994 E8.92301
G1 X66.626 Y94.714 E8.93288
G1 X66.956 Y93.813 E8.9648
G1 X67.181 Y93.227 E8.98567
G1 X67.458 Y92.53 E9.01062
G1 X67.58 Y92.235 E9.02124
G1 X67.908 Y91.478 E9.04868
G1 X68.212 Y90.801 E9.07336
G1 X68.507 Y90.168 E9.09659
G1 X68.638 Y89.896 E9.10663
G1 X69.025 Y89.124 E9.13535
G1 X69.337 Y88.52 E9.15796
G1 X69.674 Y87.889 E9.18175
G1 X69.827 Y87.612 E9.19228
G1 X70.174 Y87.005 E9.21553
G1 X70.642 Y86.213 E9.24613
G1 X70.989 Y85.645 E9.26827
G1 X71.141 Y85.404 E9.27775
G1 X71.589 Y84.713 E9.30514
G1 X71.92 Y84.217 E9.32497
G1 X72.403 Y83.516 E9.35328
G1 X72.572 Y83.277 E9.36302
G1 X73.104 Y82.551 E9.39296
G1 X73.509 Y82.014 E9.41533
G1 X73.953 Y81.441 E9.43944
G1 X74.148 Y81.197 E9.44983
G1 X74.696 Y80.532 E9.47849
G1 X75.164 Y79.98 E9.50256
G1 X75.637 Y79.437 E9.52651
G1 X75.827 Y79.223 E9.53603
G1 X76.357 Y78.648 E9.56203
G1 X76.867 Y78.109 E9.58672
G1 X77.365 Y77.596 E9.6105
G0 F6000 X77.652 Y77.875
G1 F1200 X77.876 Y77.651 E9.62103
G1 X78.484 Y77.062 E9.64919
G1 X79.01 Y76.566 E9.67323
G1 X79.518 Y76.099 E9.69618
G1 X79.749 Y75.893 E9.70648
G1 X80.343 Y75.379 E9.7326
G1 X80.814 Y74.98 E9.75314
G1 X81.44 Y74.466 E9.78008
G1 X81.666 Y74.285 E9.78971
G1 X82.404 Y73.714 E9.82074
G1 X82.918 Y73.329 E9.8421
G1 X83.515 Y72.893 E9.86669
G1 X83.762 Y72.718 E9.87676
G1 X84.421 Y72.266 E9.90334
G1 X85.031 Y71.86 E9.92771
G1 X85.65 Y71.459 E9.95224
G1 X85.899 Y71.302 E9.96203
G1 X86.565 Y70.898 E9.98794
G1 X87.224 Y70.511 E10.01335
G1 X87.811 Y70.176 E10.03583
G1 X88.054 Y70.041 E10.04508
G1 X88.699 Y69.695 E10.06942
G1 X89.453 Y69.305 E10.09766
G1 X90.114 Y68.976 E10.12222
G1 X90.372 Y68.852 E10.13174
G1 X91.115 Y68.508 E10.15897
G1 X91.787 Y68.209 E10.18343
G1 X92.423 Y67.935 E10.20647
G1 X92.702 Y67.819 E10.21652
G1 X93.451 Y67.523 E10.2433
G1 X94.092 Y67.279 E10.26611
G1 X94.825 Y67.011 E10.29207
G1 X95.104 Y66.913 E10.30191
G1 X95.903 Y66.647 E10.32992
G1 X96.623 Y66.419 E10.35504
G1 X97.232 Y66.235 E10.3762
G1 X97.503 Y66.157 E10.38558
G1 X98.35 Y65.927 E10.41477
G1 X99.074 Y65.742 E10.43962
G1 X99.732 Y65.583 E10.46214
G1 X99.997 Y65.522 E10.47118
G1 X100.635 Y65.385 E10.49288
G1 X101.563 Y65.2 E10.52436
G1 X102.215 Y65.08 E10.54641
G1 X102.503 Y65.031 E10.55612
G1 X103.203 Y64.922 E10.57969
G1 X104.058 Y64.801 E10.60841
G1 X104.731 Y64.715 E10.63097
G1 X105.041 Y64.681 E10.64134
G1 X105.916 Y64.596 E10.67058
G1 X106.528 Y64.546 E10.69101
G1 X107.351 Y64.488 E10.71845
G1 X107.652 Y64.471 E10.72848
G1 X108.382 Y64.442 E10.75277
G1 X109.197 Y64.419 E10.77989
G1 X109.855 Y64.41 E10.80178
G1 X110.158 Y64.41 E10.81186
G1 X110.968 Y64.423 E10.8388
G1 X111.761 Y64.447 E10.86519
G1 X112.397 Y64.474 E10.88636
G1 X112.683 Y64.49 E10.89589
G1 X113.555 Y64.551 E10.92496
G1 X114.258 Y64.612 E10.94843
G1 X114.953 Y64.681 E10.97166
G1 X115.233 Y64.712 E10.98103
G1 X116.131 Y64.827 E11.01114
G1 X116.804 Y64.923 E11.03375
G1 X117.507 Y65.033 E11.05742
G1 X117.79 Y65.082 E11.06697
G1 X118.618 Y65.235 E11.09498
G1 X119.296 Y65.371 E11.11798
G1 X119.996 Y65.519 E11.14177
G1 X120.322 Y65.594 E11.1529
G1 X121.105 Y65.786 E11.17972
