;FLAVOR:Marlin
;TIME:9916
;Filament used: 8.1246m
;Layer height: 0.2
;MINX:54.011
;MINY:54.011
;MINZ:0.2
;MAXX:165.989
;MAXY:165.989
;MAXZ:11
;Generated with Cura_SteamEngine 4.10.0
M140 S60
M105
M190 S60
M104 S200
M105
M109 S200
M82 ;absolute extrusion mode
; Ender 3 Custom Start G-code
G92 E0 ; Reset Extruder
G28 ; Home all axes
G1 Z2.0 F3000 ; Move Z Axis up little to prevent scratching of Heat Bed
G1 X0.1 Y20 Z0.3 F5000.0 ; Move to start position
G1 X0.1 Y200.0 Z0.3 F1500.0 E15 ; Draw the first line
G1 X0.4 Y200.0 Z0.3 F5000.0 ; Move to side a little
G1 X0.4 Y20 Z0.3 F1500.0 E30 ; Draw the second line
G92 E0 ; Reset Extruder
G1 Z2.0 F3000 ; Move Z Axis up little to prevent scratching of Heat Bed
G1 X5 Y20 Z0.3 F5000.0 ; Move over to prevent blob squish
G92 E0
G92 E0
G1 F1500 E-6.5
;LAYER_COUNT:55
;LAYER:0
M107
G0 F6000 X70.322 Y70.497 Z0.2
;TYPE:SKIRT
G1 F1500 E0
G1 F1200 X70.539 Y70.28 E0.01021
G1 X71.105 Y69.732 E0.03641
G1 X72.059 Y68.831 E0.08005
G1 X72.582 Y68.35 E0.10369
G1 X72.826 Y68.131 E0.11459
G1 X73.476 Y67.57 E0.14315
G1 X74.41 Y66.784 E0.18375
G1 X74.988 Y66.309 E0.20863
G1 X75.24 Y66.107 E0.21938
G1 X75.864 Y65.626 E0.24558
G1 X76.916 Y64.836 E0.28934
G1 X77.485 Y64.42 E0.31278
G1 X77.738 Y64.24 E0.32311
G1 X78.403 Y63.783 E0.34995
G1 X79.484 Y63.061 E0.39318
G1 X80.097 Y62.664 E0.41747
G1 X80.362 Y62.498 E0.42787
G1 X81.085 Y62.059 E0.45601
G1 X82.005 Y61.517 E0.49152
G1 X82.811 Y61.057 E0.52239
G1 X83.067 Y60.916 E0.53211
G1 X83.81 Y60.519 E0.56013
G1 X84.927 Y59.942 E0.60194
G1 X85.591 Y59.611 E0.62662
G1 X85.863 Y59.48 E0.63666
G1 X86.63 Y59.125 E0.66477
G1 X87.762 Y58.62 E0.706
G1 X88.454 Y58.322 E0.73106
G1 X88.731 Y58.207 E0.74103
G1 X89.503 Y57.901 E0.76865
G1 X90.654 Y57.463 E0.80961
G1 X91.404 Y57.189 E0.83617
G1 X91.685 Y57.091 E0.84607
G1 X92.45 Y56.836 E0.87289
G1 X93.719 Y56.433 E0.91717
G1 X94.347 Y56.243 E0.939
G1 X94.644 Y56.158 E0.94927
G1 X95.491 Y55.928 E0.97846
G1 X96.7 Y55.617 E1.01998
G1 X97.398 Y55.448 E1.04387
G1 X97.683 Y55.383 E1.05359
G1 X98.544 Y55.2 E1.08287
G1 X99.793 Y54.952 E1.12522
G1 X100.482 Y54.825 E1.14852
G1 X100.786 Y54.774 E1.15878
G1 X101.601 Y54.648 E1.18621
G1 X102.87 Y54.471 E1.22882
G1 X103.575 Y54.381 E1.25246
G1 X103.894 Y54.345 E1.26314
G1 X104.74 Y54.263 E1.29141
G1 X106.034 Y54.155 E1.3346
G1 X106.704 Y54.108 E1.35693
G1 X107.014 Y54.091 E1.36726
G1 X107.885 Y54.055 E1.39626
G1 X109.104 Y54.022 E1.43681
G1 X109.835 Y54.011 E1.46113
G1 X110.165 Y54.011 E1.47211
G1 X111.04 Y54.025 E1.50121
G1 X112.293 Y54.061 E1.5429
G1 X113.003 Y54.091 E1.56654
G1 X113.323 Y54.109 E1.5772
G1 X114.106 Y54.166 E1.60331
G1 X115.395 Y54.275 E1.64634
G1 X116.13 Y54.347 E1.6709
G1 X116.443 Y54.382 E1.68138
G1 X117.105 Y54.466 E1.70357
G1 X118.428 Y54.653 E1.74801
G1 X119.241 Y54.779 E1.77537
G1 X119.535 Y54.829 E1.78529
G1 X120.325 Y54.975 E1.81201
G1 X121.575 Y55.224 E1.85441
G1 X122.32 Y55.382 E1.87974
G1 X122.655 Y55.459 E1.89117
G1 X123.434 Y55.65 E1.91785
G1 X124.672 Y55.971 E1.96038
G1 X125.378 Y56.164 E1.98473
G1 X125.664 Y56.247 E1.99463
G1 X126.435 Y56.481 E2.02143
G1 X127.681 Y56.879 E2.06493
G1 X128.341 Y57.1 E2.08808
G1 X128.626 Y57.2 E2.09813
G1 X129.479 Y57.513 E2.12835
G1 X130.457 Y57.886 E2.16316
G1 X131.31 Y58.225 E2.19369
G1 X131.593 Y58.342 E2.20388
G1 X132.344 Y58.667 E2.2311
G1 X133.518 Y59.193 E2.27388
G1 X134.173 Y59.498 E2.29792
G1 X134.43 Y59.622 E2.30741
G1 X135.202 Y60.008 E2.33611
G1 X136.349 Y60.602 E2.37908
G1 X136.951 Y60.924 E2.40178
G1 X137.216 Y61.07 E2.41185
G1 X137.831 Y61.421 E2.4354
G1 X138.994 Y62.108 E2.48032
G1 X139.663 Y62.515 E2.50637
G1 X139.92 Y62.676 E2.51646
G1 X140.523 Y63.066 E2.54034
G1 X141.565 Y63.762 E2.58202
G1 X142.287 Y64.259 E2.61117
G1 X142.529 Y64.43 E2.62103
G1 X143.225 Y64.94 E2.64973
G1 X144.225 Y65.694 E2.69138
G1 X144.774 Y66.119 E2.71447
G1 X145.017 Y66.313 E2.72481
G1 X145.703 Y66.877 E2.75435
G1 X146.626 Y67.658 E2.79457
G1 X147.208 Y68.164 E2.82022
G1 X147.43 Y68.362 E2.83011
G1 X148.059 Y68.941 E2.85855
G1 X148.979 Y69.812 E2.90068
G1 X149.503 Y70.322 E2.925
G1 X149.72 Y70.539 E2.93521
G1 X150.268 Y71.105 E2.96141
G1 X151.169 Y72.058 E3.00503
G1 X151.64 Y72.57 E3.02817
G1 X151.855 Y72.811 E3.03891
G1 X152.43 Y73.476 E3.06815
G1 X153.216 Y74.41 E3.10875
G1 X153.691 Y74.988 E3.13364
G1 X153.893 Y75.24 E3.14438
G1 X154.374 Y75.864 E3.17058
G1 X155.16 Y76.911 E3.21413
G1 X155.575 Y77.478 E3.2375
G1 X155.762 Y77.74 E3.2482
G1 X156.217 Y78.403 E3.27495
G1 X156.937 Y79.481 E3.31807
G1 X157.322 Y80.075 E3.34161
G1 X157.487 Y80.338 E3.35194
G1 X157.941 Y81.085 E3.38101
G1 X158.483 Y82.005 E3.41652
G1 X158.943 Y82.811 E3.44739
G1 X159.084 Y83.067 E3.45711
G1 X159.481 Y83.81 E3.48513
G1 X160.052 Y84.915 E3.5265
G1 X160.372 Y85.555 E3.5503
G1 X160.51 Y85.841 E3.56086
G1 X160.875 Y86.63 E3.58977
G1 X161.38 Y87.762 E3.631
G1 X161.678 Y88.454 E3.65606
G1 X161.793 Y88.731 E3.66604
G1 X162.099 Y89.503 E3.69366
G1 X162.535 Y90.65 E3.73447
G1 X162.809 Y91.399 E3.761
G1 X162.911 Y91.689 E3.77122
G1 X163.164 Y92.45 E3.79789
G1 X163.565 Y93.714 E3.842
G1 X163.755 Y94.341 E3.86379
G1 X163.843 Y94.647 E3.87438
G1 X164.072 Y95.491 E3.90347
G1 X164.342 Y96.535 E3.93933
G1 X164.551 Y97.394 E3.96874
G1 X164.618 Y97.685 E3.97867
G1 X164.8 Y98.544 E4.00787
G1 X165.048 Y99.797 E4.05036
G1 X165.172 Y100.471 E4.07315
G1 X165.222 Y100.76 E4.08291
G1 X165.352 Y101.601 E4.11121
G1 X165.53 Y102.872 E4.1539
G1 X165.619 Y103.57 E4.1773
G1 X165.654 Y103.882 E4.18774
G1 X165.737 Y104.74 E4.21641
G1 X165.845 Y106.033 E4.25957
G1 X165.892 Y106.702 E4.28187
G1 X165.909 Y107.013 E4.29223
G1 X165.945 Y107.885 E4.32126
G1 X165.978 Y109.101 E4.36172
G1 X165.989 Y109.816 E4.3855
G1 X165.989 Y110.146 E4.39648
G1 X165.975 Y111.04 E4.42622
G1 X165.939 Y112.293 E4.46791
G1 X165.909 Y113.003 E4.49154
G1 X165.891 Y113.323 E4.5022
G1 X165.834 Y114.106 E4.52832
G1 X165.725 Y115.395 E4.57134
G1 X165.655 Y116.11 E4.59524
G1 X165.621 Y116.412 E4.60534
G1 X165.512 Y117.264 E4.63391
G1 X165.326 Y118.572 E4.67785
G1 X165.225 Y119.223 E4.69977
G1 X165.173 Y119.528 E4.71006
G1 X165.029 Y120.308 E4.73644
G1 X164.776 Y121.575 E4.77941
G1 X164.618 Y122.32 E4.80474
G1 X164.541 Y122.655 E4.81617
G1 X164.35 Y123.434 E4.84285
G1 X164.031 Y124.664 E4.88511
G1 X163.844 Y125.35 E4.90876
G1 X163.759 Y125.643 E4.91891
G1 X163.519 Y126.435 E4.94643
G1 X163.121 Y127.681 E4.98994
G1 X162.9 Y128.341 E5.01309
G1 X162.8 Y128.626 E5.02314
G1 X162.487 Y129.479 E5.05336
G1 X162.057 Y130.602 E5.09335
G1 X161.785 Y131.286 E5.11783
G1 X161.667 Y131.571 E5.12809
G1 X161.333 Y132.344 E5.1561
G1 X160.808 Y133.516 E5.19881
G1 X160.506 Y134.165 E5.22262
G1 X160.381 Y134.424 E5.23219
G1 X159.992 Y135.202 E5.26112
G1 X159.401 Y136.343 E5.30386
G1 X159.08 Y136.944 E5.32652
G1 X158.928 Y137.22 E5.337
G1 X158.576 Y137.836 E5.3606
G1 X157.892 Y138.994 E5.40533
G1 X157.485 Y139.663 E5.43137
G1 X157.324 Y139.92 E5.44146
G1 X156.934 Y140.523 E5.46535
G1 X156.238 Y141.565 E5.50702
G1 X155.743 Y142.285 E5.53608
G1 X155.573 Y142.524 E5.54584
G1 X155.06 Y143.225 E5.57473
G1 X154.303 Y144.228 E5.61652
G1 X153.866 Y144.792 E5.64026
G1 X153.673 Y145.035 E5.65058
G1 X153.123 Y145.703 E5.67936
G1 X152.341 Y146.628 E5.71964
G1 X151.84 Y147.204 E5.74503
G1 X151.647 Y147.419 E5.75464
G1 X151.059 Y148.059 E5.78355
G1 X150.188 Y148.979 E5.82569
G1 X149.678 Y149.503 E5.85001
G1 X149.469 Y149.712 E5.85984
G1 X148.895 Y150.269 E5.88644
G1 X147.942 Y151.169 E5.93004
G1 X147.43 Y151.64 E5.95318
G1 X147.189 Y151.855 E5.96392
G1 X146.524 Y152.43 E5.99316
G1 X145.59 Y153.216 E6.03376
G1 X145.012 Y153.691 E6.05864
G1 X144.76 Y153.893 E6.06938
G1 X144.136 Y154.374 E6.09559
G1 X143.089 Y155.16 E6.13913
G1 X142.522 Y155.575 E6.1625
G1 X142.26 Y155.762 E6.17321
G1 X141.597 Y156.217 E6.19995
G1 X140.519 Y156.937 E6.24307
G1 X139.908 Y157.333 E6.26729
G1 X139.638 Y157.502 E6.27788
G1 X138.915 Y157.941 E6.30601
G1 X137.995 Y158.483 E6.34153
G1 X137.2 Y158.937 E6.37198
G1 X136.937 Y159.083 E6.38198
G1 X136.19 Y159.481 E6.41014
G1 X135.079 Y160.055 E6.45173
G1 X134.426 Y160.381 E6.476
G1 X134.147 Y160.515 E6.4863
G1 X133.37 Y160.875 E6.51478
G1 X132.229 Y161.384 E6.55633
G1 X131.54 Y161.68 E6.58128
G1 X131.266 Y161.793 E6.59113
G1 X130.501 Y162.097 E6.61851
G1 X129.335 Y162.541 E6.66001
G1 X128.59 Y162.813 E6.68639
G1 X128.301 Y162.914 E6.69657
G1 X127.562 Y163.159 E6.72247
G1 X126.339 Y163.548 E6.76515
G1 X125.618 Y163.767 E6.79021
G1 X125.301 Y163.858 E6.80118
G1 X124.564 Y164.058 E6.82658
G1 X123.466 Y164.342 E6.8643
G1 X122.602 Y164.552 E6.89388
G1 X122.317 Y164.617 E6.9036
G1 X121.456 Y164.8 E6.93288
G1 X120.207 Y165.048 E6.97523
G1 X119.518 Y165.175 E6.99853
G1 X119.214 Y165.226 E7.00878
G1 X118.399 Y165.352 E7.03621
G1 X117.13 Y165.529 E7.07883
G1 X116.425 Y165.619 E7.10247
G1 X116.106 Y165.655 E7.11315
G1 X115.26 Y165.737 E7.14142
G1 X113.966 Y165.845 E7.1846
G1 X113.296 Y165.892 E7.20694
G1 X112.986 Y165.909 E7.21727
G1 X112.115 Y165.945 E7.24626
G1 X110.896 Y165.978 E7.28682
G1 X110.165 Y165.989 E7.31114
G1 X109.835 Y165.989 E7.32211
G1 X108.96 Y165.975 E7.35122
G1 X107.707 Y165.939 E7.39291
G1 X106.997 Y165.909 E7.41655
G1 X106.677 Y165.891 E7.42721
G1 X105.894 Y165.834 E7.45332
G1 X104.605 Y165.725 E7.49635
G1 X103.87 Y165.653 E7.52091
G1 X103.557 Y165.618 E7.53138
G1 X102.895 Y165.534 E7.55358
G1 X101.428 Y165.326 E7.60286
G1 X100.803 Y165.229 E7.6239
G1 X100.485 Y165.175 E7.63462
G1 X99.601 Y165.01 E7.66453
G1 X98.424 Y164.776 E7.70445
G1 X97.715 Y164.626 E7.72855
G1 X97.37 Y164.547 E7.74032
G1 X96.537 Y164.342 E7.76885
G1 X95.291 Y164.02 E7.81166
G1 X94.628 Y163.838 E7.83452
G1 X94.351 Y163.758 E7.84411
G1 X93.546 Y163.513 E7.8721
G1 X92.319 Y163.121 E7.91494
G1 X91.659 Y162.9 E7.93809
G1 X91.374 Y162.8 E7.94814
G1 X90.521 Y162.487 E7.97836
G1 X89.543 Y162.114 E8.01317
G1 X88.69 Y161.775 E8.0437
G1 X88.407 Y161.658 E8.05389
G1 X87.656 Y161.333 E8.08111
G1 X86.482 Y160.807 E8.12389
G1 X85.827 Y160.502 E8.14792
G1 X85.57 Y160.378 E8.15741
G1 X84.798 Y159.992 E8.18612
G1 X83.653 Y159.399 E8.22901
G1 X83.045 Y159.074 E8.25194
G1 X82.779 Y158.927 E8.26205
G1 X82.057 Y158.513 E8.28973
G1 X80.949 Y157.859 E8.33252
G1 X80.323 Y157.477 E8.35691
G1 X80.087 Y157.329 E8.36618
G1 X79.52 Y156.963 E8.38863
G1 X78.414 Y156.224 E8.43287
G1 X77.687 Y155.723 E8.46223
G1 X77.461 Y155.562 E8.47146
G1 X76.816 Y155.091 E8.49803
G1 X75.77 Y154.302 E8.5416
G1 X75.205 Y153.864 E8.56538
G1 X74.966 Y153.673 E8.57556
G1 X74.297 Y153.123 E8.60436
G1 X73.374 Y152.342 E8.64458
G1 X72.792 Y151.836 E8.67023
G1 X72.57 Y151.638 E8.68012
G1 X71.941 Y151.059 E8.70855
G1 X71.021 Y150.188 E8.75069
G1 X70.497 Y149.678 E8.77501
G1 X70.28 Y149.461 E8.78522
G1 X69.732 Y148.895 E8.81142
G1 X68.832 Y147.943 E8.855
G1 X68.36 Y147.43 E8.87818
G1 X68.143 Y147.187 E8.88902
G1 X67.57 Y146.524 E8.91816
G1 X66.785 Y145.592 E8.95869
G1 X66.309 Y145.013 E8.98362
G1 X66.105 Y144.756 E8.99454
G1 X65.626 Y144.136 E9.02059
G1 X64.84 Y143.089 E9.06414
G1 X64.425 Y142.522 E9.08751
G1 X64.238 Y142.26 E9.09821
G1 X63.783 Y141.597 E9.12496
G1 X63.153 Y140.656 E9.16262
G1 X62.669 Y139.91 E9.1922
G1 X62.494 Y139.632 E9.20313
G1 X62.059 Y138.915 E9.23102
G1 X61.517 Y137.995 E9.26653
G1 X61.059 Y137.193 E9.29725
G1 X60.911 Y136.926 E9.30741
G1 X60.519 Y136.19 E9.33514
G1 X59.945 Y135.079 E9.37673
G1 X59.619 Y134.426 E9.40101
G1 X59.485 Y134.147 E9.4113
G1 X59.125 Y133.37 E9.43978
G1 X58.616 Y132.229 E9.48134
G1 X58.32 Y131.54 E9.50628
G1 X58.207 Y131.266 E9.51614
G1 X57.903 Y130.501 E9.54352
G1 X57.459 Y129.335 E9.58502
G1 X57.187 Y128.59 E9.61139
G1 X57.086 Y128.301 E9.62158
G1 X56.841 Y127.562 E9.64747
G1 X56.452 Y126.339 E9.69016
G1 X56.233 Y125.618 E9.71522
G1 X56.142 Y125.301 E9.72619
G1 X55.942 Y124.564 E9.75159
G1 X55.658 Y123.466 E9.78931
G1 X55.448 Y122.602 E9.81888
G1 X55.383 Y122.317 E9.82861
G1 X55.2 Y121.456 E9.85788
G1 X54.952 Y120.207 E9.90023
G1 X54.825 Y119.518 E9.92354
G1 X54.774 Y119.214 E9.93379
G1 X54.648 Y118.399 E9.96122
G1 X54.471 Y117.13 E10.00383
G1 X54.381 Y116.425 E10.02747
G1 X54.345 Y116.106 E10.03815
G1 X54.263 Y115.26 E10.06642
G1 X54.155 Y113.961 E10.10977
G1 X54.108 Y113.287 E10.13225
G1 X54.091 Y112.985 E10.14231
G1 X54.055 Y112.115 E10.17127
G1 X54.022 Y110.892 E10.21196
G1 X54.011 Y110.147 E10.23674
G1 X54.011 Y109.818 E10.24768
G1 X54.025 Y108.96 E10.27622
G1 X54.061 Y107.707 E10.31792
G1 X54.091 Y106.997 E10.34155
G1 X54.109 Y106.677 E10.35221
G1 X54.166 Y105.894 E10.37832
G1 X54.275 Y104.605 E10.42135
G1 X54.347 Y103.87 E10.44591
G1 X54.382 Y103.557 E10.45639
G1 X54.466 Y102.895 E10.47858
G1 X54.653 Y101.572 E10.52302
G1 X54.779 Y100.759 E10.55039
G1 X54.829 Y100.465 E10.56031
G1 X54.975 Y99.675 E10.58703
G1 X55.224 Y98.425 E10.62942
G1 X55.382 Y97.68 E10.65475
G1 X55.459 Y97.345 E10.66618
G1 X55.65 Y96.566 E10.69286
G1 X55.971 Y95.328 E10.7354
G1 X56.164 Y94.622 E10.75974
G1 X56.247 Y94.336 E10.76964
G1 X56.481 Y93.565 E10.79644
G1 X56.828 Y92.475 E10.83449
G1 X57.107 Y91.641 E10.86374
G1 X57.206 Y91.359 E10.87368
G1 X57.513 Y90.521 E10.90336
G1 X57.886 Y89.543 E10.93818
G1 X58.225 Y88.69 E10.96871
G1 X58.342 Y88.407 E10.97889
G1 X58.667 Y87.656 E11.00611
G1 X59.193 Y86.482 E11.0489
G1 X59.498 Y85.827 E11.07293
G1 X59.622 Y85.57 E11.08242
G1 X60.008 Y84.798 E11.11112
G1 X60.598 Y83.658 E11.15382
G1 X60.921 Y83.053 E11.17663
G1 X61.076 Y82.773 E11.18727
G1 X61.504 Y82.028 E11.21585
G1 X62.108 Y81.006 E11.25533
G1 X62.515 Y80.337 E11.28138
G1 X62.676 Y80.08 E11.29147
G1 X63.066 Y79.477 E11.31535
G1 X63.762 Y78.435 E11.35703
G1 X64.259 Y77.713 E11.38618
G1 X64.43 Y77.471 E11.39604
G1 X64.94 Y76.775 E11.42474
G1 X65.698 Y75.77 E11.4666
G1 X66.136 Y75.205 E11.49038
G1 X66.327 Y74.966 E11.50056
G1 X66.877 Y74.297 E11.52936
G1 X67.658 Y73.374 E11.56958
G1 X68.164 Y72.792 E11.59523
G1 X68.362 Y72.57 E11.60512
G1 X68.941 Y71.941 E11.63356
G1 X69.812 Y71.021 E11.67569
G1 X70.322 Y70.497 E11.70001
G0 F6000 X70.609 Y70.776
G1 F1200 X70.818 Y70.567 E11.70984
G1 X71.38 Y70.022 E11.73588
G1 X72.329 Y69.125 E11.77932
G1 X72.852 Y68.644 E11.80295
G1 X73.088 Y68.434 E11.81346
G1 X73.734 Y67.875 E11.84187
G1 X74.664 Y67.093 E11.88228
G1 X75.242 Y66.618 E11.90717
G1 X75.485 Y66.424 E11.91751
G1 X76.104 Y65.946 E11.94352
G1 X77.152 Y65.159 E11.98711
G1 X77.721 Y64.743 E12.01055
G1 X77.965 Y64.57 E12.0205
G1 X78.626 Y64.116 E12.04717
G1 X79.702 Y63.397 E12.09022
G1 X80.315 Y63 E12.11451
G1 X80.569 Y62.84 E12.12449
G1 X81.289 Y62.404 E12.15249
G1 X82.339 Y61.787 E12.19299
G1 X83.009 Y61.405 E12.21865
G1 X83.256 Y61.268 E12.22804
G1 X83.994 Y60.874 E12.25586
G1 X85.105 Y60.3 E12.29746
G1 X85.769 Y59.969 E12.32213
G1 X86.031 Y59.843 E12.3318
G1 X86.793 Y59.49 E12.35973
G1 X87.92 Y58.987 E12.40078
G1 X88.612 Y58.689 E12.42584
G1 X88.879 Y58.579 E12.43545
G1 X89.645 Y58.275 E12.46286
G1 X90.792 Y57.839 E12.50367
G1 X91.542 Y57.565 E12.53023
G1 X91.812 Y57.47 E12.53975
G1 X92.571 Y57.217 E12.56636
G1 X93.834 Y56.816 E12.61043
G1 X94.462 Y56.626 E12.63225
G1 X94.749 Y56.544 E12.64218
G1 X95.591 Y56.316 E12.67119
G1 X96.795 Y56.006 E12.71255
G1 X97.493 Y55.837 E12.73643
G1 X97.767 Y55.774 E12.74578
G1 X98.622 Y55.592 E12.77486
G1 X99.717 Y55.374 E12.81199
G1 X100.555 Y55.219 E12.84034
G1 X100.847 Y55.169 E12.85019
G1 X101.656 Y55.044 E12.87742
G1 X102.921 Y54.867 E12.9199
G1 X103.626 Y54.777 E12.94354
G1 X103.933 Y54.743 E12.95381
G1 X104.774 Y54.661 E12.98192
G1 X106.062 Y54.554 E13.0249
G1 X106.732 Y54.507 E13.04724
G1 X107.03 Y54.49 E13.05717
G1 X107.896 Y54.455 E13.086
G1 X109.111 Y54.422 E13.12642
G1 X109.842 Y54.411 E13.15074
G1 X110.159 Y54.411 E13.16128
G1 X111.029 Y54.425 E13.19022
G1 X112.276 Y54.46 E13.23172
G1 X112.986 Y54.49 E13.25535
G1 X113.294 Y54.508 E13.26561
G1 X114.072 Y54.564 E13.29156
G1 X115.356 Y54.673 E13.33442
G1 X116.091 Y54.745 E13.35898
G1 X116.392 Y54.779 E13.36905
G1 X117.206 Y54.884 E13.39635
G1 X118.519 Y55.071 E13.44046
G1 X119.179 Y55.174 E13.46268
G1 X119.463 Y55.222 E13.47226
G1 X120.247 Y55.367 E13.49878
G1 X121.492 Y55.616 E13.54101
G1 X122.237 Y55.774 E13.56634
G1 X122.56 Y55.847 E13.57735
