;FLAVOR:Marlin
;TIME:995
;Filament used: 0.5377m
;Layer height: 0.2
;MINX:85.036
;MINY:85.036
;MINZ:0.2
;MAXX:134.964
;MAXY:134.964
;MAXZ:5.4
;Generated with Cura_SteamEngine 4.10.0
M140 S60
M105
M190 S60
M104 S200
M105
M109 S200
M82 ;absolute extrusion mode
; Ender 3 Custom Start G-code
G92 E0 ; Reset Extruder
G28 ; Home all axes
G1 Z2.0 F3000 ; Move Z Axis up little to prevent scratching of Heat Bed
G1 X0.1 Y20 Z0.3 F5000.0 ; Move to start position
G1 X0.1 Y200.0 Z0.3 F1500.0 E15 ; Draw the first line
G1 X0.4 Y200.0 Z0.3 F5000.0 ; Move to side a little
G1 X0.4 Y20 Z0.3 F1500.0 E30 ; Draw the second line
G92 E0 ; Reset Extruder
G1 Z2.0 F3000 ; Move Z Axis up little to prevent scratching of Heat Bed
G1 X5 Y20 Z0.3 F5000.0 ; Move over to prevent blob squish
G92 E0
G92 E0
G1 F1500 E-6.5
;LAYER_COUNT:27
;LAYER:0
M107
G0 F6000 X93.24 Y91.456 Z0.2
;TYPE:SKIRT
G1 F1500 E0
G1 F1200 X93.922 Y90.812 E0.0312
G1 X94.657 Y90.229 E0.0624
G1 X95.184 Y89.869 E0.08363
G1 X96.127 Y89.266 E0.12086
G1 X98.013 Y88.106 E0.1945
G1 X98.612 Y87.749 E0.21769
G1 X99.438 Y87.304 E0.2489
G1 X100.298 Y86.93 E0.28009
G1 X100.904 Y86.717 E0.30146
G1 X101.745 Y86.449 E0.33081
G1 X101.94 Y86.389 E0.3376
G1 X103.971 Y85.783 E0.40809
G1 X104.745 Y85.563 E0.43486
G1 X105.657 Y85.345 E0.46604
G1 X106.585 Y85.207 E0.49725
G1 X107.247 Y85.156 E0.51933
G1 X108.214 Y85.112 E0.55153
G1 X108.406 Y85.105 E0.55792
G1 X110.602 Y85.045 E0.63099
G1 X111.262 Y85.036 E0.65294
G1 X112.199 Y85.063 E0.68412
G1 X113.131 Y85.17 E0.71532
G1 X113.765 Y85.29 E0.73678
G1 X114.849 Y85.529 E0.7737
G1 X116.988 Y86.038 E0.84683
G1 X117.673 Y86.211 E0.87033
G1 X118.571 Y86.479 E0.9015
G1 X119.444 Y86.823 E0.93271
G1 X120.044 Y87.111 E0.95484
G1 X120.9 Y87.555 E0.98692
G1 X122.852 Y88.608 E1.06068
G1 X123.576 Y89.011 E1.08824
G1 X124.374 Y89.503 E1.11942
G1 X125.128 Y90.062 E1.15064
G1 X125.628 Y90.492 E1.17258
G1 X126.412 Y91.209 E1.20791
G1 X127.942 Y92.655 E1.27793
G1 X128.545 Y93.241 E1.3059
G1 X129.189 Y93.924 E1.33712
G1 X129.772 Y94.658 E1.3683
G1 X130.131 Y95.184 E1.38948
G1 X130.625 Y95.954 E1.41991
G1 X130.734 Y96.128 E1.42673
G1 X131.881 Y97.992 E1.49953
G1 X132.257 Y98.622 E1.52393
G1 X132.703 Y99.447 E1.55512
G1 X133.076 Y100.307 E1.5863
G1 X133.286 Y100.902 E1.60729
G1 X133.46 Y101.445 E1.62625
G1 X133.525 Y101.655 E1.63356
G1 X134.241 Y104.056 E1.7169
G1 X134.432 Y104.725 E1.74004
G1 X134.651 Y105.637 E1.77123
G1 X134.791 Y106.564 E1.80241
G1 X134.844 Y107.251 E1.82533
G1 X134.895 Y108.414 E1.86405
G1 X134.955 Y110.602 E1.93685
G1 X134.964 Y111.262 E1.95881
G1 X134.937 Y112.199 E1.98998
G1 X134.83 Y113.131 E2.02118
G1 X134.71 Y113.765 E2.04265
G1 X134.471 Y114.849 E2.07957
G1 X133.962 Y116.988 E2.1527
G1 X133.789 Y117.673 E2.17619
G1 X133.521 Y118.571 E2.20736
G1 X133.177 Y119.444 E2.23857
G1 X132.889 Y120.044 E2.26071
G1 X132.445 Y120.9 E2.29278
G1 X131.389 Y122.856 E2.36671
G1 X130.991 Y123.572 E2.39396
G1 X130.499 Y124.37 E2.42514
G1 X129.941 Y125.124 E2.45634
G1 X129.508 Y125.628 E2.47844
G1 X128.79 Y126.413 E2.51382
G1 X127.338 Y127.949 E2.58412
G1 X126.76 Y128.544 E2.61171
G1 X126.078 Y129.188 E2.64291
G1 X125.343 Y129.771 E2.67411
G1 X124.816 Y130.131 E2.69534
G1 X123.873 Y130.734 E2.73257
G1 X121.987 Y131.894 E2.80621
G1 X121.388 Y132.251 E2.82941
G1 X120.562 Y132.696 E2.86061
G1 X119.702 Y133.07 E2.89181
G1 X119.096 Y133.283 E2.91317
G1 X118.061 Y133.611 E2.94928
G1 X115.888 Y134.258 E3.02469
G1 X115.253 Y134.438 E3.04664
G1 X114.341 Y134.655 E3.07782
G1 X113.413 Y134.794 E3.10903
G1 X112.753 Y134.844 E3.13105
G1 X111.786 Y134.888 E3.16324
G1 X111.594 Y134.895 E3.16963
G1 X109.398 Y134.955 E3.2427
G1 X108.738 Y134.964 E3.26465
G1 X107.801 Y134.937 E3.29583
G1 X106.869 Y134.83 E3.32703
G1 X106.235 Y134.71 E3.34849
G1 X105.151 Y134.471 E3.38541
G1 X103.012 Y133.962 E3.45854
G1 X102.327 Y133.789 E3.48204
G1 X101.429 Y133.521 E3.51321
G1 X100.556 Y133.177 E3.54442
G1 X99.956 Y132.889 E3.56656
G1 X99.1 Y132.445 E3.59863
G1 X97.144 Y131.389 E3.67256
G1 X96.428 Y130.991 E3.69981
G1 X95.63 Y130.499 E3.73099
G1 X94.876 Y129.941 E3.76219
G1 X94.372 Y129.508 E3.78429
G1 X93.588 Y128.79 E3.81965
G1 X91.915 Y127.207 E3.89625
G1 X91.452 Y126.756 E3.91775
G1 X90.808 Y126.073 E3.94897
G1 X90.225 Y125.338 E3.98018
G1 X89.869 Y124.816 E4.00119
G1 X89.375 Y124.046 E4.03162
G1 X89.265 Y123.871 E4.03849
G1 X88.09 Y121.96 E4.11311
G1 X87.75 Y121.39 E4.13518
G1 X87.304 Y120.565 E4.16637
G1 X86.931 Y119.705 E4.19755
G1 X86.714 Y119.087 E4.21934
G1 X86.389 Y118.06 E4.25517
G1 X85.736 Y115.866 E4.3313
G1 X85.562 Y115.252 E4.35253
G1 X85.345 Y114.34 E4.38371
G1 X85.206 Y113.412 E4.41492
G1 X85.156 Y112.753 E4.4369
G1 X85.112 Y111.786 E4.46909
G1 X85.105 Y111.594 E4.47548
G1 X85.045 Y109.398 E4.54855
G1 X85.036 Y108.738 E4.5705
G1 X85.063 Y107.801 E4.60168
G1 X85.17 Y106.869 E4.63288
G1 X85.29 Y106.235 E4.65435
G1 X85.529 Y105.151 E4.69127
G1 X86.038 Y103.012 E4.7644
G1 X86.211 Y102.327 E4.78789
G1 X86.479 Y101.429 E4.81906
G1 X86.823 Y100.556 E4.85027
G1 X87.111 Y99.956 E4.87241
G1 X87.555 Y99.1 E4.90448
G1 X88.611 Y97.144 E4.97841
G1 X89.009 Y96.428 E5.00566
G1 X89.501 Y95.63 E5.03684
G1 X90.059 Y94.876 E5.06804
G1 X90.492 Y94.372 E5.09014
G1 X91.21 Y93.587 E5.12552
G1 X92.662 Y92.051 E5.19582
G1 X93.24 Y91.456 E5.22341
G0 F6000 X93.527 Y91.735
G1 F1200 X94.197 Y91.104 E5.25402
G1 X94.919 Y90.533 E5.28464
G1 X95.4 Y90.205 E5.304
G1 X96.17 Y89.711 E5.33443
G1 X96.337 Y89.606 E5.34099
G1 X98.088 Y88.528 E5.40938
G1 X98.817 Y88.093 E5.43762
G1 X99.628 Y87.656 E5.46826
G1 X100.473 Y87.291 E5.49887
G1 X101.026 Y87.098 E5.51836
G1 X101.867 Y86.83 E5.54771
G1 X104.223 Y86.126 E5.6295
G1 X104.854 Y85.947 E5.65131
G1 X105.75 Y85.735 E5.68194
G1 X106.661 Y85.601 E5.71256
G1 X107.265 Y85.556 E5.73271
G1 X108.418 Y85.505 E5.77109
G1 X110.607 Y85.445 E5.84393
G1 X111.267 Y85.436 E5.86588
G1 X112.188 Y85.463 E5.89653
G1 X113.102 Y85.571 E5.92714
G1 X113.68 Y85.68 E5.9467
G1 X114.575 Y85.876 E5.97717
G1 X116.744 Y86.39 E6.05131
G1 X117.575 Y86.599 E6.07981
G1 X118.457 Y86.863 E6.11044
G1 X119.312 Y87.202 E6.14103
G1 X119.86 Y87.466 E6.16126
G1 X120.716 Y87.91 E6.19333
G1 X122.662 Y88.96 E6.26688
G1 X123.381 Y89.361 E6.29426
G1 X124.164 Y89.844 E6.32486
G1 X124.903 Y90.394 E6.3555
G1 X125.358 Y90.787 E6.37549
G1 X126.137 Y91.5 E6.41062
G1 X127.667 Y92.946 E6.48064
G1 X128.266 Y93.528 E6.50841
G1 X128.897 Y94.198 E6.53902
G1 X129.468 Y94.921 E6.56967
G1 X129.795 Y95.4 E6.58896
G1 X130.289 Y96.17 E6.61938
G1 X130.394 Y96.337 E6.62595
G1 X131.462 Y98.072 E6.69371
G1 X131.913 Y98.827 E6.72296
G1 X132.35 Y99.637 E6.75357
G1 X132.715 Y100.482 E6.78419
G1 X132.905 Y101.024 E6.80329
G1 X133.142 Y101.769 E6.82929
G1 X133.857 Y104.166 E6.91249
G1 X134.048 Y104.835 E6.93563
G1 X134.262 Y105.73 E6.96623
G1 X134.397 Y106.641 E6.99686
G1 X134.444 Y107.269 E7.01781
G1 X134.495 Y108.425 E7.0563
G1 X134.555 Y110.607 E7.1289
G1 X134.564 Y111.267 E7.15085
G1 X134.537 Y112.188 E7.1815
G1 X134.429 Y113.102 E7.21211
G1 X134.32 Y113.68 E7.23167
G1 X134.124 Y114.575 E7.26214
G1 X133.61 Y116.744 E7.33628
G1 X133.401 Y117.575 E7.36478
G1 X133.137 Y118.457 E7.3954
G1 X132.798 Y119.312 E7.426
G1 X132.534 Y119.86 E7.44623
G1 X132.09 Y120.716 E7.4783
G1 X130.968 Y122.793 E7.55682
G1 X130.642 Y123.377 E7.57906
G1 X130.158 Y124.16 E7.60968
G1 X129.609 Y124.899 E7.6403
G1 X129.213 Y125.358 E7.66046
G1 X128.499 Y126.138 E7.69563
G1 X126.941 Y127.784 E7.77101
G1 X126.473 Y128.265 E7.79333
G1 X125.803 Y128.896 E7.82395
G1 X125.081 Y129.467 E7.85456
G1 X124.6 Y129.795 E7.87393
G1 X123.83 Y130.289 E7.90435
G1 X123.663 Y130.394 E7.91091
G1 X121.912 Y131.472 E7.9793
G1 X121.183 Y131.907 E8.00754
G1 X120.372 Y132.344 E8.03818
G1 X119.527 Y132.709 E8.0688
G1 X118.974 Y132.902 E8.08828
G1 X118.133 Y133.17 E8.11763
G1 X115.92 Y133.832 E8.19446
G1 X115.144 Y134.053 E8.2213
G1 X114.248 Y134.266 E8.25193
G1 X113.337 Y134.399 E8.28255
G1 X112.735 Y134.444 E8.30263
G1 X111.582 Y134.495 E8.34101
G1 X109.393 Y134.555 E8.41385
G1 X108.733 Y134.564 E8.4358
G1 X107.812 Y134.537 E8.46645
G1 X106.898 Y134.429 E8.49706
G1 X106.32 Y134.32 E8.51662
G1 X105.425 Y134.124 E8.5471
G1 X103.256 Y133.61 E8.62124
G1 X102.425 Y133.401 E8.64973
G1 X101.543 Y133.137 E8.68036
G1 X100.688 Y132.798 E8.71095
G1 X100.14 Y132.534 E8.73118
G1 X99.284 Y132.09 E8.76325
G1 X97.207 Y130.968 E8.84177
G1 X96.623 Y130.642 E8.86401
G1 X95.84 Y130.158 E8.89463
G1 X95.101 Y129.609 E8.92525
G1 X94.642 Y129.213 E8.94541
G1 X93.862 Y128.499 E8.98058
G1 X92.308 Y127.03 E9.05171
G1 X91.731 Y126.469 E9.07847
G1 X91.1 Y125.799 E9.10909
G1 X90.529 Y125.076 E9.13973
G1 X90.205 Y124.6 E9.15888
G1 X89.711 Y123.83 E9.18931
G1 X89.605 Y123.661 E9.19594
G1 X88.509 Y121.88 E9.2655
G1 X88.094 Y121.185 E9.29242
G1 X87.657 Y120.375 E9.32303
G1 X87.292 Y119.529 E9.35368
G1 X87.095 Y118.966 E9.37351
G1 X86.772 Y117.945 E9.40913
G1 X86.161 Y115.897 E9.48022
G1 X85.947 Y115.143 E9.50628
G1 X85.734 Y114.247 E9.53692
G1 X85.601 Y113.336 E9.56754
G1 X85.556 Y112.735 E9.58758
G1 X85.505 Y111.582 E9.62597
G1 X85.445 Y109.393 E9.6988
G1 X85.436 Y108.733 E9.72076
G1 X85.463 Y107.812 E9.7514
G1 X85.571 Y106.898 E9.78201
G1 X85.68 Y106.32 E9.80158
G1 X85.876 Y105.425 E9.83205
G1 X86.39 Y103.256 E9.90619
G1 X86.599 Y102.425 E9.93469
G1 X86.863 Y101.543 E9.96531
G1 X87.202 Y100.688 E9.9959
G1 X87.466 Y100.14 E10.01613
G1 X87.91 Y99.284 E10.04821
G1 X89.032 Y97.207 E10.12672
G1 X89.358 Y96.623 E10.14897
G1 X89.842 Y95.84 E10.17958
G1 X90.391 Y95.101 E10.2102
G1 X90.787 Y94.642 E10.23037
G1 X91.501 Y93.862 E10.26554
G1 X93.059 Y92.216 E10.34092
G1 X93.527 Y91.735 E10.36324
G0 F6000 X93.813 Y92.014
G1 F1200 X94.471 Y91.395 E10.39329
G1 X95.181 Y90.837 E10.42332
G1 X95.616 Y90.542 E10.4408
G1 X96.386 Y90.048 E10.47123
G1 X96.547 Y89.947 E10.47755
G1 X98.423 Y88.793 E10.55081
G1 X99.022 Y88.436 E10.574
G1 X99.817 Y88.009 E10.60402
G1 X100.648 Y87.653 E10.63408
G1 X101.147 Y87.48 E10.65165
G1 X102.169 Y87.156 E10.68731
G1 X104.332 Y86.511 E10.76238
G1 X104.963 Y86.332 E10.7842
G1 X105.842 Y86.124 E10.81424
G1 X106.736 Y85.995 E10.84428
G1 X107.283 Y85.956 E10.86252
G1 X108.429 Y85.905 E10.90068
G1 X110.613 Y85.845 E10.97334
G1 X111.273 Y85.836 E10.9953
G1 X112.176 Y85.864 E11.02534
G1 X113.072 Y85.971 E11.05536
G1 X113.594 Y86.071 E11.07304
G1 X114.664 Y86.307 E11.10948
G1 X116.792 Y86.814 E11.18224
G1 X117.477 Y86.987 E11.20574
G1 X118.342 Y87.246 E11.23577
G1 X119.18 Y87.581 E11.26578
G1 X119.675 Y87.822 E11.2841
G1 X120.683 Y88.346 E11.32188
G1 X122.598 Y89.382 E11.3943
G1 X123.185 Y89.71 E11.41666
G1 X123.954 Y90.185 E11.44673
G1 X124.677 Y90.726 E11.47676
G1 X125.089 Y91.082 E11.49487
G1 X125.735 Y91.672 E11.52397
G1 X127.392 Y93.237 E11.59978
G1 X127.987 Y93.815 E11.62737
G1 X128.606 Y94.473 E11.65741
G1 X129.164 Y95.183 E11.68745
G1 X129.458 Y95.616 E11.70486
G1 X129.952 Y96.386 E11.73528
G1 X130.053 Y96.547 E11.7416
G1 X131.194 Y98.402 E11.81404
G1 X131.57 Y99.032 E11.83844
G1 X131.998 Y99.827 E11.86847
G1 X132.354 Y100.657 E11.89851
G1 X132.524 Y101.146 E11.91573
G1 X132.759 Y101.884 E11.94149
G1 X133.472 Y104.276 E12.02451
G1 X133.663 Y104.945 E12.04765
G1 X133.872 Y105.823 E12.07767
G1 X134.003 Y106.717 E12.10772
G1 X134.045 Y107.287 E12.12673
G1 X134.089 Y108.265 E12.15929
G1 X134.152 Y110.466 E12.23252
G1 X134.164 Y111.273 E12.25937
G1 X134.136 Y112.176 E12.28942
G1 X134.029 Y113.072 E12.31943
G1 X133.929 Y113.594 E12.33711
G1 X133.693 Y114.664 E12.37355
G1 X133.186 Y116.792 E12.44631
G1 X133.013 Y117.477 E12.46981
G1 X132.754 Y118.342 E12.49984
G1 X132.419 Y119.18 E12.52986
G1 X132.178 Y119.675 E12.54817
G1 X131.653 Y120.685 E12.58603
G1 X130.618 Y122.598 E12.65837
G1 X130.292 Y123.182 E12.68061
G1 X129.818 Y123.95 E12.71063
G1 X129.277 Y124.673 E12.74067
G1 X128.918 Y125.089 E12.75894
G1 X128.328 Y125.735 E12.78804
G1 X126.655 Y127.505 E12.86905
G1 X126.187 Y127.986 E12.89137
G1 X125.529 Y128.605 E12.92141
G1 X124.819 Y129.163 E12.95145
G1 X124.384 Y129.458 E12.96893
G1 X123.614 Y129.952 E12.99936
G1 X123.453 Y130.053 E13.00568
G1 X121.577 Y131.207 E13.07894
G1 X120.978 Y131.564 E13.10213
G1 X120.183 Y131.991 E13.13214
G1 X119.352 Y132.347 E13.16221
G1 X118.853 Y132.52 E13.17978
G1 X117.832 Y132.844 E13.21541
G1 X115.67 Y133.488 E13.29044
G1 X115.035 Y133.668 E13.31239
G1 X114.156 Y133.876 E13.34243
G1 X113.262 Y134.005 E13.37247
G1 X112.717 Y134.044 E13.39065
G1 X111.571 Y134.095 E13.4288
G1 X109.387 Y134.155 E13.50147
G1 X108.727 Y134.164 E13.52342
G1 X107.824 Y134.136 E13.55347
G1 X106.928 Y134.029 E13.58348
G1 X106.406 Y133.929 E13.60116
G1 X105.336 Y133.693 E13.6376
G1 X103.208 Y133.186 E13.71036
G1 X102.523 Y133.013 E13.73386
G1 X101.658 Y132.754 E13.76389
G1 X100.82 Y132.419 E13.79391
G1 X100.325 Y132.178 E13.81222
G1 X99.315 Y131.653 E13.85008
G1 X97.402 Y130.618 E13.92242
G1 X96.818 Y130.292 E13.94467
G1 X96.05 Y129.818 E13.97469
G1 X95.327 Y129.277 E14.00472
G1 X94.911 Y128.918 E14.023
G1 X94.265 Y128.328 E14.0521
G1 X92.473 Y126.634 E14.13411
G1 X92.01 Y126.183 E14.15561
G1 X91.391 Y125.524 E14.18568
G1 X90.834 Y124.814 E14.2157
G1 X90.542 Y124.384 E14.23298
G1 X89.946 Y123.452 E14.26978
G1 X88.777 Y121.55 E14.34403
G1 X88.437 Y120.98 E14.36611
G1 X88.009 Y120.185 E14.39614
G1 X87.653 Y119.355 E14.42618
G1 X87.476 Y118.845 E14.44413
G1 X87.209 Y118.005 E14.47345
G1 X86.505 Y115.648 E14.55526
G1 X86.331 Y115.034 E14.57649
G1 X86.124 Y114.155 E14.60652
G1 X85.995 Y113.261 E14.63657
G1 X85.956 Y112.717 E14.65471
G1 X85.905 Y111.571 E14.69286
G1 X85.845 Y109.387 E14.76553
G1 X85.836 Y108.727 E14.78748
G1 X85.864 Y107.824 E14.81753
G1 X85.971 Y106.928 E14.84754
G1 X86.071 Y106.406 E14.86522
G1 X86.307 Y105.336 E14.90166
G1 X86.814 Y103.208 E14.97442
G1 X86.987 Y102.523 E14.99792
G1 X87.246 Y101.658 E15.02795
G1 X87.581 Y100.82 E15.05797
G1 X87.822 Y100.325 E15.07628
G1 X88.347 Y99.315 E15.11414
G1 X89.382 Y97.402 E15.18648
G1 X89.708 Y96.818 E15.20873
G1 X90.182 Y96.05 E15.23875
G1 X90.723 Y95.327 E15.26878
G1 X91.082 Y94.911 E15.28706
G1 X91.672 Y94.265 E15.31616
G1 X93.345 Y92.495 E15.39716
G1 X93.813 Y92.014 E15.41948
G0 F6000 X102.835 Y109.567
G1 F1200 X117.179 Y109.567 E15.89657
G1 X117.179 Y110.363 E15.92304
G1 X102.835 Y110.363 E16.40012
G1 X102.835 Y109.567 E16.4266
G1 F1500 E9.9266
;MESH:CR2032-Button-Battery-Holder-Case_lid.stl
G0 F6000 X101.435 Y109.567
G0 X101.235 Y111.963
;TYPE:WALL-INNER
G1 F1500 E16.4266
G1 F1200 X118.779 Y111.963 E17.01012
G1 X118.779 Y107.967 E17.14302
G1 X101.235 Y107.967 E17.72654
G1 X101.235 Y111.963 E17.85945
G0 F6000 X101.635 Y111.563
;TYPE:WALL-OUTER
G1 F1200 X118.379 Y111.563 E18.41635
G1 X118.379 Y108.367 E18.52265
G1 X101.635 Y108.367 E19.07956
G1 X101.635 Y111.563 E19.18586
G1 F1500 E12.68586
G0 F6000 X101.335 Y111.563
G0 X108.621 Y112.153
G0 X108.621 Y110.698
G0 X105.808 Y124.004
G0 X106.143 Y122.589
G0 X108.621 Y123.373
;TYPE:WALL-INNER
G1 F1500 E19.18586
G1 F1200 X105.207 Y122.562 E19.30257
G1 X102.12 Y120.893 E19.41929
G1 X99.57 Y118.482 E19.53601
G1 X97.729 Y115.492 E19.6528
G1 X96.725 Y112.13 E19.7695
G1 X96.627 Y108.621 E19.88625
G1 X97.438 Y105.207 E20.00296
G1 X99.107 Y102.12 E20.11968
G1 X101.518 Y99.57 E20.2364
G1 X104.508 Y97.729 E20.35319
G1 X107.87 Y96.725 E20.46989
G1 X111.379 Y96.627 E20.58665
G1 X114.793 Y97.438 E20.70336
G1 X117.88 Y99.107 E20.82008
G1 X120.43 Y101.518 E20.9368
G1 X122.272 Y104.509 E21.05363
G1 X123.275 Y107.87 E21.17029
G1 X123.373 Y111.379 E21.28704
G1 X122.562 Y114.793 E21.40375
G1 X120.893 Y117.88 E21.52047
G1 X118.482 Y120.43 E21.63719
G1 X115.492 Y122.271 E21.75398
G1 X112.13 Y123.275 E21.87068
G1 X108.621 Y123.373 E21.98744
G0 F6000 X108.581 Y123.774
;TYPE:WALL-OUTER
G1 F1200 X105.062 Y122.938 E22.10774
G1 X101.882 Y121.219 E22.22797
G1 X99.256 Y118.737 E22.34815
G1 X97.362 Y115.66 E22.46832
G1 X96.326 Y112.192 E22.58871
G1 X96.226 Y108.581 E22.70885
G1 X97.062 Y105.062 E22.82915
G1 X98.781 Y101.882 E22.94939
G1 X101.263 Y99.256 E23.06957
G1 X104.34 Y97.362 E23.18974
G1 X107.808 Y96.326 E23.31012
G1 X111.419 Y96.226 E23.43027
G1 X114.938 Y97.062 E23.55057
G1 X118.118 Y98.781 E23.6708
