;FLAVOR:Marlin
;TIME:2126
;Filament used: 1.06691m
;Layer height: 0.2
;MINX:85.06
;MINY:84.768
;MINZ:0.2
;MAXX:135.524
;MAXY:135.232
;MAXZ:7.8
;Generated with Cura_SteamEngine 4.10.0
M140 S60
M105
M190 S60
M104 S200
M105
M109 S200
M82 ;absolute extrusion mode
; Ender 3 Custom Start G-code
G92 E0 ; Reset Extruder
G28 ; Home all axes
G1 Z2.0 F3000 ; Move Z Axis up little to prevent scratching of Heat Bed
G1 X0.1 Y20 Z0.3 F5000.0 ; Move to start position
G1 X0.1 Y200.0 Z0.3 F1500.0 E15 ; Draw the first line
G1 X0.4 Y200.0 Z0.3 F5000.0 ; Move to side a little
G1 X0.4 Y20 Z0.3 F1500.0 E30 ; Draw the second line
G92 E0 ; Reset Extruder
G1 Z2.0 F3000 ; Move Z Axis up little to prevent scratching of Heat Bed
G1 X5 Y20 Z0.3 F5000.0 ; Move over to prevent blob squish
G92 E0
G92 E0
G1 F1500 E-6.5
;LAYER_COUNT:39
;LAYER:0
M107
G0 F6000 X92.19 Y92.419 Z0.2
;TYPE:SKIRT
G1 F1500 E0
G1 F1200 X92.86 Y91.763 E0.03119
G1 X93.362 Y91.339 E0.05304
G1 X94.205 Y90.67 E0.08884
G1 X95.879 Y89.385 E0.15903
G1 X96.579 Y88.863 E0.18807
G1 X97.354 Y88.335 E0.21926
G1 X98.172 Y87.876 E0.25046
G1 X98.747 Y87.604 E0.27161
G1 X99.624 Y87.221 E0.30344
G1 X99.825 Y87.136 E0.3107
G1 X101.91 Y86.275 E0.38573
G1 X102.504 Y86.038 E0.407
G1 X103.389 Y85.728 E0.43819
G1 X104.297 Y85.495 E0.46937
G1 X104.955 Y85.376 E0.49161
G1 X105.839 Y85.244 E0.52134
G1 X108.162 Y84.936 E0.59928
G1 X108.987 Y84.838 E0.62691
G1 X109.923 Y84.768 E0.65813
G1 X110.861 Y84.779 E0.68933
G1 X111.51 Y84.833 E0.71099
G1 X112.407 Y84.935 E0.74101
G1 X112.601 Y84.959 E0.74752
G1 X114.883 Y85.261 E0.82408
G1 X115.531 Y85.355 E0.84585
G1 X116.453 Y85.529 E0.87706
G1 X117.356 Y85.781 E0.90824
G1 X117.981 Y86.005 E0.93033
G1 X118.799 Y86.327 E0.95956
G1 X121.117 Y87.286 E1.043
G1 X121.721 Y87.545 E1.06486
G1 X122.567 Y87.951 E1.09607
G1 X123.374 Y88.428 E1.12725
G1 X123.931 Y88.814 E1.14979
G1 X124.826 Y89.478 E1.18685
G1 X126.632 Y90.865 E1.26259
G1 X127.151 Y91.274 E1.28457
G1 X127.862 Y91.886 E1.31577
G1 X128.518 Y92.555 E1.34693
G1 X128.956 Y93.073 E1.3695
G1 X129.622 Y93.914 E1.40518
G1 X131.025 Y95.745 E1.4819
G1 X131.433 Y96.293 E1.50462
G1 X131.961 Y97.068 E1.53581
G1 X132.42 Y97.886 E1.56701
G1 X132.697 Y98.474 E1.58863
G1 X133.045 Y99.274 E1.61764
G1 X133.96 Y101.478 E1.69702
G1 X134.246 Y102.188 E1.72247
G1 X134.559 Y103.072 E1.75367
G1 X134.795 Y103.98 E1.78487
G1 X134.924 Y104.699 E1.80916
G1 X135.074 Y105.733 E1.84392
G1 X135.376 Y108.028 E1.92091
G1 X135.454 Y108.693 E1.94318
G1 X135.524 Y109.628 E1.97436
G1 X135.513 Y110.566 E2.00556
G1 X135.459 Y111.215 E2.02722
G1 X135.357 Y112.113 E2.05728
G1 X135.333 Y112.309 E2.06385
G1 X135.032 Y114.587 E2.14027
G1 X134.939 Y115.23 E2.16188
G1 X134.765 Y116.151 E2.19306
G1 X134.513 Y117.055 E2.22427
G1 X134.288 Y117.683 E2.24646
G1 X133.948 Y118.547 E2.27734
G1 X133.874 Y118.73 E2.28391
G1 X133.006 Y120.822 E2.35924
G1 X132.732 Y121.457 E2.38224
G1 X132.324 Y122.302 E2.41345
G1 X131.846 Y123.108 E2.44462
G1 X131.475 Y123.641 E2.46622
G1 X130.835 Y124.504 E2.50195
G1 X129.441 Y126.32 E2.57809
G1 X129.016 Y126.859 E2.60092
G1 X128.404 Y127.57 E2.63213
G1 X127.734 Y128.226 E2.66331
G1 X127.227 Y128.656 E2.68542
G1 X126.493 Y129.24 E2.71662
G1 X124.675 Y130.635 E2.79284
G1 X123.999 Y131.14 E2.8209
G1 X123.224 Y131.668 E2.85209
G1 X122.406 Y132.127 E2.88329
G1 X121.817 Y132.405 E2.90495
G1 X120.851 Y132.824 E2.93998
G1 X118.701 Y133.714 E3.01737
G1 X118.079 Y133.962 E3.03964
G1 X117.194 Y134.272 E3.07083
G1 X116.285 Y134.505 E3.10204
G1 X115.645 Y134.621 E3.12367
G1 X114.743 Y134.757 E3.15401
G1 X114.538 Y134.786 E3.1609
G1 X112.263 Y135.084 E3.23721
G1 X111.597 Y135.162 E3.25952
G1 X110.661 Y135.232 E3.29073
G1 X109.723 Y135.221 E3.32193
G1 X109.074 Y135.167 E3.34359
G1 X108.177 Y135.065 E3.37362
G1 X107.983 Y135.041 E3.38012
G1 X105.71 Y134.74 E3.45638
G1 X105.065 Y134.647 E3.47806
G1 X104.143 Y134.474 E3.50926
G1 X103.24 Y134.223 E3.54043
G1 X102.599 Y133.993 E3.56308
G1 X101.742 Y133.655 E3.59372
G1 X99.617 Y132.776 E3.67021
G1 X98.84 Y132.442 E3.69834
G1 X97.995 Y132.035 E3.72953
G1 X97.188 Y131.557 E3.76073
G1 X96.65 Y131.183 E3.78252
G1 X95.92 Y130.643 E3.81272
G1 X95.765 Y130.526 E3.81918
G1 X93.962 Y129.142 E3.89478
G1 X93.433 Y128.725 E3.91718
G1 X92.722 Y128.113 E3.94839
G1 X92.066 Y127.443 E3.97957
G1 X91.633 Y126.933 E4.00183
G1 X91.066 Y126.22 E4.03212
G1 X89.649 Y124.375 E4.1095
G1 X89.148 Y123.704 E4.13735
G1 X88.62 Y122.928 E4.16857
G1 X88.161 Y122.111 E4.19974
G1 X87.887 Y121.528 E4.22116
G1 X87.452 Y120.525 E4.25752
G1 X86.618 Y118.509 E4.33009
G1 X86.329 Y117.784 E4.35605
G1 X86.019 Y116.899 E4.38724
G1 X85.786 Y115.991 E4.41841
G1 X85.67 Y115.35 E4.44008
G1 X85.533 Y114.439 E4.47072
G1 X85.505 Y114.239 E4.47744
G1 X85.227 Y112.127 E4.54829
G1 X85.13 Y111.305 E4.57582
G1 X85.06 Y110.369 E4.60704
G1 X85.071 Y109.431 E4.63824
G1 X85.125 Y108.782 E4.6599
G1 X85.227 Y107.885 E4.68992
G1 X85.251 Y107.691 E4.69643
G1 X85.533 Y105.551 E4.76822
G1 X85.647 Y104.762 E4.79473
G1 X85.82 Y103.841 E4.8259
G1 X86.072 Y102.937 E4.85712
G1 X86.294 Y102.318 E4.87899
G1 X86.609 Y101.516 E4.90765
G1 X86.685 Y101.328 E4.91439
G1 X87.583 Y99.162 E4.99238
G1 X87.837 Y98.57 E5.0138
G1 X88.243 Y97.724 E5.04501
G1 X88.72 Y96.917 E5.07619
G1 X89.108 Y96.358 E5.09883
G1 X89.793 Y95.436 E5.13703
G1 X91.152 Y93.667 E5.21122
G1 X91.577 Y93.129 E5.23403
G1 X92.19 Y92.419 E5.26523
G0 F6000 X92.493 Y92.68
G1 F1200 X93.152 Y92.038 E5.29583
G1 X93.611 Y91.652 E5.31577
G1 X94.305 Y91.1 E5.34527
G1 X96.123 Y89.703 E5.42152
G1 X96.818 Y89.184 E5.45037
G1 X97.579 Y88.666 E5.48099
G1 X98.383 Y88.217 E5.51162
G1 X98.907 Y87.971 E5.53087
G1 X99.784 Y87.588 E5.5627
G1 X99.977 Y87.506 E5.56968
G1 X102.058 Y86.647 E5.64456
G1 X102.652 Y86.41 E5.66583
G1 X103.521 Y86.106 E5.69645
G1 X104.413 Y85.879 E5.72706
G1 X105.015 Y85.771 E5.7474
G1 X106.077 Y85.614 E5.78311
G1 X108.368 Y85.313 E5.85996
G1 X109.034 Y85.235 E5.88227
G1 X109.952 Y85.168 E5.91288
G1 X110.873 Y85.18 E5.94352
G1 X111.465 Y85.231 E5.96328
G1 X112.362 Y85.333 E5.99331
G1 X112.549 Y85.356 E5.99957
G1 X114.826 Y85.657 E6.07596
G1 X115.474 Y85.751 E6.09774
G1 X116.378 Y85.922 E6.12834
G1 X117.264 Y86.172 E6.15896
G1 X117.835 Y86.378 E6.17915
G1 X118.825 Y86.769 E6.21455
G1 X120.959 Y87.654 E6.29139
G1 X121.563 Y87.913 E6.31325
G1 X122.393 Y88.312 E6.34388
G1 X123.185 Y88.782 E6.37451
G1 X123.693 Y89.135 E6.39509
G1 X124.436 Y89.685 E6.42583
G1 X126.384 Y91.179 E6.50749
G1 X126.903 Y91.588 E6.52946
G1 X127.601 Y92.189 E6.5601
G1 X128.244 Y92.848 E6.59072
G1 X128.642 Y93.321 E6.61128
G1 X129.304 Y94.157 E6.64675
G1 X130.704 Y95.984 E6.72331
G1 X131.112 Y96.532 E6.74603
G1 X131.63 Y97.293 E6.77665
G1 X132.079 Y98.097 E6.80728
G1 X132.33 Y98.634 E6.82699
G1 X132.678 Y99.434 E6.85601
G1 X133.633 Y101.735 E6.93887
G1 X133.875 Y102.337 E6.96045
G1 X134.181 Y103.206 E6.99109
G1 X134.411 Y104.097 E7.0217
G1 X134.528 Y104.757 E7.04399
G1 X134.678 Y105.786 E7.07858
G1 X134.979 Y108.074 E7.15533
G1 X135.057 Y108.739 E7.1776
G1 X135.124 Y109.657 E7.20822
G1 X135.112 Y110.578 E7.23885
G1 X135.061 Y111.17 E7.25861
G1 X134.936 Y112.257 E7.29501
G1 X134.636 Y114.529 E7.37123
G1 X134.543 Y115.172 E7.39284
G1 X134.372 Y116.077 E7.42347
G1 X134.123 Y116.963 E7.45408
G1 X133.916 Y117.537 E7.47438
G1 X133.576 Y118.401 E7.50526
G1 X132.639 Y120.664 E7.58672
G1 X132.365 Y121.299 E7.60973
G1 X131.963 Y122.127 E7.64034
G1 X131.492 Y122.918 E7.67096
G1 X131.154 Y123.403 E7.69062
G1 X130.628 Y124.114 E7.72004
G1 X129.214 Y125.96 E7.79738
G1 X128.702 Y126.611 E7.82492
G1 X128.101 Y127.309 E7.85556
G1 X127.442 Y127.951 E7.88616
G1 X126.978 Y128.343 E7.90636
G1 X126.244 Y128.927 E7.93756
G1 X124.431 Y130.318 E8.01356
G1 X123.76 Y130.819 E8.04142
G1 X122.999 Y131.337 E8.07203
G1 X122.195 Y131.786 E8.10266
G1 X121.658 Y132.038 E8.12239
G1 X120.698 Y132.454 E8.15719
G1 X118.553 Y133.342 E8.23441
G1 X117.931 Y133.59 E8.25668
G1 X117.062 Y133.894 E8.2873
G1 X116.169 Y134.121 E8.31794
G1 X115.585 Y134.226 E8.33768
G1 X114.683 Y134.362 E8.36802
G1 X112.366 Y134.668 E8.44575
G1 X111.55 Y134.765 E8.47308
G1 X110.632 Y134.832 E8.5037
G1 X109.711 Y134.82 E8.53433
G1 X109.119 Y134.769 E8.5541
G1 X108.222 Y134.667 E8.58412
G1 X108.035 Y134.644 E8.59039
G1 X105.767 Y134.345 E8.66647
G1 X105.122 Y134.252 E8.68815
G1 X104.218 Y134.081 E8.71875
G1 X103.331 Y133.832 E8.74939
G1 X102.746 Y133.621 E8.77008
G1 X101.72 Y133.215 E8.80678
G1 X99.77 Y132.407 E8.87698
G1 X98.998 Y132.075 E8.90493
G1 X98.169 Y131.674 E8.93556
G1 X97.378 Y131.203 E8.96618
G1 X96.888 Y130.862 E8.98603
G1 X96.008 Y130.209 E9.02248
G1 X94.21 Y128.828 E9.09789
G1 X93.681 Y128.411 E9.12029
G1 X92.983 Y127.81 E9.15093
G1 X92.34 Y127.151 E9.18155
G1 X91.947 Y126.684 E9.20185
G1 X91.268 Y125.828 E9.23819
G1 X89.869 Y124.004 E9.31465
G1 X89.468 Y123.465 E9.33699
G1 X88.952 Y122.703 E9.3676
G1 X88.503 Y121.9 E9.3982
G1 X88.254 Y121.368 E9.41774
G1 X87.822 Y120.372 E9.45384
G1 X86.935 Y118.226 E9.53108
G1 X86.7 Y117.636 E9.5522
G1 X86.397 Y116.767 E9.58281
G1 X86.171 Y115.875 E9.61342
G1 X86.066 Y115.29 E9.63318
G1 X85.929 Y114.379 E9.66382
G1 X85.902 Y114.186 E9.67031
G1 X85.605 Y111.924 E9.74619
G1 X85.527 Y111.258 E9.76849
G1 X85.46 Y110.34 E9.7991
G1 X85.472 Y109.419 E9.82974
G1 X85.523 Y108.827 E9.8495
G1 X85.625 Y107.93 E9.87953
G1 X85.648 Y107.743 E9.88579
G1 X85.948 Y105.469 E9.96208
G1 X86.042 Y104.82 E9.98389
G1 X86.214 Y103.915 E10.01453
G1 X86.463 Y103.029 E10.04514
G1 X86.667 Y102.464 E10.06512
G1 X86.982 Y101.662 E10.09378
G1 X87.055 Y101.481 E10.10027
G1 X87.951 Y99.319 E10.17811
G1 X88.205 Y98.727 E10.19954
G1 X88.604 Y97.898 E10.23014
G1 X89.074 Y97.106 E10.26077
G1 X89.429 Y96.597 E10.28141
G1 X90.11 Y95.68 E10.3194
G1 X91.466 Y93.915 E10.39343
G1 X91.891 Y93.377 E10.41623
G1 X92.493 Y92.68 E10.44686
G0 F6000 X92.796 Y92.942
G1 F1200 X93.444 Y92.314 E10.47688
G1 X93.86 Y91.965 E10.49494
G1 X94.692 Y91.305 E10.53026
G1 X96.484 Y89.93 E10.60539
G1 X97.056 Y89.504 E10.62911
G1 X97.804 Y88.998 E10.65914
G1 X98.593 Y88.559 E10.68917
G1 X99.067 Y88.338 E10.70657
G1 X100.13 Y87.875 E10.74513
G1 X102.206 Y87.018 E10.81983
G1 X102.8 Y86.781 E10.8411
G1 X103.653 Y86.484 E10.87114
G1 X104.529 Y86.263 E10.90119
G1 X105.074 Y86.167 E10.9196
G1 X106.13 Y86.011 E10.9551
G1 X108.415 Y85.71 E11.03176
G1 X109.081 Y85.632 E11.05406
G1 X109.981 Y85.567 E11.08407
G1 X110.884 Y85.582 E11.11411
G1 X111.419 Y85.628 E11.13197
G1 X112.497 Y85.752 E11.16806
G1 X114.637 Y86.034 E11.23985
G1 X115.416 Y86.147 E11.26604
G1 X116.303 Y86.316 E11.29607
G1 X117.172 Y86.563 E11.32612
G1 X117.688 Y86.75 E11.34437
G1 X118.672 Y87.139 E11.37956
G1 X120.802 Y88.022 E11.45625
G1 X121.406 Y88.281 E11.47811
G1 X122.219 Y88.673 E11.50813
G1 X122.995 Y89.136 E11.53819
G1 X123.455 Y89.457 E11.55684
G1 X124.339 Y90.113 E11.59346
G1 X126.033 Y91.413 E11.66448
G1 X126.655 Y91.903 E11.69081
G1 X127.339 Y92.493 E11.72086
G1 X127.968 Y93.141 E11.75089
G1 X128.329 Y93.57 E11.76954
G1 X128.987 Y94.401 E11.8048
G1 X130.383 Y96.223 E11.88114
G1 X130.791 Y96.771 E11.90386
G1 X131.298 Y97.518 E11.93389
G1 X131.737 Y98.308 E11.96395
G1 X131.963 Y98.793 E11.98175
G1 X132.381 Y99.757 E12.01669
G1 X133.262 Y101.885 E12.0933
G1 X133.504 Y102.487 E12.11488
G1 X133.803 Y103.339 E12.14491
G1 X134.026 Y104.214 E12.17494
G1 X134.133 Y104.815 E12.19525
G1 X134.281 Y105.838 E12.22962
G1 X134.582 Y108.121 E12.30621
G1 X134.66 Y108.786 E12.32848
G1 X134.725 Y109.686 E12.3585
G1 X134.71 Y110.589 E12.38853
G1 X134.664 Y111.125 E12.40643
G1 X134.54 Y112.205 E12.44258
G1 X134.24 Y114.472 E12.51864
G1 X134.147 Y115.115 E12.54025
G1 X133.978 Y116.002 E12.57028
G1 X133.732 Y116.871 E12.60032
G1 X133.544 Y117.39 E12.61868
G1 X133.204 Y118.254 E12.64956
G1 X132.329 Y120.369 E12.72569
G1 X131.997 Y121.14 E12.75361
G1 X131.603 Y121.953 E12.78366
G1 X131.139 Y122.727 E12.81367
G1 X130.832 Y123.165 E12.83146
G1 X130.2 Y124.017 E12.86675
G1 X128.813 Y125.825 E12.94254
G1 X128.388 Y126.364 E12.96537
G1 X127.798 Y127.047 E12.99539
G1 X127.149 Y127.676 E13.02545
G1 X126.729 Y128.03 E13.04372
G1 X125.995 Y128.614 E13.07491
G1 X124.188 Y130 E13.15066
G1 X123.521 Y130.498 E13.17834
G1 X122.774 Y131.005 E13.20837
G1 X121.984 Y131.444 E13.23843
G1 X121.498 Y131.671 E13.25627
G1 X120.545 Y132.085 E13.29083
G1 X118.405 Y132.971 E13.36787
G1 X117.783 Y133.219 E13.39014
G1 X116.93 Y133.516 E13.42018
G1 X116.054 Y133.736 E13.45022
G1 X115.526 Y133.83 E13.46806
G1 X114.434 Y133.993 E13.50478
G1 X112.169 Y134.29 E13.58076
G1 X111.503 Y134.368 E13.60306
G1 X110.603 Y134.433 E13.63307
G1 X109.7 Y134.418 E13.66311
G1 X109.165 Y134.372 E13.68097
G1 X108.087 Y134.248 E13.71706
G1 X105.824 Y133.949 E13.79298
G1 X105.179 Y133.856 E13.81466
G1 X104.292 Y133.687 E13.84469
G1 X103.423 Y133.441 E13.87473
G1 X102.893 Y133.249 E13.89348
G1 X101.873 Y132.845 E13.92997
G1 X99.792 Y131.982 E14.0049
G1 X99.156 Y131.708 E14.02793
G1 X98.343 Y131.314 E14.05798
G1 X97.569 Y130.85 E14.088
G1 X97.126 Y130.54 E14.10598
G1 X96.252 Y129.892 E14.14217
G1 X94.562 Y128.595 E14.21302
G1 X93.929 Y128.096 E14.23983
G1 X93.245 Y127.507 E14.26985
G1 X92.616 Y126.858 E14.29991
G1 X92.26 Y126.435 E14.3183
G1 X91.585 Y125.584 E14.35443
G1 X90.19 Y123.765 E14.43067
G1 X89.789 Y123.226 E14.45302
G1 X89.283 Y122.479 E14.48303
G1 X88.845 Y121.689 E14.51307
G1 X88.62 Y121.208 E14.53073
G1 X88.264 Y120.39 E14.5604
G1 X87.358 Y118.203 E14.63914
G1 X87.072 Y117.488 E14.66475
G1 X86.775 Y116.635 E14.69479
G1 X86.555 Y115.759 E14.72483
G1 X86.461 Y115.231 E14.74267
G1 X86.324 Y114.32 E14.77331
G1 X86.02 Y112.022 E14.85041
G1 X85.924 Y111.211 E14.87757
G1 X85.859 Y110.311 E14.90758
G1 X85.874 Y109.408 E14.93762
G1 X85.92 Y108.873 E14.95548
G1 X86.044 Y107.795 E14.99157
G1 X86.344 Y105.526 E15.0677
G1 X86.438 Y104.877 E15.08951
G1 X86.607 Y103.99 E15.11954
G1 X86.854 Y103.121 E15.14959
G1 X87.039 Y102.61 E15.16766
G1 X87.424 Y101.634 E15.20256
G1 X88.318 Y99.477 E15.28022
G1 X88.572 Y98.885 E15.30164
G1 X88.965 Y98.072 E15.33168
G1 X89.428 Y97.296 E15.36173
G1 X89.75 Y96.835 E15.38044
G1 X90.427 Y95.924 E15.41819
G1 X91.78 Y94.163 E15.49205
G1 X92.205 Y93.625 E15.51485
G1 X92.796 Y92.942 E15.54489
G1 F1500 E9.04489
;MESH:CR2032-Button-Battery-Holder-Case_base.stl
G0 F6000 X99.663 Y99.553
G0 X100.444 Y100.152
G0 X103.557 Y98.33
G0 X106.806 Y96.986
G0 X110.292 Y96.527
G0 X113.778 Y96.986
G0 X117.025 Y98.33
G0 X119.818 Y100.474
G0 X120.651 Y101.582
G0 X117.094 Y103.392
G0 X118.492 Y105.257
G0 X119.971 Y108.264
G0 X123.742 Y108.516
;TYPE:WALL-INNER
G1 F1500 E15.54489
G1 F1200 X123.937 Y110 E15.59468
G1 X123.472 Y113.528 E15.71303
G1 X122.106 Y116.825 E15.83173
G1 X119.94 Y119.648 E15.95008
G1 X117.117 Y121.814 E16.06842
G1 X113.82 Y123.18 E16.18712
G1 X110.292 Y123.645 E16.30548
G1 X108.353 Y123.39 E16.37052
G1 X108.279 Y123.381 E16.373
G1 X108.001 Y123.344 E16.38233
G1 X107.747 Y123.31 E16.39086
G1 X108.015 Y123.234 E16.39261
G1 X108.321 Y123.059 E16.39977
G1 X108.373 Y123.006 E16.40203
G1 X108.567 Y122.808 E16.41125
G1 X108.742 Y122.506 E16.42286
G1 X108.836 Y122.165 E16.43463
G1 X108.836 Y121.807 E16.44653
G1 X108.742 Y121.466 E16.4583
G1 X108.566 Y121.163 E16.46995
G1 X108.312 Y120.906 E16.48197
G1 X108.041 Y120.754 E16.49231
G1 X104.271 Y119.191 E16.62805
G1 X103.965 Y119.112 E16.63856
G1 X103.613 Y119.113 E16.65027
G1 X103.273 Y119.206 E16.66199
G1 X102.968 Y119.383 E16.67372
G1 X102.722 Y119.629 E16.68529
G1 X102.546 Y119.935 E16.69703
G1 X102.452 Y120.277 E16.70883
G1 X102.452 Y120.552 E16.71797
G1 X102.452 Y120.635 E16.72073
G1 X102.546 Y120.976 E16.7325
G1 X102.681 Y121.211 E16.74151
G1 X102.483 Y121.059 E16.74242
G1 X102.259 Y120.887 E16.74832
G1 X102.194 Y120.837 E16.7508
G1 X100.644 Y119.648 E16.81577
G1 X99.796 Y118.543 E16.8621
G1 X99.651 Y118.354 E16.87002
G1 X99.864 Y118.246 E16.8749
G1 X103.004 Y116.647 E16.9921
G1 X103.215 Y116.54 E16.99997
G1 X103.073 Y116.351 E17.00482
G1 X102.493 Y115.582 E17.03685
G1 X102.401 Y115.45 E17.0422
G1 X101.942 Y114.828 E17.06791
G1 X100.977 Y112.502 E17.15167
G1 X100.925 Y112.055 E17.16664
G1 X100.8 Y111.463 E17.18676
